assets/lut/Bleach-Bypass.cube
LUT_3D_SIZE 9
DOMAIN_MIN 0.0 0.0 0.0
DOMAIN_MAX 1.0 1.0 1.0
0.00000 0.00000 0.00000
0.00000 0.00000 0.00000
0.09370 0.00000 0.00583
0.19055 0.00000 0.01875
0.28740 0.00000 0.03166
0.38425 0.00697 0.04458
0.48110 0.02036 0.05749
0.57795 0.03376 0.07041
0.67480 0.04715 0.08332
0.00000 0.06206 0.02345
0.04513 0.07545 0.03636
0.14198 0.08885 0.04928
0.23883 0.10224 0.06219
0.33568 0.11563 0.07511
0.43253 0.12903 0.08803
0.52938 0.14242 0.10094
0.62623 0.15581 0.11386
0.72308 0.16921 0.12677
0.00000 0.18412 0.06690
0.09340 0.19751 0.07981
0.19025 0.21090 0.09273
0.28710 0.22430 0.10564
0.38395 0.23769 0.11856
0.48080 0.25108 0.13147
0.57765 0.26448 0.14439
0.67451 0.27787 0.15730
0.77136 0.29127 0.17022
0.04483 0.30617 0.11035
0.14168 0.31957 0.12326
0.23853 0.33296 0.13618
0.33538 0.34635 0.14909
0.43223 0.35975 0.16201
0.52908 0.37314 0.17492
0.62593 0.38654 0.18784
0.72278 0.39993 0.20075
0.81963 0.41332 0.21367
0.09310 0.42823 0.15379
0.18995 0.44162 0.16671
0.28680 0.45502 0.17962
0.38366 0.46841 0.19254
0.48051 0.48181 0.20546
0.57736 0.49520 0.21837
0.67421 0.50859 0.23129
0.77106 0.52199 0.24420
0.86791 0.53538 0.25712
0.14138 0.55029 0.19724
0.23823 0.56368 0.21016
0.33508 0.57708 0.22307
0.43193 0.59047 0.23599
0.52878 0.60386 0.24890
0.62563 0.61726 0.26182
0.72248 0.63065 0.27473
0.81933 0.64404 0.28765
0.91618 0.65744 0.30057
0.18966 0.67235 0.24069
0.28651 0.68574 0.25361
0.38336 0.69913 0.26652
0.48021 0.71253 0.27944
0.57706 0.72592 0.29235
0.67391 0.73931 0.30527
0.77076 0.75271 0.31818
0.86761 0.76610 0.33110
0.96446 0.77950 0.34401
0.23793 0.79440 0.28414
0.33478 0.80780 0.29705
0.43163 0.82119 0.30997
0.52848 0.83458 0.32289
0.62533 0.84798 0.33580
0.72218 0.86137 0.34872
0.81903 0.87477 0.36163
0.91589 0.88816 0.37455
1.00000 0.90155 0.38746
0.28621 0.91646 0.32759
0.38306 0.92985 0.34050
0.47991 0.94325 0.35342
0.57676 0.95664 0.36633
0.67361 0.97004 0.37925
0.77046 0.98343 0.39216
0.86731 0.99682 0.40508
0.96416 1.00000 0.41800
1.00000 1.00000 0.43091
0.00000 0.00000 0.05864
0.00172 0.00000 0.07155
0.09857 0.00000 0.08447
0.19543 0.00000 0.09738
0.29228 0.00000 0.11030
0.38913 0.01152 0.12321
0.48598 0.02491 0.13613
0.58283 0.03831 0.14904
0.67968 0.05170 0.16196
0.00000 0.06661 0.10208
0.05000 0.08000 0.11500
0.14685 0.09339 0.12792
0.24370 0.10679 0.14083
0.34055 0.12018 0.15375
0.43740 0.13358 0.16666
0.53425 0.14697 0.17958
0.63110 0.16036 0.19249
0.72795 0.17376 0.20541
0.00143 0.18866 0.14553
0.09828 0.20206 0.15845
0.19513 0.21545 0.17136
0.29198 0.22885 0.18428
0.38883 0.24224 0.19719
0.48568 0.25563 0.21011
0.58253 0.26903 0.22303
0.67938 0.28242 0.23594
0.77623 0.29581 0.24886
0.04970 0.31072 0.18898
0.14655 0.32412 0.20190
0.24340 0.33751 0.21481
0.34025 0.35090 0.22773
0.43710 0.36430 0.24064
0.53395 0.37769 0.25356
0.63080 0.39108 0.26647
0.72765 0.40448 0.27939
0.82451 0.41787 0.29230
0.09798 0.43278 0.23243
0.19483 0.44617 0.24535
0.29168 0.45957 0.25826
0.38853 0.47296 0.27118
0.48538 0.48635 0.28409
0.58223 0.49975 0.29701
0.67908 0.51314 0.30992
0.77593 0.52654 0.32284
0.87278 0.53993 0.33575
0.14625 0.55484 0.27588
0.24310 0.56823 0.28879
0.33995 0.58162 0.30171
0.43680 0.59502 0.31462
0.53366 0.60841 0.32754
0.63051 0.62181 0.34046
0.72736 0.63520 0.35337
0.82421 0.64859 0.36629
0.92106 0.66199 0.37920
0.19453 0.67689 0.31933
0.29138 0.69029 0.33224
0.38823 0.70368 0.34516
0.48508 0.71708 0.35807
0.58193 0.73047 0.37099
0.67878 0.74386 0.38390
0.77563 0.75726 0.39682
0.87248 0.77065 0.40973
0.96933 0.78404 0.42265
0.24281 0.79895 0.36277
0.33966 0.81235 0.37569
0.43651 0.82574 0.38861
0.53336 0.83913 0.40152
0.63021 0.85253 0.41444
0.72706 0.86592 0.42735
0.82391 0.87931 0.44027
0.92076 0.89271 0.45318
1.00000 0.90610 0.46610
0.29108 0.92101 0.40622
0.38793 0.93440 0.41914
0.48478 0.94780 0.43205
0.58163 0.96119 0.44497
0.67848 0.97458 0.45789
0.77533 0.98798 0.47080
0.87218 1.00000 0.48372
0.96903 1.00000 0.49663
1.00000 1.00000 0.50955
0.00000 0.00000 0.13727
0.00660 0.00000 0.15019
0.10345 0.00000 0.16310
0.20030 0.00000 0.17602
0.29715 0.00267 0.18893
0.39400 0.01607 0.20185
0.49085 0.02946 0.21476
0.58770 0.04285 0.22768
0.68455 0.05625 0.24060
0.00000 0.07115 0.18072
0.05487 0.08455 0.19364
0.15172 0.09794 0.20655
0.24857 0.11134 0.21947
0.34542 0.12473 0.23238
0.44228 0.13812 0.24530
0.53913 0.15152 0.25821
0.63598 0.16491 0.27113
0.73283 0.17831 0.28404
0.00630 0.19321 0.22417
0.10315 0.20661 0.23708
0.20000 0.22000 0.25000
0.29685 0.23339 0.26292
0.39370 0.24679 0.27583
0.49055 0.26018 0.28875
0.58740 0.27358 0.30166
0.68425 0.28697 0.31458
0.78110 0.30036 0.32749
0.05457 0.31527 0.26762
0.15143 0.32866 0.28053
0.24828 0.34206 0.29345
0.34513 0.35545 0.30636
0.44198 0.36885 0.31928
0.53883 0.38224 0.33219
0.63568 0.39563 0.34511
0.73253 0.40903 0.35803
0.82938 0.42242 0.37094
0.10285 0.43733 0.31107
0.19970 0.45072 0.32398
0.29655 0.46412 0.33690
0.39340 0.47751 0.34981
0.49025 0.49090 0.36273
0.58710 0.50430 0.37564
0.68395 0.51769 0.38856
0.78080 0.53108 0.40147
0.87766 0.54448 0.41439
0.15113 0.55939 0.35451
0.24798 0.57278 0.36743
0.34483 0.58617 0.38035
0.44168 0.59957 0.39326
0.53853 0.61296 0.40618
0.63538 0.62635 0.41909
0.73223 0.63975 0.43201
0.82908 0.65314 0.44492
0.92593 0.66654 0.45784
0.19940 0.68144 0.39796
0.29625 0.69484 0.41088
0.39310 0.70823 0.42379
0.48995 0.72162 0.43671
0.58681 0.73502 0.44962
0.68366 0.74841 0.46254
0.78051 0.76181 0.47546
0.87736 0.77520 0.48837
0.97421 0.78859 0.50129
0.24768 0.80350 0.44141
0.34453 0.81689 0.45433
0.44138 0.83029 0.46724
0.53823 0.84368 0.48016
0.63508 0.85708 0.49307
0.73193 0.87047 0.50599
0.82878 0.88386 0.51890
0.92563 0.89726 0.53182
1.00000 0.91065 0.54473
0.29595 0.92556 0.48486
0.39281 0.93895 0.49777
0.48966 0.95235 0.51069
0.58651 0.96574 0.52361
0.68336 0.97913 0.53652
0.78021 0.99253 0.54944
0.87706 1.00000 0.56235
0.97391 1.00000 0.57527
1.00000 1.00000 0.58818
0.00000 0.00000 0.21591
0.01147 0.00000 0.22882
0.10832 0.00000 0.24174
0.20517 0.00000 0.25465
0.30202 0.00722 0.26757
0.39887 0.02061 0.28049
0.49572 0.03401 0.29340
0.59257 0.04740 0.30632
0.68942 0.06080 0.31923
0.00000 0.07570 0.25936
0.05975 0.08910 0.27227
0.15660 0.10249 0.28519
0.25345 0.11588 0.29810
0.35030 0.12928 0.31102
0.44715 0.14267 0.32393
0.54400 0.15607 0.33685
0.64085 0.16946 0.34976
0.73770 0.18285 0.36268
0.01117 0.19776 0.30281
0.10802 0.21115 0.31572
0.20487 0.22455 0.32864
0.30172 0.23794 0.34155
0.39857 0.25134 0.35447
0.49543 0.26473 0.36738
0.59228 0.27812 0.38030
0.68913 0.29152 0.39321
0.78598 0.30491 0.40613
0.05945 0.31982 0.34625
0.15630 0.33321 0.35917
0.25315 0.34661 0.37208
0.35000 0.36000 0.38500
0.44685 0.37339 0.39792
0.54370 0.38679 0.41083
0.64055 0.40018 0.42375
0.73740 0.41358 0.43666
0.83425 0.42697 0.44958
0.10772 0.44188 0.38970
0.20458 0.45527 0.40262
0.30143 0.46866 0.41553
0.39828 0.48206 0.42845
0.49513 0.49545 0.44136
0.59198 0.50885 0.45428
0.68883 0.52224 0.46719
0.78568 0.53563 0.48011
0.88253 0.54903 0.49303
0.15600 0.56393 0.43315
0.25285 0.57733 0.44607
0.34970 0.59072 0.45898
0.44655 0.60412 0.47190
0.54340 0.61751 0.48481
0.64025 0.63090 0.49773
0.73710 0.64430 0.51064
0.83395 0.65769 0.52356
0.93080 0.67108 0.53647
0.20428 0.68599 0.47660
0.30113 0.69939 0.48951
0.39798 0.71278 0.50243
0.49483 0.72617 0.51535
0.59168 0.73957 0.52826
0.68853 0.75296 0.54118
0.78538 0.76635 0.55409
0.88223 0.77975 0.56701
0.97908 0.79314 0.57992
0.25255 0.80805 0.52005
0.34940 0.82144 0.53296
0.44625 0.83484 0.54588
0.54310 0.84823 0.55879
0.63995 0.86162 0.57171
0.73680 0.87502 0.58462
0.83366 0.88841 0.59754
0.93051 0.90181 0.61046
1.00000 0.91520 0.62337
0.30083 0.93011 0.56350
0.39768 0.94350 0.57641
0.49453 0.95689 0.58933
0.59138 0.97029 0.60224
0.68823 0.98368 0.61516
0.78508 0.99708 0.62807
0.88193 1.00000 0.64099
0.97878 1.00000 0.65390
1.00000 1.00000 0.66682
0.00000 0.00000 0.29454
0.01634 0.00000 0.30746
0.11319 0.00000 0.32038
0.21005 0.00000 0.33329
0.30690 0.01177 0.34621
0.40375 0.02516 0.35912
0.50060 0.03856 0.37204
0.59745 0.05195 0.38495
0.69430 0.06534 0.39787
0.00000 0.08025 0.33799
0.06462 0.09365 0.35091
0.16147 0.10704 0.36382
0.25832 0.12043 0.37674
0.35517 0.13383 0.38965
0.45202 0.14722 0.40257
0.54887 0.16061 0.41549
0.64572 0.17401 0.42840
0.74257 0.18740 0.44132
0.01605 0.20231 0.38144
0.11290 0.21570 0.39436
0.20975 0.22910 0.40727
0.30660 0.24249 0.42019
0.40345 0.25588 0.43310
0.50030 0.26928 0.44602
0.59715 0.28267 0.45893
0.69400 0.29607 0.47185
0.79085 0.30946 0.48477
0.06432 0.32437 0.42489
0.16117 0.33776 0.43781
0.25802 0.35115 0.45072
0.35487 0.36455 0.46364
0.45172 0.37794 0.47655
0.54857 0.39134 0.48947
0.64543 0.40473 0.50238
0.74228 0.41812 0.51530
0.83913 0.43152 0.52821
0.11260 0.44642 0.46834
0.20945 0.45982 0.48125
0.30630 0.47321 0.49417
0.40315 0.48661 0.50708
0.50000 0.50000 0.52000
0.59685 0.51339 0.53292
0.69370 0.52679 0.54583
0.79055 0.54018 0.55875
0.88740 0.55358 0.57166
0.16087 0.56848 0.51179
0.25772 0.58188 0.52470
0.35457 0.59527 0.53762
0.45143 0.60866 0.55053
0.54828 0.62206 0.56345
0.64513 0.63545 0.57636
0.74198 0.64885 0.58928
0.83883 0.66224 0.60219
0.93568 0.67563 0.61511
0.20915 0.69054 0.55524
0.30600 0.70393 0.56815
0.40285 0.71733 0.58107
0.49970 0.73072 0.59398
0.59655 0.74412 0.60690
0.69340 0.75751 0.61981
0.79025 0.77090 0.63273
0.88710 0.78430 0.64564
0.98395 0.79769 0.65856
0.25743 0.81260 0.59868
0.35428 0.82599 0.61160
0.45113 0.83939 0.62451
0.54798 0.85278 0.63743
0.64483 0.86617 0.65035
0.74168 0.87957 0.66326
0.83853 0.89296 0.67618
0.93538 0.90635 0.68909
1.00000 0.91975 0.70201
0.30570 0.93466 0.64213
0.40255 0.94805 0.65505
0.49940 0.96144 0.66796
0.59625 0.97484 0.68088
0.69310 0.98823 0.69379
0.78995 1.00000 0.70671
0.88680 1.00000 0.71962
0.98366 1.00000 0.73254
1.00000 1.00000 0.74546
0.00000 0.00000 0.37318
0.02122 0.00000 0.38610
0.11807 0.00000 0.39901
0.21492 0.00292 0.41193
0.31177 0.01632 0.42484
0.40862 0.02971 0.43776
0.50547 0.04311 0.45067
0.60232 0.05650 0.46359
0.69917 0.06989 0.47650
0.00000 0.08480 0.41663
0.06949 0.09819 0.42954
0.16634 0.11159 0.44246
0.26320 0.12498 0.45538
0.36005 0.13838 0.46829
0.45690 0.15177 0.48121
0.55375 0.16516 0.49412
0.65060 0.17856 0.50704
0.74745 0.19195 0.51995
0.02092 0.20686 0.46008
0.11777 0.22025 0.47299
0.21462 0.23365 0.48591
0.31147 0.24704 0.49882
0.40832 0.26043 0.51174
0.50517 0.27383 0.52465
0.60202 0.28722 0.53757
0.69887 0.30061 0.55049
0.79572 0.31401 0.56340
0.06920 0.32892 0.50353
0.16605 0.34231 0.51644
0.26290 0.35570 0.52936
0.35975 0.36910 0.54227
0.45660 0.38249 0.55519
0.55345 0.39588 0.56810
0.65030 0.40928 0.58102
0.74715 0.42267 0.59393
0.84400 0.43607 0.60685
0.11747 0.45097 0.54697
0.21432 0.46437 0.55989
0.31117 0.47776 0.57281
0.40802 0.49115 0.58572
0.50487 0.50455 0.59864
0.60172 0.51794 0.61155
0.69857 0.53134 0.62447
0.79543 0.54473 0.63738
0.89228 0.55812 0.65030
0.16575 0.57303 0.59042
0.26260 0.58642 0.60334
0.35945 0.59982 0.61625
0.45630 0.61321 0.62917
0.55315 0.62661 0.64208
0.65000 0.64000 0.65500
0.74685 0.65339 0.66792
0.84370 0.66679 0.68083
0.94055 0.68018 0.69375
0.21402 0.69509 0.63387
0.31087 0.70848 0.64679
0.40772 0.72188 0.65970
0.50457 0.73527 0.67262
0.60143 0.74866 0.68553
0.69828 0.76206 0.69845
0.79513 0.77545 0.71136
0.89198 0.78885 0.72428
0.98883 0.80224 0.73719
0.26230 0.81715 0.67732
0.35915 0.83054 0.69023
0.45600 0.84393 0.70315
0.55285 0.85733 0.71607
0.64970 0.87072 0.72898
0.74655 0.88412 0.74190
0.84340 0.89751 0.75481
0.94025 0.91090 0.76773
1.00000 0.92430 0.78064
0.31058 0.93920 0.72077
0.40743 0.95260 0.73368
0.50428 0.96599 0.74660
0.60113 0.97939 0.75951
0.69798 0.99278 0.77243
0.79483 1.00000 0.78535
0.89168 1.00000 0.79826
0.98853 1.00000 0.81118
1.00000 1.00000 0.82409
0.00000 0.00000 0.45182
0.02609 0.00000 0.46473
0.12294 0.00000 0.47765
0.21979 0.00747 0.49056
0.31664 0.02087 0.50348
0.41349 0.03426 0.51639
0.51034 0.04765 0.52931
0.60719 0.06105 0.54223
0.70405 0.07444 0.55514
0.00000 0.08935 0.49527
0.07437 0.10274 0.50818
0.17122 0.11614 0.52110
0.26807 0.12953 0.53401
0.36492 0.14292 0.54693
0.46177 0.15632 0.55984
0.55862 0.16971 0.57276
0.65547 0.18311 0.58567
0.75232 0.19650 0.59859
0.02579 0.21141 0.53871
0.12264 0.22480 0.55163
0.21949 0.23819 0.56454
0.31634 0.25159 0.57746
0.41320 0.26498 0.59038
0.51005 0.27838 0.60329
0.60690 0.29177 0.61621
0.70375 0.30516 0.62912
0.80060 0.31856 0.64204
0.07407 0.33346 0.58216
0.17092 0.34686 0.59508
0.26777 0.36025 0.60799
0.36462 0.37365 0.62091
0.46147 0.38704 0.63382
0.55832 0.40043 0.64674
0.65517 0.41383 0.65965
0.75202 0.42722 0.67257
0.84887 0.44061 0.68549
0.12234 0.45552 0.62561
0.21920 0.46892 0.63853
0.31605 0.48231 0.65144
0.41290 0.49570 0.66436
0.50975 0.50910 0.67727
0.60660 0.52249 0.69019
0.70345 0.53588 0.70310
0.80030 0.54928 0.71602
0.89715 0.56267 0.72893
0.17062 0.57758 0.66906
0.26747 0.59097 0.68197
0.36432 0.60437 0.69489
0.46117 0.61776 0.70781
0.55802 0.63115 0.72072
0.65487 0.64455 0.73364
0.75172 0.65794 0.74655
0.84857 0.67134 0.75947
0.94542 0.68473 0.77238
0.21890 0.69964 0.71251
0.31575 0.71303 0.72542
0.41260 0.72642 0.73834
0.50945 0.73982 0.75125
0.60630 0.75321 0.76417
0.70315 0.76661 0.77708
0.80000 0.78000 0.79000
0.89685 0.79339 0.80292
0.99370 0.80679 0.81583
0.26717 0.82169 0.75596
0.36402 0.83509 0.76887
0.46087 0.84848 0.78179
0.55772 0.86188 0.79470
0.65458 0.87527 0.80762
0.75143 0.88866 0.82053
0.84828 0.90206 0.83345
0.94513 0.91545 0.84636
1.00000 0.92885 0.85928
0.31545 0.94375 0.79940
0.41230 0.95715 0.81232
0.50915 0.97054 0.82524
0.60600 0.98393 0.83815
0.70285 0.99733 0.85107
0.79970 1.00000 0.86398
0.89655 1.00000 0.87690
0.99340 1.00000 0.88981
1.00000 1.00000 0.90273
0.00000 0.00000 0.53045
0.03097 0.00000 0.54337
0.12782 0.00000 0.55628
0.22467 0.01202 0.56920
0.32152 0.02542 0.58211
0.41837 0.03881 0.59503
0.51522 0.05220 0.60795
0.61207 0.06560 0.62086
0.70892 0.07899 0.63378
0.00000 0.09390 0.57390
0.07924 0.10729 0.58682
0.17609 0.12069 0.59973
0.27294 0.13408 0.61265
0.36979 0.14747 0.62556
0.46664 0.16087 0.63848
0.56349 0.17426 0.65139
0.66034 0.18765 0.66431
0.75719 0.20105 0.67723
0.03067 0.21596 0.61735
0.12752 0.22935 0.63027
0.22437 0.24274 0.64318
0.32122 0.25614 0.65610
0.41807 0.26953 0.66901
0.51492 0.28292 0.68193
0.61177 0.29632 0.69484
0.70862 0.30971 0.70776
0.80547 0.32311 0.72067
0.07894 0.33801 0.66080
0.17579 0.35141 0.67371
0.27264 0.36480 0.68663
0.36949 0.37819 0.69954
0.46634 0.39159 0.71246
0.56320 0.40498 0.72538
0.66005 0.41838 0.73829
0.75690 0.43177 0.75121
0.85375 0.44516 0.76412
0.12722 0.46007 0.70425
0.22407 0.47346 0.71716
0.32092 0.48686 0.73008
0.41777 0.50025 0.74299
0.51462 0.51365 0.75591
0.61147 0.52704 0.76882
0.70832 0.54043 0.78174
0.80517 0.55383 0.79465
0.90202 0.56722 0.80757
0.17549 0.58213 0.74770
0.27234 0.59552 0.76061
0.36920 0.60892 0.77353
0.46605 0.62231 0.78644
0.56290 0.63570 0.79936
0.65975 0.64910 0.81227
0.75660 0.66249 0.82519
0.85345 0.67588 0.83810
0.95030 0.68928 0.85102
0.22377 0.70419 0.79114
0.32062 0.71758 0.80406
0.41747 0.73097 0.81697
0.51432 0.74437 0.82989
0.61117 0.75776 0.84281
0.70802 0.77115 0.85572
0.80487 0.78455 0.86864
0.90172 0.79794 0.88155
0.99857 0.81134 0.89447
0.27205 0.82624 0.83459
0.36890 0.83964 0.84751
0.46575 0.85303 0.86042
0.56260 0.86642 0.87334
0.65945 0.87982 0.88625
0.75630 0.89321 0.89917
0.85315 0.90661 0.91208
0.95000 0.92000 0.92500
1.00000 0.93339 0.93792
0.32032 0.94830 0.87804
0.41717 0.96169 0.89096
0.51402 0.97509 0.90387
0.61087 0.98848 0.91679
0.70772 1.00000 0.92970
0.80458 1.00000 0.94262
0.90143 1.00000 0.95553
0.99828 1.00000 0.96845
1.00000 1.00000 0.98136
0.00000 0.00000 0.60909
0.03584 0.00000 0.62200
0.13269 0.00318 0.63492
0.22954 0.01657 0.64784
0.32639 0.02996 0.66075
0.42324 0.04336 0.67367
0.52009 0.05675 0.68658
0.61694 0.07015 0.69950
0.71379 0.08354 0.71241
0.00000 0.09845 0.65254
0.08411 0.11184 0.66545
0.18096 0.12523 0.67837
0.27782 0.13863 0.69128
0.37467 0.15202 0.70420
0.47152 0.16542 0.71711
0.56837 0.17881 0.73003
0.66522 0.19220 0.74295
0.76207 0.20560 0.75586
0.03554 0.22050 0.69599
0.13239 0.23390 0.70890
0.22924 0.24729 0.72182
0.32609 0.26069 0.73473
0.42294 0.27408 0.74765
0.51979 0.28747 0.76056
0.61664 0.30087 0.77348
0.71349 0.31426 0.78639
0.81034 0.32765 0.79931
0.08382 0.34256 0.73943
0.18067 0.35596 0.75235
0.27752 0.36935 0.76527
0.37437 0.38274 0.77818
0.47122 0.39614 0.79110
0.56807 0.40953 0.80401
0.66492 0.42292 0.81693
0.76177 0.43632 0.82984
0.85862 0.44971 0.84276
0.13209 0.46462 0.78288
0.22894 0.47801 0.79580
0.32579 0.49141 0.80871
0.42264 0.50480 0.82163
0.51949 0.51819 0.83454
0.61634 0.53159 0.84746
0.71320 0.54498 0.86038
0.81005 0.55838 0.87329
0.90690 0.57177 0.88621
0.18037 0.58668 0.82633
0.27722 0.60007 0.83925
0.37407 0.61346 0.85216
0.47092 0.62686 0.86508
0.56777 0.64025 0.87799
0.66462 0.65365 0.89091
0.76147 0.66704 0.90382
0.85832 0.68043 0.91674
0.95517 0.69383 0.92965
0.22864 0.70873 0.86978
0.32549 0.72213 0.88270
0.42235 0.73552 0.89561
0.51920 0.74892 0.90853
0.61605 0.76231 0.92144
0.71290 0.77570 0.93436
0.80975 0.78910 0.94727
0.90660 0.80249 0.96019
1.00000 0.81588 0.97310
0.27692 0.83079 0.91323
0.37377 0.84419 0.92614
0.47062 0.85758 0.93906
0.56747 0.87097 0.95197
0.66432 0.88437 0.96489
0.76117 0.89776 0.97781
0.85802 0.91115 0.99072
0.95487 0.92455 1.00000
1.00000 0.93794 1.00000
0.32520 0.95285 0.95668
0.42205 0.96624 0.96959
0.51890 0.97964 0.98251
0.61575 0.99303 0.99542
0.71260 1.00000 1.00000
0.80945 1.00000 1.00000
0.90630 1.00000 1.00000
1.00000 1.00000 1.00000
1.00000 1.00000 1.00000
