assets/lut/Bleach-Bypass.cube
LUT_3D_SIZE 5
DOMAIN_MIN 0.0 0.0 0.0
DOMAIN_MAX 1.0 1.0 1.0
0.00000 0.00000 0.00000
0.09370 0.00000 0.00583
0.28740 0.00000 0.03166
0.48110 0.02036 0.05749
0.67480 0.04715 0.08332
0.00000 0.18412 0.06690
0.19025 0.21090 0.09273
0.38395 0.23769 0.11856
0.57765 0.26448 0.14439
0.77136 0.29127 0.17022
0.09310 0.42823 0.15379
0.28680 0.45502 0.17962
0.48051 0.48181 0.20546
0.67421 0.50859 0.23129
0.86791 0.53538 0.25712
0.18966 0.67235 0.24069
0.38336 0.69913 0.26652
0.57706 0.72592 0.29235
0.77076 0.75271 0.31818
0.96446 0.77950 0.34401
0.28621 0.91646 0.32759
0.47991 0.94325 0.35342
0.67361 0.97004 0.37925
0.86731 0.99682 0.40508
1.00000 1.00000 0.43091
0.00000 0.00000 0.13727
0.10345 0.00000 0.16310
0.29715 0.00267 0.18893
0.49085 0.02946 0.21476
0.68455 0.05625 0.24060
0.00630 0.19321 0.22417
0.20000 0.22000 0.25000
0.39370 0.24679 0.27583
0.58740 0.27358 0.30166
0.78110 0.30036 0.32749
0.10285 0.43733 0.31107
0.29655 0.46412 0.33690
0.49025 0.49090 0.36273
0.68395 0.51769 0.38856
0.87766 0.54448 0.41439
0.19940 0.68144 0.39796
0.39310 0.70823 0.42379
0.58681 0.73502 0.44962
0.78051 0.76181 0.47546
0.97421 0.78859 0.50129
0.29595 0.92556 0.48486
0.48966 0.95235 0.51069
0.68336 0.97913 0.53652
0.87706 1.00000 0.56235
1.00000 1.00000 0.58818
0.00000 0.00000 0.29454
0.11319 0.00000 0.32038
0.30690 0.01177 0.34621
0.50060 0.03856 0.37204
0.69430 0.06534 0.39787
0.01605 0.20231 0.38144
0.20975 0.22910 0.40727
0.40345 0.25588 0.43310
0.59715 0.28267 0.45893
0.79085 0.30946 0.48477
0.11260 0.44642 0.46834
0.30630 0.47321 0.49417
0.50000 0.50000 0.52000
0.69370 0.52679 0.54583
0.88740 0.55358 0.57166
0.20915 0.69054 0.55524
0.40285 0.71733 0.58107
0.59655 0.74412 0.60690
0.79025 0.77090 0.63273
0.98395 0.79769 0.65856
0.30570 0.93466 0.64213
0.49940 0.96144 0.66796
0.69310 0.98823 0.69379
0.88680 1.00000 0.71962
1.00000 1.00000 0.74546
0.00000 0.00000 0.45182
0.12294 0.00000 0.47765
0.31664 0.02087 0.50348
0.51034 0.04765 0.52931
0.70405 0.07444 0.55514
0.02579 0.21141 0.53871
0.21949 0.23819 0.56454
0.41320 0.26498 0.59038
0.60690 0.29177 0.61621
0.80060 0.31856 0.64204
0.12234 0.45552 0.62561
0.31605 0.48231 0.65144
0.50975 0.50910 0.67727
0.70345 0.53588 0.70310
0.89715 0.56267 0.72893
0.21890 0.69964 0.71251
0.41260 0.72642 0.73834
0.60630 0.75321 0.76417
0.80000 0.78000 0.79000
0.99370 0.80679 0.81583
0.31545 0.94375 0.79940
0.50915 0.97054 0.82524
0.70285 0.99733 0.85107
0.89655 1.00000 0.87690
1.00000 1.00000 0.90273
0.00000 0.00000 0.60909
0.13269 0.00318 0.63492
0.32639 0.02996 0.66075
0.52009 0.05675 0.68658
0.71379 0.08354 0.71241
0.03554 0.22050 0.69599
0.22924 0.24729 0.72182
0.42294 0.27408 0.74765
0.61664 0.30087 0.77348
0.81034 0.32765 0.79931
0.13209 0.46462 0.78288
0.32579 0.49141 0.80871
0.51949 0.51819 0.83454
0.71320 0.54498 0.86038
0.90690 0.57177 0.88621
0.22864 0.70873 0.86978
0.42235 0.73552 0.89561
0.61605 0.76231 0.92144
0.80975 0.78910 0.94727
1.00000 0.81588 0.97310
0.32520 0.95285 0.95668
0.51890 0.97964 0.98251
0.71260 1.00000 1.00000
0.90630 1.00000 1.00000
1.00000 1.00000 1.00000
