assets/lut/Bleach-Bypass.cube
LUT_3D_SIZE 33
DOMAIN_MIN 0.0 0.0 0.0
DOMAIN_MAX 1.0 1.0 1.0
0.00000 0.00000 0.00000
0.00000 0.00000 0.00000
0.00000 0.00000 0.00000
0.00000 0.00000 0.00000
0.00000 0.00000 0.00000
0.02106 0.00000 0.00000
0.04528 0.00000 0.00000
0.06949 0.00000 0.00260
0.09370 0.00000 0.00583
0.11791 0.00000 0.00906
0.14213 0.00000 0.01229
0.16634 0.00000 0.01552
0.19055 0.00000 0.01875
0.21476 0.00000 0.02198
0.23898 0.00000 0.02520
0.26319 0.00000 0.02843
0.28740 0.00000 0.03166
0.31161 0.00000 0.03489
0.33583 0.00027 0.03812
0.36004 0.00362 0.04135
0.38425 0.00697 0.04458
0.40847 0.01032 0.04781
0.43268 0.01367 0.05103
0.45689 0.01701 0.05426
0.48110 0.02036 0.05749
0.50532 0.02371 0.06072
0.52953 0.02706 0.06395
0.55374 0.03041 0.06718
0.57795 0.03376 0.07041
0.60217 0.03711 0.07364
0.62638 0.04045 0.07687
0.65059 0.04380 0.08009
0.67480 0.04715 0.08332
0.00000 0.00000 0.00000
0.00000 0.00000 0.00000
0.00000 0.00000 0.00000
0.00000 0.00000 0.00055
0.00892 0.00000 0.00378
0.03313 0.00000 0.00701
0.05734 0.00000 0.01024
0.08156 0.00000 0.01346
0.10577 0.00000 0.01669
0.12998 0.00065 0.01992
0.15420 0.00400 0.02315
0.17841 0.00735 0.02638
0.20262 0.01070 0.02961
0.22683 0.01404 0.03284
0.25105 0.01739 0.03607
0.27526 0.02074 0.03930
0.29947 0.02409 0.04252
0.32368 0.02744 0.04575
0.34790 0.03079 0.04898
0.37211 0.03413 0.05221
0.39632 0.03748 0.05544
0.42053 0.04083 0.05867
0.44475 0.04418 0.06190
0.46896 0.04753 0.06513
0.49317 0.05088 0.06835
0.51738 0.05423 0.07158
0.54160 0.05757 0.07481
0.56581 0.06092 0.07804
0.59002 0.06427 0.08127
0.61424 0.06762 0.08450
0.63845 0.07097 0.08773
0.66266 0.07432 0.09096
0.68687 0.07766 0.09419
0.00000 0.00103 0.00172
0.00000 0.00438 0.00495
0.00000 0.00773 0.00818
0.00000 0.01107 0.01141
0.02099 0.01442 0.01464
0.04520 0.01777 0.01787
0.06941 0.02112 0.02110
0.09363 0.02447 0.02433
0.11784 0.02782 0.02756
0.14205 0.03116 0.03078
0.16626 0.03451 0.03401
0.19048 0.03786 0.03724
0.21469 0.04121 0.04047
0.23890 0.04456 0.04370
0.26311 0.04791 0.04693
0.28733 0.05126 0.05016
0.31154 0.05460 0.05339
0.33575 0.05795 0.05661
0.35997 0.06130 0.05984
0.38418 0.06465 0.06307
0.40839 0.06800 0.06630
0.43260 0.07135 0.06953
0.45682 0.07469 0.07276
0.48103 0.07804 0.07599
0.50524 0.08139 0.07922
0.52945 0.08474 0.08245
0.55367 0.08809 0.08567
0.57788 0.09144 0.08890
0.60209 0.09479 0.09213
0.62630 0.09813 0.09536
0.65052 0.10148 0.09859
0.67473 0.10483 0.10182
0.69894 0.10818 0.10505
0.00000 0.03154 0.01259
0.00000 0.03489 0.01582
0.00000 0.03824 0.01904
0.00884 0.04159 0.02227
0.03306 0.04494 0.02550
0.05727 0.04829 0.02873
0.08148 0.05163 0.03196
0.10570 0.05498 0.03519
0.12991 0.05833 0.03842
0.15412 0.06168 0.04165
0.17833 0.06503 0.04487
0.20255 0.06838 0.04810
0.22676 0.07172 0.05133
0.25097 0.07507 0.05456
0.27518 0.07842 0.05779
0.29940 0.08177 0.06102
0.32361 0.08512 0.06425
0.34782 0.08847 0.06748
0.37203 0.09182 0.07071
0.39625 0.09516 0.07393
0.42046 0.09851 0.07716
0.44467 0.10186 0.08039
0.46888 0.10521 0.08362
0.49310 0.10856 0.08685
0.51731 0.11191 0.09008
0.54152 0.11525 0.09331
0.56574 0.11860 0.09654
0.58995 0.12195 0.09977
0.61416 0.12530 0.10299
0.63837 0.12865 0.10622
0.66259 0.13200 0.10945
0.68680 0.13535 0.11268
0.71101 0.13869 0.11591
0.00000 0.06206 0.02345
0.00000 0.06541 0.02668
0.00000 0.06875 0.02991
0.02091 0.07210 0.03313
0.04513 0.07545 0.03636
0.06934 0.07880 0.03959
0.09355 0.08215 0.04282
0.11776 0.08550 0.04605
0.14198 0.08885 0.04928
0.16619 0.09219 0.05251
0.19040 0.09554 0.05574
0.21461 0.09889 0.05897
0.23883 0.10224 0.06219
0.26304 0.10559 0.06542
0.28725 0.10894 0.06865
0.31147 0.11228 0.07188
0.33568 0.11563 0.07511
0.35989 0.11898 0.07834
0.38410 0.12233 0.08157
0.40832 0.12568 0.08480
0.43253 0.12903 0.08803
0.45674 0.13238 0.09125
0.48095 0.13572 0.09448
0.50517 0.13907 0.09771
0.52938 0.14242 0.10094
0.55359 0.14577 0.10417
0.57780 0.14912 0.10740
0.60202 0.15247 0.11063
0.62623 0.15581 0.11386
0.65044 0.15916 0.11709
0.67465 0.16251 0.12031
0.69887 0.16586 0.12354
0.72308 0.16921 0.12677
0.00000 0.09257 0.03431
0.00000 0.09592 0.03754
0.00877 0.09927 0.04077
0.03298 0.10262 0.04400
0.05720 0.10597 0.04723
0.08141 0.10931 0.05045
0.10562 0.11266 0.05368
0.12983 0.11601 0.05691
0.15405 0.11936 0.06014
0.17826 0.12271 0.06337
0.20247 0.12606 0.06660
0.22668 0.12940 0.06983
0.25090 0.13275 0.07306
0.27511 0.13610 0.07629
0.29932 0.13945 0.07951
0.32353 0.14280 0.08274
0.34775 0.14615 0.08597
0.37196 0.14950 0.08920
0.39617 0.15284 0.09243
0.42038 0.15619 0.09566
0.44460 0.15954 0.09889
0.46881 0.16289 0.10212
0.49302 0.16624 0.10535
0.51724 0.16959 0.10857
0.54145 0.17293 0.11180
0.56566 0.17628 0.11503
0.58987 0.17963 0.11826
0.61409 0.18298 0.12149
0.63830 0.18633 0.12472
0.66251 0.18968 0.12795
0.68672 0.19303 0.13118
0.71094 0.19637 0.13441
0.73515 0.19972 0.13763
0.00000 0.12309 0.04517
0.00000 0.12643 0.04840
0.02084 0.12978 0.05163
0.04505 0.13313 0.05486
0.06926 0.13648 0.05809
0.09348 0.13983 0.06132
0.11769 0.14318 0.06455
0.14190 0.14653 0.06777
0.16611 0.14987 0.07100
0.19033 0.15322 0.07423
0.21454 0.15657 0.07746
0.23875 0.15992 0.08069
0.26297 0.16327 0.08392
0.28718 0.16662 0.08715
0.31139 0.16996 0.09038
0.33560 0.17331 0.09361
0.35982 0.17666 0.09683
0.38403 0.18001 0.10006
0.40824 0.18336 0.10329
0.43245 0.18671 0.10652
0.45667 0.19006 0.10975
0.48088 0.19340 0.11298
0.50509 0.19675 0.11621
0.52930 0.20010 0.11944
0.55352 0.20345 0.12267
0.57773 0.20680 0.12589
0.60194 0.21015 0.12912
0.62615 0.21349 0.13235
0.65037 0.21684 0.13558
0.67458 0.22019 0.13881
0.69879 0.22354 0.14204
0.72301 0.22689 0.14527
0.74722 0.23024 0.14850
0.00000 0.15360 0.05603
0.00870 0.15695 0.05926
0.03291 0.16030 0.06249
0.05712 0.16365 0.06572
0.08133 0.16699 0.06895
0.10555 0.17034 0.07218
0.12976 0.17369 0.07541
0.15397 0.17704 0.07864
0.17818 0.18039 0.08187
0.20240 0.18374 0.08509
0.22661 0.18709 0.08832
0.25082 0.19043 0.09155
0.27503 0.19378 0.09478
0.29925 0.19713 0.09801
0.32346 0.20048 0.10124
0.34767 0.20383 0.10447
0.37189 0.20718 0.10770
0.39610 0.21052 0.11093
0.42031 0.21387 0.11415
0.44452 0.21722 0.11738
0.46874 0.22057 0.12061
0.49295 0.22392 0.12384
0.51716 0.22727 0.12707
0.54137 0.23062 0.13030
0.56559 0.23396 0.13353
0.58980 0.23731 0.13676
0.61401 0.24066 0.13999
0.63822 0.24401 0.14321
0.66244 0.24736 0.14644
0.68665 0.25071 0.14967
0.71086 0.25405 0.15290
0.73507 0.25740 0.15613
0.75929 0.26075 0.15936
0.00000 0.18412 0.06690
0.02076 0.18746 0.07013
0.04498 0.19081 0.07335
0.06919 0.19416 0.07658
0.09340 0.19751 0.07981
0.11762 0.20086 0.08304
0.14183 0.20421 0.08627
0.16604 0.20755 0.08950
0.19025 0.21090 0.09273
0.21447 0.21425 0.09596
0.23868 0.21760 0.09919
0.26289 0.22095 0.10241
0.28710 0.22430 0.10564
0.31132 0.22765 0.10887
0.33553 0.23099 0.11210
0.35974 0.23434 0.11533
0.38395 0.23769 0.11856
0.40817 0.24104 0.12179
0.43238 0.24439 0.12502
0.45659 0.24774 0.12825
0.48080 0.25108 0.13147
0.50502 0.25443 0.13470
0.52923 0.25778 0.13793
0.55344 0.26113 0.14116
0.57765 0.26448 0.14439
0.60187 0.26783 0.14762
0.62608 0.27117 0.15085
0.65029 0.27452 0.15408
0.67451 0.27787 0.15730
0.69872 0.28122 0.16053
0.72293 0.28457 0.16376
0.74714 0.28792 0.16699
0.77136 0.29127 0.17022
0.00862 0.21463 0.07776
0.03283 0.21798 0.08099
0.05705 0.22133 0.08422
0.08126 0.22467 0.08745
0.10547 0.22802 0.09067
0.12968 0.23137 0.09390
0.15390 0.23472 0.09713
0.17811 0.23807 0.10036
0.20232 0.24142 0.10359
0.22653 0.24477 0.10682
0.25075 0.24811 0.11005
0.27496 0.25146 0.11328
0.29917 0.25481 0.11651
0.32339 0.25816 0.11973
0.34760 0.26151 0.12296
0.37181 0.26486 0.12619
0.39602 0.26820 0.12942
0.42024 0.27155 0.13265
0.44445 0.27490 0.13588
0.46866 0.27825 0.13911
0.49287 0.28160 0.14234
0.51709 0.28495 0.14557
0.54130 0.28830 0.14879
0.56551 0.29164 0.15202
0.58972 0.29499 0.15525
0.61394 0.29834 0.15848
0.63815 0.30169 0.16171
0.66236 0.30504 0.16494
0.68657 0.30839 0.16817
0.71079 0.31173 0.17140
0.73500 0.31508 0.17462
0.75921 0.31843 0.17785
0.78343 0.32178 0.18108
0.02069 0.24514 0.08862
0.04490 0.24849 0.09185
0.06912 0.25184 0.09508
0.09333 0.25519 0.09831
0.11754 0.25854 0.10154
0.14175 0.26189 0.10477
0.16597 0.26523 0.10799
0.19018 0.26858 0.11122
0.21439 0.27193 0.11445
0.23860 0.27528 0.11768
0.26282 0.27863 0.12091
0.28703 0.28198 0.12414
0.31124 0.28533 0.12737
0.33545 0.28867 0.13060
0.35967 0.29202 0.13383
0.38388 0.29537 0.13705
0.40809 0.29872 0.14028
0.43230 0.30207 0.14351
0.45652 0.30542 0.14674
0.48073 0.30876 0.14997
0.50494 0.31211 0.15320
0.52916 0.31546 0.15643
0.55337 0.31881 0.15966
0.57758 0.32216 0.16288
0.60179 0.32551 0.16611
0.62601 0.32886 0.16934
0.65022 0.33220 0.17257
0.67443 0.33555 0.17580
0.69864 0.33890 0.17903
0.72286 0.34225 0.18226
0.74707 0.34560 0.18549
0.77128 0.34895 0.18872
0.79549 0.35229 0.19194
0.03276 0.27566 0.09948
0.05697 0.27901 0.10271
0.08118 0.28236 0.10594
0.10540 0.28570 0.10917
0.12961 0.28905 0.11240
0.15382 0.29240 0.11563
0.17803 0.29575 0.11886
0.20225 0.29910 0.12209
0.22646 0.30245 0.12531
0.25067 0.30579 0.12854
0.27489 0.30914 0.13177
0.29910 0.31249 0.13500
0.32331 0.31584 0.13823
0.34752 0.31919 0.14146
0.37174 0.32254 0.14469
0.39595 0.32589 0.14792
0.42016 0.32923 0.15114
0.44437 0.33258 0.15437
0.46859 0.33593 0.15760
0.49280 0.33928 0.16083
0.51701 0.34263 0.16406
0.54122 0.34598 0.16729
0.56544 0.34932 0.17052
0.58965 0.35267 0.17375
0.61386 0.35602 0.17698
0.63807 0.35937 0.18020
0.66229 0.36272 0.18343
0.68650 0.36607 0.18666
0.71071 0.36941 0.18989
0.73493 0.37276 0.19312
0.75914 0.37611 0.19635
0.78335 0.37946 0.19958
0.80756 0.38281 0.20281
0.04483 0.30617 0.11035
0.06904 0.30952 0.11357
0.09325 0.31287 0.11680
0.11747 0.31622 0.12003
0.14168 0.31957 0.12326
0.16589 0.32292 0.12649
0.19010 0.32626 0.12972
0.21432 0.32961 0.13295
0.23853 0.33296 0.13618
0.26274 0.33631 0.13940
0.28695 0.33966 0.14263
0.31117 0.34301 0.14586
0.33538 0.34635 0.14909
0.35959 0.34970 0.15232
0.38380 0.35305 0.15555
0.40802 0.35640 0.15878
0.43223 0.35975 0.16201
0.45644 0.36310 0.16524
0.48066 0.36644 0.16846
0.50487 0.36979 0.17169
0.52908 0.37314 0.17492
0.55329 0.37649 0.17815
0.57751 0.37984 0.18138
0.60172 0.38319 0.18461
0.62593 0.38654 0.18784
0.65014 0.38988 0.19107
0.67436 0.39323 0.19430
0.69857 0.39658 0.19752
0.72278 0.39993 0.20075
0.74699 0.40328 0.20398
0.77121 0.40663 0.20721
0.79542 0.40997 0.21044
0.81963 0.41332 0.21367
0.05690 0.33669 0.12121
0.08111 0.34004 0.12444
0.10532 0.34338 0.12767
0.12953 0.34673 0.13089
0.15375 0.35008 0.13412
0.17796 0.35343 0.13735
0.20217 0.35678 0.14058
0.22639 0.36013 0.14381
0.25060 0.36347 0.14704
0.27481 0.36682 0.15027
0.29902 0.37017 0.15350
0.32324 0.37352 0.15672
0.34745 0.37687 0.15995
0.37166 0.38022 0.16318
0.39587 0.38357 0.16641
0.42009 0.38691 0.16964
0.44430 0.39026 0.17287
0.46851 0.39361 0.17610
0.49272 0.39696 0.17933
0.51694 0.40031 0.18256
0.54115 0.40366 0.18578
0.56536 0.40700 0.18901
0.58957 0.41035 0.19224
0.61379 0.41370 0.19547
0.63800 0.41705 0.19870
0.66221 0.42040 0.20193
0.68643 0.42375 0.20516
0.71064 0.42710 0.20839
0.73485 0.43044 0.21162
0.75906 0.43379 0.21484
0.78328 0.43714 0.21807
0.80749 0.44049 0.22130
0.83170 0.44384 0.22453
0.06897 0.36720 0.13207
0.09318 0.37055 0.13530
0.11739 0.37390 0.13853
0.14160 0.37725 0.14176
0.16582 0.38060 0.14498
0.19003 0.38394 0.14821
0.21424 0.38729 0.15144
0.23845 0.39064 0.15467
0.26267 0.39399 0.15790
0.28688 0.39734 0.16113
0.31109 0.40069 0.16436
0.33530 0.40403 0.16759
0.35952 0.40738 0.17082
0.38373 0.41073 0.17404
0.40794 0.41408 0.17727
0.43216 0.41743 0.18050
0.45637 0.42078 0.18373
0.48058 0.42413 0.18696
0.50479 0.42747 0.19019
0.52901 0.43082 0.19342
0.55322 0.43417 0.19665
0.57743 0.43752 0.19988
0.60164 0.44087 0.20310
0.62586 0.44422 0.20633
0.65007 0.44756 0.20956
0.67428 0.45091 0.21279
0.69849 0.45426 0.21602
0.72271 0.45761 0.21925
0.74692 0.46096 0.22248
0.77113 0.46431 0.22571
0.79534 0.46766 0.22894
0.81956 0.47100 0.23216
0.84377 0.47435 0.23539
0.08104 0.39772 0.14293
0.10525 0.40106 0.14616
0.12946 0.40441 0.14939
0.15367 0.40776 0.15262
0.17789 0.41111 0.15585
0.20210 0.41446 0.15908
0.22631 0.41781 0.16230
0.25052 0.42116 0.16553
0.27474 0.42450 0.16876
0.29895 0.42785 0.17199
0.32316 0.43120 0.17522
0.34737 0.43455 0.17845
0.37159 0.43790 0.18168
0.39580 0.44125 0.18491
0.42001 0.44459 0.18814
0.44422 0.44794 0.19136
0.46844 0.45129 0.19459
0.49265 0.45464 0.19782
0.51686 0.45799 0.20105
0.54107 0.46134 0.20428
0.56529 0.46469 0.20751
0.58950 0.46803 0.21074
0.61371 0.47138 0.21397
0.63793 0.47473 0.21720
0.66214 0.47808 0.22042
0.68635 0.48143 0.22365
0.71056 0.48478 0.22688
0.73478 0.48812 0.23011
0.75899 0.49147 0.23334
0.78320 0.49482 0.23657
0.80741 0.49817 0.23980
0.83163 0.50152 0.24303
0.85584 0.50487 0.24626
0.09310 0.42823 0.15379
0.11732 0.43158 0.15702
0.14153 0.43493 0.16025
0.16574 0.43828 0.16348
0.18995 0.44162 0.16671
0.21417 0.44497 0.16994
0.23838 0.44832 0.17317
0.26259 0.45167 0.17640
0.28680 0.45502 0.17962
0.31102 0.45837 0.18285
0.33523 0.46171 0.18608
0.35944 0.46506 0.18931
0.38366 0.46841 0.19254
0.40787 0.47176 0.19577
0.43208 0.47511 0.19900
0.45629 0.47846 0.20223
0.48051 0.48181 0.20546
0.50472 0.48515 0.20868
0.52893 0.48850 0.21191
0.55314 0.49185 0.21514
0.57736 0.49520 0.21837
0.60157 0.49855 0.22160
0.62578 0.50190 0.22483
0.64999 0.50524 0.22806
0.67421 0.50859 0.23129
0.69842 0.51194 0.23452
0.72263 0.51529 0.23774
0.74684 0.51864 0.24097
0.77106 0.52199 0.24420
0.79527 0.52534 0.24743
0.81948 0.52868 0.25066
0.84370 0.53203 0.25389
0.86791 0.53538 0.25712
0.10517 0.45874 0.16466
0.12939 0.46209 0.16788
0.15360 0.46544 0.17111
0.17781 0.46879 0.17434
0.20202 0.47214 0.17757
0.22624 0.47549 0.18080
0.25045 0.47884 0.18403
0.27466 0.48218 0.18726
0.29887 0.48553 0.19049
0.32309 0.48888 0.19372
0.34730 0.49223 0.19694
0.37151 0.49558 0.20017
0.39572 0.49893 0.20340
0.41994 0.50227 0.20663
0.44415 0.50562 0.20986
0.46836 0.50897 0.21309
0.49257 0.51232 0.21632
0.51679 0.51567 0.21955
0.54100 0.51902 0.22278
0.56521 0.52237 0.22600
0.58943 0.52571 0.22923
0.61364 0.52906 0.23246
0.63785 0.53241 0.23569
0.66206 0.53576 0.23892
0.68628 0.53911 0.24215
0.71049 0.54246 0.24538
0.73470 0.54580 0.24861
0.75891 0.54915 0.25183
0.78313 0.55250 0.25506
0.80734 0.55585 0.25829
0.83155 0.55920 0.26152
0.85576 0.56255 0.26475
0.87998 0.56590 0.26798
0.11724 0.48926 0.17552
0.14145 0.49261 0.17875
0.16567 0.49596 0.18198
0.18988 0.49930 0.18520
0.21409 0.50265 0.18843
0.23831 0.50600 0.19166
0.26252 0.50935 0.19489
0.28673 0.51270 0.19812
0.31094 0.51605 0.20135
0.33516 0.51940 0.20458
0.35937 0.52274 0.20781
0.38358 0.52609 0.21104
0.40779 0.52944 0.21426
0.43201 0.53279 0.21749
0.45622 0.53614 0.22072
0.48043 0.53949 0.22395
0.50464 0.54283 0.22718
0.52886 0.54618 0.23041
0.55307 0.54953 0.23364
0.57728 0.55288 0.23687
0.60149 0.55623 0.24010
0.62571 0.55958 0.24332
0.64992 0.56293 0.24655
0.67413 0.56627 0.24978
0.69834 0.56962 0.25301
0.72256 0.57297 0.25624
0.74677 0.57632 0.25947
0.77098 0.57967 0.26270
0.79520 0.58302 0.26593
0.81941 0.58636 0.26915
0.84362 0.58971 0.27238
0.86783 0.59306 0.27561
0.89205 0.59641 0.27884
0.12931 0.51977 0.18638
0.15352 0.52312 0.18961
0.17774 0.52647 0.19284
0.20195 0.52982 0.19607
0.22616 0.53317 0.19930
0.25037 0.53652 0.20252
0.27459 0.53986 0.20575
0.29880 0.54321 0.20898
0.32301 0.54656 0.21221
0.34722 0.54991 0.21544
0.37144 0.55326 0.21867
0.39565 0.55661 0.22190
0.41986 0.55996 0.22513
0.44408 0.56330 0.22836
0.46829 0.56665 0.23158
0.49250 0.57000 0.23481
0.51671 0.57335 0.23804
0.54093 0.57670 0.24127
0.56514 0.58005 0.24450
0.58935 0.58339 0.24773
0.61356 0.58674 0.25096
0.63778 0.59009 0.25419
0.66199 0.59344 0.25741
0.68620 0.59679 0.26064
0.71041 0.60014 0.26387
0.73463 0.60348 0.26710
0.75884 0.60683 0.27033
0.78305 0.61018 0.27356
0.80726 0.61353 0.27679
0.83148 0.61688 0.28002
0.85569 0.62023 0.28325
0.87990 0.62358 0.28647
0.90412 0.62692 0.28970
0.14138 0.55029 0.19724
0.16559 0.55364 0.20047
0.18981 0.55698 0.20370
0.21402 0.56033 0.20693
0.23823 0.56368 0.21016
0.26244 0.56703 0.21339
0.28666 0.57038 0.21662
0.31087 0.57373 0.21984
0.33508 0.57708 0.22307
0.35929 0.58042 0.22630
0.38351 0.58377 0.22953
0.40772 0.58712 0.23276
0.43193 0.59047 0.23599
0.45614 0.59382 0.23922
0.48036 0.59717 0.24245
0.50457 0.60051 0.24567
0.52878 0.60386 0.24890
0.55299 0.60721 0.25213
0.57721 0.61056 0.25536
0.60142 0.61391 0.25859
0.62563 0.61726 0.26182
0.64985 0.62061 0.26505
0.67406 0.62395 0.26828
0.69827 0.62730 0.27151
0.72248 0.63065 0.27473
0.74670 0.63400 0.27796
0.77091 0.63735 0.28119
0.79512 0.64070 0.28442
0.81933 0.64404 0.28765
0.84355 0.64739 0.29088
0.86776 0.65074 0.29411
0.89197 0.65409 0.29734
0.91618 0.65744 0.30057
0.15345 0.58080 0.20810
0.17766 0.58415 0.21133
0.20187 0.58750 0.21456
0.22609 0.59085 0.21779
0.25030 0.59420 0.22102
0.27451 0.59754 0.22425
0.29872 0.60089 0.22748
0.32294 0.60424 0.23071
0.34715 0.60759 0.23393
0.37136 0.61094 0.23716
0.39558 0.61429 0.24039
0.41979 0.61764 0.24362
0.44400 0.62098 0.24685
0.46821 0.62433 0.25008
0.49243 0.62768 0.25331
0.51664 0.63103 0.25654
0.54085 0.63438 0.25977
0.56506 0.63773 0.26299
0.58928 0.64107 0.26622
0.61349 0.64442 0.26945
0.63770 0.64777 0.27268
0.66191 0.65112 0.27591
0.68613 0.65447 0.27914
0.71034 0.65782 0.28237
0.73455 0.66117 0.28560
0.75876 0.66451 0.28883
0.78298 0.66786 0.29205
0.80719 0.67121 0.29528
0.83140 0.67456 0.29851
0.85562 0.67791 0.30174
0.87983 0.68126 0.30497
0.90404 0.68460 0.30820
0.92825 0.68795 0.31143
0.16552 0.61132 0.21897
0.18973 0.61467 0.22220
0.21394 0.61801 0.22542
0.23816 0.62136 0.22865
0.26237 0.62471 0.23188
0.28658 0.62806 0.23511
0.31079 0.63141 0.23834
0.33501 0.63476 0.24157
0.35922 0.63810 0.24480
0.38343 0.64145 0.24803
0.40764 0.64480 0.25125
0.43186 0.64815 0.25448
0.45607 0.65150 0.25771
0.48028 0.65485 0.26094
0.50449 0.65820 0.26417
0.52871 0.66154 0.26740
0.55292 0.66489 0.27063
0.57713 0.66824 0.27386
0.60135 0.67159 0.27709
0.62556 0.67494 0.28031
0.64977 0.67829 0.28354
0.67398 0.68163 0.28677
0.69820 0.68498 0.29000
0.72241 0.68833 0.29323
0.74662 0.69168 0.29646
0.77083 0.69503 0.29969
0.79505 0.69838 0.30292
0.81926 0.70172 0.30615
0.84347 0.70507 0.30937
0.86768 0.70842 0.31260
0.89190 0.71177 0.31583
0.91611 0.71512 0.31906
0.94032 0.71847 0.32229
0.17759 0.64183 0.22983
0.20180 0.64518 0.23306
0.22601 0.64853 0.23629
0.25022 0.65188 0.23951
0.27444 0.65523 0.24274
0.29865 0.65857 0.24597
0.32286 0.66192 0.24920
0.34708 0.66527 0.25243
0.37129 0.66862 0.25566
0.39550 0.67197 0.25889
0.41971 0.67532 0.26212
0.44393 0.67866 0.26535
0.46814 0.68201 0.26857
0.49235 0.68536 0.27180
0.51656 0.68871 0.27503
0.54078 0.69206 0.27826
0.56499 0.69541 0.28149
0.58920 0.69875 0.28472
0.61341 0.70210 0.28795
0.63763 0.70545 0.29118
0.66184 0.70880 0.29441
0.68605 0.71215 0.29763
0.71026 0.71550 0.30086
0.73448 0.71885 0.30409
0.75869 0.72219 0.30732
0.78290 0.72554 0.31055
0.80712 0.72889 0.31378
0.83133 0.73224 0.31701
0.85554 0.73559 0.32024
0.87975 0.73894 0.32347
0.90397 0.74228 0.32669
0.92818 0.74563 0.32992
0.95239 0.74898 0.33315
0.18966 0.67235 0.24069
0.21387 0.67569 0.24392
0.23808 0.67904 0.24715
0.26229 0.68239 0.25038
0.28651 0.68574 0.25361
0.31072 0.68909 0.25683
0.33493 0.69244 0.26006
0.35914 0.69578 0.26329
0.38336 0.69913 0.26652
0.40757 0.70248 0.26975
0.43178 0.70583 0.27298
0.45599 0.70918 0.27621
0.48021 0.71253 0.27944
0.50442 0.71588 0.28267
0.52863 0.71922 0.28589
0.55285 0.72257 0.28912
0.57706 0.72592 0.29235
0.60127 0.72927 0.29558
0.62548 0.73262 0.29881
0.64970 0.73597 0.30204
0.67391 0.73931 0.30527
0.69812 0.74266 0.30850
0.72233 0.74601 0.31173
0.74655 0.74936 0.31495
0.77076 0.75271 0.31818
0.79497 0.75606 0.32141
0.81918 0.75941 0.32464
0.84340 0.76275 0.32787
0.86761 0.76610 0.33110
0.89182 0.76945 0.33433
0.91603 0.77280 0.33756
0.94025 0.77615 0.34079
0.96446 0.77950 0.34401
0.20172 0.70286 0.25155
0.22594 0.70621 0.25478
0.25015 0.70956 0.25801
0.27436 0.71291 0.26124
0.29858 0.71625 0.26447
0.32279 0.71960 0.26770
0.34700 0.72295 0.27093
0.37121 0.72630 0.27415
0.39543 0.72965 0.27738
0.41964 0.73300 0.28061
0.44385 0.73634 0.28384
0.46806 0.73969 0.28707
0.49228 0.74304 0.29030
0.51649 0.74639 0.29353
0.54070 0.74974 0.29676
0.56491 0.75309 0.29999
0.58913 0.75644 0.30321
0.61334 0.75978 0.30644
0.63755 0.76313 0.30967
0.66176 0.76648 0.31290
0.68598 0.76983 0.31613
0.71019 0.77318 0.31936
0.73440 0.77653 0.32259
0.75862 0.77987 0.32582
0.78283 0.78322 0.32905
0.80704 0.78657 0.33227
0.83125 0.78992 0.33550
0.85547 0.79327 0.33873
0.87968 0.79662 0.34196
0.90389 0.79997 0.34519
0.92810 0.80331 0.34842
0.95232 0.80666 0.35165
0.97653 0.81001 0.35488
0.21379 0.73337 0.26241
0.23801 0.73672 0.26564
0.26222 0.74007 0.26887
0.28643 0.74342 0.27210
0.31064 0.74677 0.27533
0.33486 0.75012 0.27856
0.35907 0.75347 0.28179
0.38328 0.75681 0.28502
0.40749 0.76016 0.28825
0.43171 0.76351 0.29147
0.45592 0.76686 0.29470
0.48013 0.77021 0.29793
0.50435 0.77356 0.30116
0.52856 0.77690 0.30439
0.55277 0.78025 0.30762
0.57698 0.78360 0.31085
0.60120 0.78695 0.31408
0.62541 0.79030 0.31731
0.64962 0.79365 0.32053
0.67383 0.79699 0.32376
0.69805 0.80034 0.32699
0.72226 0.80369 0.33022
0.74647 0.80704 0.33345
0.77068 0.81039 0.33668
0.79490 0.81374 0.33991
0.81911 0.81709 0.34314
0.84332 0.82043 0.34637
0.86753 0.82378 0.34959
0.89175 0.82713 0.35282
0.91596 0.83048 0.35605
0.94017 0.83383 0.35928
0.96439 0.83718 0.36251
0.98860 0.84052 0.36574
0.22586 0.76389 0.27328
0.25008 0.76724 0.27651
0.27429 0.77059 0.27973
0.29850 0.77393 0.28296
0.32271 0.77728 0.28619
0.34693 0.78063 0.28942
0.37114 0.78398 0.29265
0.39535 0.78733 0.29588
0.41956 0.79068 0.29911
