assets/lut/Cinematic-Teal.cube
TITLE "Cinematic-Teal.cube"
LUT_3D_SIZE 5
0.000000 0.070000 0.160000
0.000000 0.074845 0.356710
0.000000 0.079690 0.553420
0.000000 0.084535 0.750130
0.000000 0.089380 0.946840
0.000000 0.289948 0.168805
0.000000 0.294793 0.365515
0.000000 0.299638 0.562225
0.000000 0.304482 0.758935
0.000000 0.309328 0.955645
0.000000 0.509895 0.177610
0.000000 0.514740 0.374320
0.010200 0.519585 0.571030
0.021600 0.524430 0.767740
0.033000 0.529275 0.964450
0.046100 0.729842 0.186415
0.057500 0.734688 0.383125
0.068900 0.739532 0.579835
0.080300 0.744378 0.776545
0.091700 0.749223 0.973255
0.104800 0.949790 0.195220
0.116200 0.954635 0.391930
0.127600 0.959480 0.588640
0.139000 0.964325 0.785350
0.150400 0.969170 0.982060
0.094900 0.082708 0.164485
0.106300 0.087553 0.361195
0.117700 0.092398 0.557905
0.129100 0.097243 0.754615
0.140500 0.102087 0.951325
0.153600 0.302655 0.173290
0.165000 0.307500 0.370000
0.176400 0.312345 0.566710
0.187800 0.317190 0.763420
0.199200 0.322035 0.960130
0.212300 0.522602 0.182095
0.223700 0.527448 0.378805
0.235100 0.532293 0.575515
0.246500 0.537138 0.772225
0.257900 0.541983 0.968935
0.271000 0.742550 0.190900
0.282400 0.747395 0.387610
0.293800 0.752240 0.584320
0.305200 0.757085 0.781030
0.316600 0.761930 0.977740
0.329700 0.962498 0.199705
0.341100 0.967342 0.396415
0.352500 0.972187 0.593125
0.363900 0.977032 0.789835
0.375300 0.981877 0.986545
0.319800 0.095415 0.168970
0.331200 0.100260 0.365680
0.342600 0.105105 0.562390
0.354000 0.109950 0.759100
0.365400 0.114795 0.955810
0.378500 0.315362 0.177775
0.389900 0.320208 0.374485
0.401300 0.325053 0.571195
0.412700 0.329898 0.767905
0.424100 0.334743 0.964615
0.437200 0.535310 0.186580
0.448600 0.540155 0.383290
0.460000 0.545000 0.580000
0.471400 0.549845 0.776710
0.482800 0.554690 0.973420
0.495900 0.755257 0.195385
0.507300 0.760102 0.392095
0.518700 0.764948 0.588805
0.530100 0.769792 0.785515
0.541500 0.774637 0.982225
0.554600 0.975205 0.204190
0.566000 0.980050 0.400900
0.577400 0.984895 0.597610
0.588800 0.989740 0.794320
0.600200 0.994585 0.991030
0.544700 0.108123 0.173455
0.556100 0.112968 0.370165
0.567500 0.117813 0.566875
0.578900 0.122658 0.763585
0.590300 0.127502 0.960295
0.603400 0.328070 0.182260
0.614800 0.332915 0.378970
0.626200 0.337760 0.575680
0.637600 0.342605 0.772390
0.649000 0.347450 0.969100
0.662100 0.548018 0.191065
0.673500 0.552863 0.387775
0.684900 0.557708 0.584485
0.696300 0.562553 0.781195
0.707700 0.567397 0.977905
0.720800 0.767965 0.199870
0.732200 0.772810 0.396580
0.743600 0.777655 0.593290
0.755000 0.782500 0.790000
0.766400 0.787345 0.986710
0.779500 0.987912 0.208675
0.790900 0.992757 0.405385
0.802300 0.997603 0.602095
0.813700 1.000000 0.798805
0.825100 1.000000 0.995515
0.769600 0.120830 0.177940
0.781000 0.125675 0.374650
0.792400 0.130520 0.571360
0.803800 0.135365 0.768070
0.815200 0.140210 0.964780
0.828300 0.340778 0.186745
0.839700 0.345623 0.383455
0.851100 0.350467 0.580165
0.862500 0.355313 0.776875
0.873900 0.360158 0.973585
0.887000 0.560725 0.195550
0.898400 0.565570 0.392260
0.909800 0.570415 0.588970
0.921200 0.575260 0.785680
0.932600 0.580105 0.982390
0.945700 0.780672 0.204355
0.957100 0.785517 0.401065
0.968500 0.790362 0.597775
0.979900 0.795207 0.794485
0.991300 0.800052 0.991195
1.000000 1.000000 0.213160
1.000000 1.000000 0.409870
1.000000 1.000000 0.606580
1.000000 1.000000 0.803290
1.000000 1.000000 1.000000
