assets/lut/Cinematic-Teal.cube
TITLE "Cinematic-Teal.cube"
LUT_3D_SIZE 33
0.000000 0.070000 0.160000
0.000000 0.070606 0.184589
0.000000 0.071211 0.209178
0.000000 0.071817 0.233766
0.000000 0.072423 0.258355
0.000000 0.073028 0.282944
0.000000 0.073634 0.307532
0.000000 0.074239 0.332121
0.000000 0.074845 0.356710
0.000000 0.075451 0.381299
0.000000 0.076056 0.405888
0.000000 0.076662 0.430476
0.000000 0.077268 0.455065
0.000000 0.077873 0.479654
0.000000 0.078479 0.504243
0.000000 0.079084 0.528831
0.000000 0.079690 0.553420
0.000000 0.080296 0.578009
0.000000 0.080901 0.602598
0.000000 0.081507 0.627186
0.000000 0.082112 0.651775
0.000000 0.082718 0.676364
0.000000 0.083324 0.700953
0.000000 0.083929 0.725541
0.000000 0.084535 0.750130
0.000000 0.085141 0.774719
0.000000 0.085746 0.799308
0.000000 0.086352 0.823896
0.000000 0.086958 0.848485
0.000000 0.087563 0.873074
0.000000 0.088169 0.897663
0.000000 0.088774 0.922251
0.000000 0.089380 0.946840
0.000000 0.097493 0.161101
0.000000 0.098099 0.185689
0.000000 0.098705 0.210278
0.000000 0.099310 0.234867
0.000000 0.099916 0.259456
0.000000 0.100522 0.284044
0.000000 0.101127 0.308633
0.000000 0.101733 0.333222
0.000000 0.102338 0.357811
0.000000 0.102944 0.382399
0.000000 0.103550 0.406988
0.000000 0.104155 0.431577
0.000000 0.104761 0.456166
0.000000 0.105367 0.480754
0.000000 0.105972 0.505343
0.000000 0.106578 0.529932
0.000000 0.107183 0.554521
0.000000 0.107789 0.579109
0.000000 0.108395 0.603698
0.000000 0.109000 0.628287
0.000000 0.109606 0.652876
0.000000 0.110212 0.677464
0.000000 0.110817 0.702053
0.000000 0.111423 0.726642
0.000000 0.112028 0.751231
0.000000 0.112634 0.775819
0.000000 0.113240 0.800408
0.000000 0.113845 0.824997
0.000000 0.114451 0.849586
0.000000 0.115057 0.874174
0.000000 0.115662 0.898763
0.000000 0.116268 0.923352
0.000000 0.116873 0.947941
0.000000 0.124987 0.162201
0.000000 0.125592 0.186790
0.000000 0.126198 0.211379
0.000000 0.126804 0.235967
0.000000 0.127409 0.260556
0.000000 0.128015 0.285145
0.000000 0.128621 0.309734
0.000000 0.129226 0.334322
0.000000 0.129832 0.358911
0.000000 0.130438 0.383500
0.000000 0.131043 0.408089
0.000000 0.131649 0.432677
0.000000 0.132254 0.457266
0.000000 0.132860 0.481855
0.000000 0.133466 0.506444
0.000000 0.134071 0.531033
0.000000 0.134677 0.555621
0.000000 0.135282 0.580210
0.000000 0.135888 0.604799
0.000000 0.136494 0.629387
0.000000 0.137099 0.653976
0.000000 0.137705 0.678565
0.000000 0.138311 0.703154
0.000000 0.138916 0.727743
0.000000 0.139522 0.752331
0.000000 0.140127 0.776920
0.000000 0.140733 0.801509
0.000000 0.141339 0.826098
0.000000 0.141944 0.850686
0.000000 0.142550 0.875275
0.000000 0.143156 0.899864
0.000000 0.143761 0.924453
0.000000 0.144367 0.949041
0.000000 0.152480 0.163302
0.000000 0.153086 0.187891
0.000000 0.153692 0.212479
0.000000 0.154297 0.237068
0.000000 0.154903 0.261657
0.000000 0.155508 0.286246
0.000000 0.156114 0.310834
0.000000 0.156720 0.335423
0.000000 0.157325 0.360012
0.000000 0.157931 0.384601
0.000000 0.158537 0.409189
0.000000 0.159142 0.433778
0.000000 0.159748 0.458367
0.000000 0.160353 0.482956
0.000000 0.160959 0.507544
0.000000 0.161565 0.532133
0.000000 0.162170 0.556722
0.000000 0.162776 0.581311
0.000000 0.163382 0.605899
0.000000 0.163987 0.630488
0.000000 0.164593 0.655077
0.000000 0.165198 0.679666
0.000000 0.165804 0.704254
0.000000 0.166410 0.728843
0.000000 0.167015 0.753432
0.000000 0.167621 0.778021
0.000000 0.168227 0.802609
0.000000 0.168832 0.827198
0.000000 0.169438 0.851787
0.000000 0.170043 0.876376
0.000000 0.170649 0.900964
0.000000 0.171255 0.925553
0.000000 0.171860 0.950142
0.000000 0.179974 0.164403
0.000000 0.180579 0.188991
0.000000 0.181185 0.213580
0.000000 0.181791 0.238169
0.000000 0.182396 0.262757
0.000000 0.183002 0.287346
0.000000 0.183608 0.311935
0.000000 0.184213 0.336524
0.000000 0.184819 0.361113
0.000000 0.185424 0.385701
0.000000 0.186030 0.410290
0.000000 0.186636 0.434879
0.000000 0.187241 0.459467
0.000000 0.187847 0.484056
0.000000 0.188453 0.508645
0.000000 0.189058 0.533234
0.000000 0.189664 0.557822
0.000000 0.190269 0.582411
0.000000 0.190875 0.607000
0.000000 0.191481 0.631589
0.000000 0.192086 0.656178
0.000000 0.192692 0.680766
0.000000 0.193298 0.705355
0.000000 0.193903 0.729944
0.000000 0.194509 0.754532
0.000000 0.195114 0.779121
0.000000 0.195720 0.803710
0.000000 0.196326 0.828299
0.000000 0.196931 0.852888
0.000000 0.197537 0.877476
0.000000 0.198142 0.902065
0.000000 0.198748 0.926654
0.000000 0.199354 0.951243
0.000000 0.207467 0.165503
0.000000 0.208073 0.190092
0.000000 0.208678 0.214681
0.000000 0.209284 0.239269
0.000000 0.209890 0.263858
0.000000 0.210495 0.288447
0.000000 0.211101 0.313036
0.000000 0.211707 0.337624
0.000000 0.212312 0.362213
0.000000 0.212918 0.386802
0.000000 0.213523 0.411391
0.000000 0.214129 0.435979
0.000000 0.214735 0.460568
0.000000 0.215340 0.485157
0.000000 0.215946 0.509746
0.000000 0.216552 0.534334
0.000000 0.217157 0.558923
0.000000 0.217763 0.583512
0.000000 0.218368 0.608101
0.000000 0.218974 0.632689
0.000000 0.219580 0.657278
0.000000 0.220185 0.681867
0.000000 0.220791 0.706456
0.000000 0.221397 0.731044
0.000000 0.222002 0.755633
0.000000 0.222608 0.780222
0.000000 0.223213 0.804811
0.000000 0.223819 0.829399
0.000000 0.224425 0.853988
0.000000 0.225030 0.878577
0.000000 0.225636 0.903166
0.000000 0.226242 0.927754
0.000000 0.226847 0.952343
0.000000 0.234961 0.166604
0.000000 0.235566 0.191192
0.000000 0.236172 0.215781
0.000000 0.236778 0.240370
0.000000 0.237383 0.264959
0.000000 0.237989 0.289548
0.000000 0.238594 0.314136
0.000000 0.239200 0.338725
0.000000 0.239806 0.363314
0.000000 0.240411 0.387902
0.000000 0.241017 0.412491
0.000000 0.241622 0.437080
0.000000 0.242228 0.461669
0.000000 0.242834 0.486258
0.000000 0.243439 0.510846
0.000000 0.244045 0.535435
0.000000 0.244651 0.560024
0.000000 0.245256 0.584612
0.000000 0.245862 0.609201
0.000000 0.246468 0.633790
0.000000 0.247073 0.658379
0.000000 0.247679 0.682967
0.000000 0.248284 0.707556
0.000000 0.248890 0.732145
0.000000 0.249496 0.756734
0.000000 0.250101 0.781323
0.000000 0.250707 0.805911
0.000000 0.251312 0.830500
0.000000 0.251918 0.855089
0.000000 0.252524 0.879678
0.000000 0.253129 0.904266
0.000000 0.253735 0.928855
0.000000 0.254341 0.953444
0.000000 0.262454 0.167704
0.000000 0.263060 0.192293
0.000000 0.263665 0.216882
0.000000 0.264271 0.241471
0.000000 0.264877 0.266059
0.000000 0.265482 0.290648
0.000000 0.266088 0.315237
0.000000 0.266693 0.339826
0.000000 0.267299 0.364414
0.000000 0.267905 0.389003
0.000000 0.268510 0.413592
0.000000 0.269116 0.438181
0.000000 0.269722 0.462769
0.000000 0.270327 0.487358
0.000000 0.270933 0.511947
0.000000 0.271538 0.536536
0.000000 0.272144 0.561124
0.000000 0.272750 0.585713
0.000000 0.273355 0.610302
0.000000 0.273961 0.634891
0.000000 0.274567 0.659479
0.000000 0.275172 0.684068
0.000000 0.275778 0.708657
0.000000 0.276383 0.733246
0.000000 0.276989 0.757834
0.000000 0.277595 0.782423
0.000000 0.278200 0.807012
0.000000 0.278806 0.831601
0.000000 0.279412 0.856189
0.000000 0.280017 0.880778
0.000000 0.280623 0.905367
0.000000 0.281228 0.929956
0.000000 0.281834 0.954544
0.000000 0.289948 0.168805
0.000000 0.290553 0.193394
0.000000 0.291159 0.217982
0.000000 0.291764 0.242571
0.000000 0.292370 0.267160
0.000000 0.292976 0.291749
0.000000 0.293581 0.316337
0.000000 0.294187 0.340926
0.000000 0.294793 0.365515
0.000000 0.295398 0.390104
0.000000 0.296004 0.414693
0.000000 0.296609 0.439281
0.000000 0.297215 0.463870
0.000000 0.297821 0.488459
0.000000 0.298426 0.513047
0.000000 0.299032 0.537636
0.000000 0.299638 0.562225
0.000000 0.300243 0.586814
0.000000 0.300849 0.611403
0.000000 0.301454 0.635991
0.000000 0.302060 0.660580
0.000000 0.302666 0.685169
0.000000 0.303271 0.709757
0.000000 0.303877 0.734346
0.000000 0.304482 0.758935
0.000000 0.305088 0.783524
0.000000 0.305694 0.808113
0.000000 0.306299 0.832701
0.000000 0.306905 0.857290
0.000000 0.307511 0.881879
0.000000 0.308116 0.906468
0.000000 0.308722 0.931056
0.000000 0.309328 0.955645
0.000000 0.317441 0.169906
0.000000 0.318047 0.194494
0.000000 0.318652 0.219083
0.000000 0.319258 0.243672
0.000000 0.319863 0.268261
0.000000 0.320469 0.292849
0.000000 0.321075 0.317438
0.000000 0.321680 0.342027
0.000000 0.322286 0.366616
0.000000 0.322892 0.391204
0.000000 0.323497 0.415793
0.000000 0.324103 0.440382
0.000000 0.324708 0.464971
0.000000 0.325314 0.489559
0.000000 0.325920 0.514148
0.000000 0.326525 0.538737
0.000000 0.327131 0.563326
0.000000 0.327737 0.587914
0.000000 0.328342 0.612503
0.000000 0.328948 0.637092
0.000000 0.329553 0.661681
0.000000 0.330159 0.686269
0.000000 0.330765 0.710858
0.000000 0.331370 0.735447
0.000000 0.331976 0.760036
0.000000 0.332582 0.784624
0.000000 0.333187 0.809213
0.000000 0.333793 0.833802
0.000000 0.334398 0.858391
0.000000 0.335004 0.882979
0.000000 0.335610 0.907568
0.000000 0.336215 0.932157
0.000000 0.336821 0.956746
0.000000 0.344934 0.171006
0.000000 0.345540 0.195595
0.000000 0.346146 0.220184
0.000000 0.346751 0.244773
0.000000 0.347357 0.269361
0.000000 0.347963 0.293950
0.000000 0.348568 0.318539
0.000000 0.349174 0.343127
0.000000 0.349779 0.367716
0.000000 0.350385 0.392305
0.000000 0.350991 0.416894
0.000000 0.351596 0.441482
0.000000 0.352202 0.466071
0.000000 0.352808 0.490660
0.000000 0.353413 0.515249
0.000000 0.354019 0.539838
0.000000 0.354624 0.564426
0.000000 0.355230 0.589015
0.000000 0.355836 0.613604
0.000000 0.356441 0.638193
0.000000 0.357047 0.662781
0.000000 0.357652 0.687370
0.000000 0.358258 0.711959
0.000000 0.358864 0.736548
0.000000 0.359469 0.761136
0.000000 0.360075 0.785725
0.000000 0.360681 0.810314
0.000000 0.361286 0.834903
0.000000 0.361892 0.859491
0.000000 0.362498 0.884080
0.000000 0.363103 0.908669
0.000000 0.363709 0.933257
0.000000 0.364314 0.957846
0.000000 0.372428 0.172107
0.000000 0.373033 0.196696
0.000000 0.373639 0.221284
0.000000 0.374245 0.245873
0.000000 0.374850 0.270462
0.000000 0.375456 0.295051
0.000000 0.376062 0.319639
0.000000 0.376667 0.344228
0.000000 0.377273 0.368817
0.000000 0.377878 0.393406
0.000000 0.378484 0.417994
0.000000 0.379090 0.442583
0.000000 0.379695 0.467172
0.000000 0.380301 0.491761
0.000000 0.380907 0.516349
0.000000 0.381512 0.540938
0.000000 0.382118 0.565527
0.000000 0.382723 0.590116
0.000000 0.383329 0.614704
0.000000 0.383935 0.639293
0.000000 0.384540 0.663882
0.000000 0.385146 0.688471
0.000000 0.385752 0.713059
0.000000 0.386357 0.737648
0.000000 0.386963 0.762237
0.000000 0.387568 0.786826
0.000000 0.388174 0.811414
0.000000 0.388780 0.836003
0.000000 0.389385 0.860592
0.000000 0.389991 0.885181
0.000000 0.390597 0.909769
0.000000 0.391202 0.934358
0.000000 0.391808 0.958947
0.000000 0.399921 0.173208
0.000000 0.400527 0.197796
0.000000 0.401133 0.222385
0.000000 0.401738 0.246974
0.000000 0.402344 0.271562
0.000000 0.402949 0.296151
0.000000 0.403555 0.320740
0.000000 0.404161 0.345329
0.000000 0.404766 0.369918
0.000000 0.405372 0.394506
0.000000 0.405977 0.419095
0.000000 0.406583 0.443684
0.000000 0.407189 0.468272
0.000000 0.407794 0.492861
0.000000 0.408400 0.517450
0.000000 0.409006 0.542039
0.000000 0.409611 0.566628
0.000000 0.410217 0.591216
0.000000 0.410822 0.615805
0.000000 0.411428 0.640394
0.000000 0.412034 0.664983
0.000000 0.412639 0.689571
0.000000 0.413245 0.714160
0.000000 0.413851 0.738749
0.000000 0.414456 0.763337
0.000000 0.415062 0.787926
0.000000 0.415668 0.812515
0.000000 0.416273 0.837104
0.000000 0.416879 0.861693
0.000000 0.417484 0.886281
0.000800 0.418090 0.910870
0.002225 0.418696 0.935459
0.003650 0.419301 0.960048
0.000000 0.427415 0.174308
0.000000 0.428020 0.198897
0.000000 0.428626 0.223486
0.000000 0.429232 0.248074
0.000000 0.429837 0.272663
0.000000 0.430443 0.297252
0.000000 0.431048 0.321841
0.000000 0.431654 0.346429
0.000000 0.432260 0.371018
0.000000 0.432865 0.395607
0.000000 0.433471 0.420196
0.000000 0.434077 0.444784
0.000000 0.434682 0.469373
0.000000 0.435288 0.493962
0.000000 0.435893 0.518551
0.000000 0.436499 0.543139
0.000000 0.437105 0.567728
0.000000 0.437710 0.592317
0.000000 0.438316 0.616906
0.000000 0.438922 0.641494
0.000000 0.439527 0.666083
0.000000 0.440133 0.690672
0.000000 0.440738 0.715261
0.000000 0.441344 0.739849
0.000000 0.441950 0.764438
0.001013 0.442555 0.789027
0.002437 0.443161 0.813616
0.003862 0.443767 0.838204
0.005288 0.444372 0.862793
0.006712 0.444978 0.887382
0.008137 0.445583 0.911971
0.009562 0.446189 0.936559
0.010988 0.446795 0.961148
0.000000 0.454908 0.175409
0.000000 0.455514 0.199997
0.000000 0.456119 0.224586
0.000000 0.456725 0.249175
0.000000 0.457331 0.273764
0.000000 0.457936 0.298353
0.000000 0.458542 0.322941
0.000000 0.459148 0.347530
0.000000 0.459753 0.372119
0.000000 0.460359 0.396707
0.000000 0.460964 0.421296
0.000000 0.461570 0.445885
0.000000 0.462176 0.470474
0.000000 0.462781 0.495063
0.000000 0.463387 0.519651
0.000000 0.463993 0.544240
0.000000 0.464598 0.568829
0.000000 0.465204 0.593418
0.000000 0.465809 0.618006
0.000000 0.466415 0.642595
0.001225 0.467021 0.667184
0.002650 0.467626 0.691773
0.004075 0.468232 0.716361
0.005500 0.468837 0.740950
0.006925 0.469443 0.765539
0.008350 0.470049 0.790127
0.009775 0.470654 0.814716
0.011200 0.471260 0.839305
0.012625 0.471866 0.863894
0.014050 0.472471 0.888483
0.015475 0.473077 0.913071
0.016900 0.473683 0.937660
0.018325 0.474288 0.962249
0.000000 0.482402 0.176509
0.000000 0.483007 0.201098
0.000000 0.483613 0.225687
0.000000 0.484218 0.250276
0.000000 0.484824 0.274864
0.000000 0.485430 0.299453
0.000000 0.486035 0.324042
0.000000 0.486641 0.348631
0.000000 0.487247 0.373219
0.000000 0.487852 0.397808
0.000000 0.488458 0.422397
0.000000 0.489063 0.446986
0.000000 0.489669 0.471574
0.000000 0.490275 0.496163
0.000012 0.490880 0.520752
0.001438 0.491486 0.545341
0.002862 0.492092 0.569929
0.004287 0.492697 0.594518
0.005712 0.493303 0.619107
0.007137 0.493908 0.643696
0.008563 0.494514 0.668284
0.009987 0.495120 0.692873
0.011412 0.495725 0.717462
0.012837 0.496331 0.742051
0.014263 0.496937 0.766639
0.015687 0.497542 0.791228
0.017113 0.498148 0.815817
0.018537 0.498753 0.840406
0.019962 0.499359 0.864994
0.021388 0.499965 0.889583
0.022812 0.500570 0.914172
0.024237 0.501176 0.938761
0.025662 0.501782 0.963349
0.000000 0.509895 0.177610
0.000000 0.510501 0.202199
0.000000 0.511106 0.226788
0.000000 0.511712 0.251376
0.000000 0.512318 0.275965
0.000000 0.512923 0.300554
0.000000 0.513529 0.325143
0.000000 0.514134 0.349731
0.000000 0.514740 0.374320
0.000225 0.515346 0.398909
0.001650 0.515951 0.423498
0.003075 0.516557 0.448086
0.004500 0.517162 0.472675
0.005925 0.517768 0.497264
0.007350 0.518374 0.521853
0.008775 0.518979 0.546441
0.010200 0.519585 0.571030
0.011625 0.520191 0.595619
0.013050 0.520796 0.620208
0.014475 0.521402 0.644796
0.015900 0.522008 0.669385
0.017325 0.522613 0.693974
0.018750 0.523219 0.718562
0.020175 0.523824 0.743151
0.021600 0.524430 0.767740
0.023025 0.525036 0.792329
0.024450 0.525641 0.816917
0.025875 0.526247 0.841506
0.027300 0.526853 0.866095
0.028725 0.527458 0.890684
0.030150 0.528064 0.915273
0.031575 0.528669 0.939861
0.033000 0.529275 0.964450
0.000000 0.537388 0.178711
0.000000 0.537994 0.203299
0.000000 0.538600 0.227888
0.000000 0.539205 0.252477
0.000437 0.539811 0.277066
0.001863 0.540417 0.301654
0.003287 0.541022 0.326243
0.004713 0.541628 0.350832
0.006137 0.542233 0.375421
0.007562 0.542839 0.400009
0.008987 0.543445 0.424598
0.010412 0.544050 0.449187
0.011838 0.544656 0.473776
0.013262 0.545262 0.498364
0.014687 0.545867 0.522953
0.016112 0.546473 0.547542
0.017537 0.547078 0.572131
0.018963 0.547684 0.596719
0.020387 0.548290 0.621308
0.021812 0.548895 0.645897
0.023237 0.549501 0.670486
0.024662 0.550107 0.695074
0.026087 0.550712 0.719663
0.027512 0.551318 0.744252
0.028937 0.551923 0.768841
0.030362 0.552529 0.793429
0.031787 0.553135 0.818018
0.033212 0.553740 0.842607
0.034637 0.554346 0.867196
0.036062 0.554952 0.891784
0.037487 0.555557 0.916373
0.038912 0.556163 0.940962
0.040337 0.556768 0.965551
0.002075 0.564882 0.179811
0.003500 0.565488 0.204400
0.004925 0.566093 0.228989
0.006350 0.566699 0.253578
0.007775 0.567304 0.278166
0.009200 0.567910 0.302755
0.010625 0.568516 0.327344
0.012050 0.569121 0.351932
0.013475 0.569727 0.376521
0.014900 0.570333 0.401110
0.016325 0.570938 0.425699
0.017750 0.571544 0.450287
0.019175 0.572149 0.474876
0.020600 0.572755 0.499465
0.022025 0.573361 0.524054
0.023450 0.573966 0.548643
0.024875 0.574572 0.573231
0.026300 0.575178 0.597820
0.027725 0.575783 0.622409
0.029150 0.576389 0.646998
0.030575 0.576994 0.671586
0.032000 0.577600 0.696175
0.033425 0.578206 0.720764
0.034850 0.578811 0.745353
0.036275 0.579417 0.769941
0.037700 0.580022 0.794530
0.039125 0.580628 0.819119
0.040550 0.581234 0.843708
0.041975 0.581839 0.868296
0.043400 0.582445 0.892885
0.044825 0.583051 0.917474
0.046250 0.583656 0.942063
0.047675 0.584262 0.966651
0.009412 0.592375 0.180912
0.010837 0.592981 0.205501
0.012262 0.593587 0.230089
0.013687 0.594192 0.254678
0.015112 0.594798 0.279267
0.016537 0.595403 0.303856
0.017962 0.596009 0.328444
0.019387 0.596615 0.353033
0.020812 0.597220 0.377622
0.022237 0.597826 0.402211
0.023662 0.598432 0.426799
0.025087 0.599037 0.451388
0.026512 0.599643 0.475977
0.027937 0.600248 0.500566
0.029362 0.600854 0.525154
0.030787 0.601460 0.549743
0.032212 0.602065 0.574332
0.033638 0.602671 0.598921
0.035062 0.603277 0.623509
0.036487 0.603882 0.648098
0.037913 0.604488 0.672687
0.039337 0.605093 0.697276
0.040762 0.605699 0.721864
0.042187 0.606305 0.746453
0.043612 0.606910 0.771042
0.045037 0.607516 0.795631
0.046462 0.608122 0.820219
0.047887 0.608727 0.844808
0.049312 0.609333 0.869397
0.050737 0.609938 0.893986
0.052163 0.610544 0.918574
0.053587 0.611150 0.943163
0.055012 0.611755 0.967752
0.016750 0.619869 0.182013
0.018175 0.620474 0.206601
0.019600 0.621080 0.231190
0.021025 0.621686 0.255779
0.022450 0.622291 0.280367
0.023875 0.622897 0.304956
0.025300 0.623503 0.329545
0.026725 0.624108 0.354134
0.028150 0.624714 0.378723
0.029575 0.625319 0.403311
0.031000 0.625925 0.427900
0.032425 0.626531 0.452489
0.033850 0.627136 0.477077
0.035275 0.627742 0.501666
0.036700 0.628348 0.526255
0.038125 0.628953 0.550844
0.039550 0.629559 0.575433
0.040975 0.630164 0.600021
0.042400 0.630770 0.624610
0.043825 0.631376 0.649199
0.045250 0.631981 0.673787
0.046675 0.632587 0.698376
0.048100 0.633193 0.722965
0.049525 0.633798 0.747554
0.050950 0.634404 0.772142
0.052375 0.635009 0.796731
0.053800 0.635615 0.821320
0.055225 0.636221 0.845909
0.056650 0.636826 0.870497
0.058075 0.637432 0.895086
0.059500 0.638038 0.919675
0.060925 0.638643 0.944264
0.062350 0.639249 0.968853
0.024087 0.647362 0.183113
0.025513 0.647968 0.207702
0.026937 0.648573 0.232291
0.028363 0.649179 0.256879
0.029787 0.649785 0.281468
0.031212 0.650390 0.306057
0.032637 0.650996 0.330646
0.034063 0.651602 0.355234
0.035488 0.652207 0.379823
0.036913 0.652813 0.404412
0.038337 0.653418 0.429001
0.039762 0.654024 0.453589
0.041188 0.654630 0.478178
0.042612 0.655235 0.502767
0.044038 0.655841 0.527356
0.045462 0.656447 0.551944
0.046887 0.657052 0.576533
0.048312 0.657658 0.601122
0.049737 0.658263 0.625711
0.051163 0.658869 0.650299
0.052587 0.659475 0.674888
0.054013 0.660080 0.699477
0.055438 0.660686 0.724066
0.056862 0.661292 0.748654
0.058288 0.661897 0.773243
0.059712 0.662503 0.797832
0.061138 0.663108 0.822421
0.062563 0.663714 0.847009
0.063987 0.664320 0.871598
0.065412 0.664925 0.896187
0.066837 0.665531 0.920776
0.068263 0.666137 0.945364
0.069687 0.666742 0.969953
0.031425 0.674856 0.184214
0.032850 0.675461 0.208803
0.034275 0.676067 0.233391
0.035700 0.676673 0.257980
0.037125 0.677278 0.282569
0.038550 0.677884 0.307158
0.039975 0.678489 0.331746
0.041400 0.679095 0.356335
0.042825 0.679701 0.380924
0.044250 0.680306 0.405513
0.045675 0.680912 0.430101
0.047100 0.681517 0.454690
0.048525 0.682123 0.479279
0.049950 0.682729 0.503868
0.051375 0.683334 0.528456
0.052800 0.683940 0.553045
0.054225 0.684546 0.577634
0.055650 0.685151 0.602222
0.057075 0.685757 0.626811
0.058500 0.686362 0.651400
0.059925 0.686968 0.675989
0.061350 0.687574 0.700577
0.062775 0.688179 0.725166
0.064200 0.688785 0.749755
0.065625 0.689391 0.774344
0.067050 0.689996 0.798933
0.068475 0.690602 0.823521
0.069900 0.691207 0.848110
0.071325 0.691813 0.872699
0.072750 0.692419 0.897288
0.074175 0.693024 0.921876
0.075600 0.693630 0.946465
0.077025 0.694236 0.971054
0.038762 0.702349 0.185314
0.040188 0.702955 0.209903
0.041612 0.703560 0.234492
0.043037 0.704166 0.259081
0.044462 0.704772 0.283669
0.045887 0.705377 0.308258
0.047312 0.705983 0.332847
0.048737 0.706588 0.357436
0.050163 0.707194 0.382024
0.051587 0.707800 0.406613
0.053013 0.708405 0.431202
0.054437 0.709011 0.455791
0.055862 0.709617 0.480379
0.057287 0.710222 0.504968
0.058712 0.710828 0.529557
0.060137 0.711433 0.554146
0.061562 0.712039 0.578734
0.062988 0.712645 0.603323
0.064412 0.713250 0.627912
0.065838 0.713856 0.652501
0.067262 0.714462 0.677089
0.068687 0.715067 0.701678
0.070113 0.715673 0.726267
0.071537 0.716278 0.750856
0.072962 0.716884 0.775444
0.074387 0.717490 0.800033
0.075813 0.718095 0.824622
0.077238 0.718701 0.849211
0.078662 0.719307 0.873799
0.080087 0.719912 0.898388
0.081512 0.720518 0.922977
0.082937 0.721123 0.947566
0.084363 0.721729 0.972154
0.046100 0.729842 0.186415
0.047525 0.730448 0.211004
0.048950 0.731054 0.235592
0.050375 0.731659 0.260181
0.051800 0.732265 0.284770
0.053225 0.732871 0.309359
0.054650 0.733476 0.333948
0.056075 0.734082 0.358536
0.057500 0.734688 0.383125
0.058925 0.735293 0.407714
0.060350 0.735899 0.432302
0.061775 0.736504 0.456891
0.063200 0.737110 0.481480
0.064625 0.737716 0.506069
0.066050 0.738321 0.530658
0.067475 0.738927 0.555246
0.068900 0.739532 0.579835
0.070325 0.740138 0.604424
0.071750 0.740744 0.629013
0.073175 0.741349 0.653601
0.074600 0.741955 0.678190
0.076025 0.742561 0.702779
0.077450 0.743166 0.727367
0.078875 0.743772 0.751956
0.080300 0.744378 0.776545
0.081725 0.744983 0.801134
0.083150 0.745589 0.825723
0.084575 0.746194 0.850311
0.086000 0.746800 0.874900
0.087425 0.747406 0.899489
0.088850 0.748011 0.924077
0.090275 0.748617 0.948666
0.091700 0.749223 0.973255
0.053437 0.757336 0.187516
0.054863 0.757942 0.212104
0.056287 0.758547 0.236693
0.057712 0.759153 0.261282
0.059137 0.759758 0.285871
0.060562 0.760364 0.310459
0.061987 0.760970 0.335048
0.063412 0.761575 0.359637
0.064837 0.762181 0.384226
0.066263 0.762787 0.408814
0.067687 0.763392 0.433403
0.069112 0.763998 0.457992
0.070537 0.764603 0.482581
0.071962 0.765209 0.507169
0.073388 0.765815 0.531758
0.074812 0.766420 0.556347
0.076237 0.767026 0.580936
0.077662 0.767632 0.605524
0.079088 0.768237 0.630113
0.080512 0.768843 0.654702
0.081937 0.769448 0.679291
0.083362 0.770054 0.703879
0.084788 0.770660 0.728468
0.086212 0.771265 0.753057
0.087637 0.771871 0.777646
0.089062 0.772477 0.802234
0.090487 0.773082 0.826823
0.091913 0.773688 0.851412
0.093337 0.774293 0.876001
0.094762 0.774899 0.900589
0.096187 0.775505 0.925178
0.097612 0.776110 0.949767
0.099038 0.776716 0.974356
0.060775 0.784829 0.188616
0.062200 0.785435 0.213205
0.063625 0.786041 0.237794
0.065050 0.786646 0.262383
0.066475 0.787252 0.286971
0.067900 0.787857 0.311560
0.069325 0.788463 0.336149
0.070750 0.789069 0.360737
0.072175 0.789674 0.385326
0.073600 0.790280 0.409915
0.075025 0.790886 0.434504
0.076450 0.791491 0.459093
0.077875 0.792097 0.483681
0.079300 0.792702 0.508270
0.080725 0.793308 0.532859
0.082150 0.793914 0.557447
0.083575 0.794519 0.582036
0.085000 0.795125 0.606625
0.086425 0.795731 0.631214
0.087850 0.796336 0.655803
0.089275 0.796942 0.680391
0.090700 0.797547 0.704980
0.092125 0.798153 0.729569
0.093550 0.798759 0.754158
0.094975 0.799364 0.778746
0.096400 0.799970 0.803335
0.097825 0.800576 0.827924
0.099250 0.801181 0.852513
0.100675 0.801787 0.877101
