assets/lut/Cinematic-Teal.cube
TITLE "Cinematic-Teal.cube"
LUT_3D_SIZE 9
0.000000 0.070000 0.160000
0.000000 0.072423 0.258355
0.000000 0.074845 0.356710
0.000000 0.077268 0.455065
0.000000 0.079690 0.553420
0.000000 0.082112 0.651775
0.000000 0.084535 0.750130
0.000000 0.086958 0.848485
0.000000 0.089380 0.946840
0.000000 0.179974 0.164403
0.000000 0.182396 0.262757
0.000000 0.184819 0.361113
0.000000 0.187241 0.459467
0.000000 0.189664 0.557822
0.000000 0.192086 0.656178
0.000000 0.194509 0.754532
0.000000 0.196931 0.852888
0.000000 0.199354 0.951243
0.000000 0.289948 0.168805
0.000000 0.292370 0.267160
0.000000 0.294793 0.365515
0.000000 0.297215 0.463870
0.000000 0.299638 0.562225
0.000000 0.302060 0.660580
0.000000 0.304482 0.758935
0.000000 0.306905 0.857290
0.000000 0.309328 0.955645
0.000000 0.399921 0.173208
0.000000 0.402344 0.271562
0.000000 0.404766 0.369918
0.000000 0.407189 0.468272
0.000000 0.409611 0.566628
0.000000 0.412034 0.664983
0.000000 0.414456 0.763337
0.000000 0.416879 0.861693
0.003650 0.419301 0.960048
0.000000 0.509895 0.177610
0.000000 0.512318 0.275965
0.000000 0.514740 0.374320
0.004500 0.517162 0.472675
0.010200 0.519585 0.571030
0.015900 0.522008 0.669385
0.021600 0.524430 0.767740
0.027300 0.526853 0.866095
0.033000 0.529275 0.964450
0.016750 0.619869 0.182013
0.022450 0.622291 0.280367
0.028150 0.624714 0.378723
0.033850 0.627136 0.477077
0.039550 0.629559 0.575433
0.045250 0.631981 0.673787
0.050950 0.634404 0.772142
0.056650 0.636826 0.870497
0.062350 0.639249 0.968853
0.046100 0.729842 0.186415
0.051800 0.732265 0.284770
0.057500 0.734688 0.383125
0.063200 0.737110 0.481480
0.068900 0.739532 0.579835
0.074600 0.741955 0.678190
0.080300 0.744378 0.776545
0.086000 0.746800 0.874900
0.091700 0.749223 0.973255
0.075450 0.839816 0.190818
0.081150 0.842239 0.289172
0.086850 0.844661 0.387528
0.092550 0.847084 0.485882
0.098250 0.849506 0.584237
0.103950 0.851929 0.682593
0.109650 0.854351 0.780947
0.115350 0.856774 0.879302
0.121050 0.859196 0.977657
0.104800 0.949790 0.195220
0.110500 0.952213 0.293575
0.116200 0.954635 0.391930
0.121900 0.957058 0.490285
0.127600 0.959480 0.588640
0.133300 0.961902 0.686995
0.139000 0.964325 0.785350
0.144700 0.966748 0.883705
0.150400 0.969170 0.982060
0.000000 0.076354 0.162242
0.000000 0.078776 0.260597
0.000000 0.081199 0.358953
0.000000 0.083621 0.457307
0.005250 0.086044 0.555663
0.010950 0.088466 0.654018
0.016650 0.090889 0.752372
0.022350 0.093311 0.850728
0.028050 0.095734 0.949083
0.011800 0.186328 0.166645
0.017500 0.188750 0.265000
0.023200 0.191173 0.363355
0.028900 0.193595 0.461710
0.034600 0.196018 0.560065
0.040300 0.198440 0.658420
0.046000 0.200862 0.756775
0.051700 0.203285 0.855130
0.057400 0.205707 0.953485
0.041150 0.296301 0.171048
0.046850 0.298724 0.269402
0.052550 0.301146 0.367758
0.058250 0.303569 0.466113
0.063950 0.305991 0.564468
0.069650 0.308414 0.662823
0.075350 0.310836 0.761177
0.081050 0.313259 0.859533
0.086750 0.315681 0.957888
0.070500 0.406275 0.175450
0.076200 0.408697 0.273805
0.081900 0.411120 0.372160
0.087600 0.413542 0.470515
0.093300 0.415965 0.568870
0.099000 0.418387 0.667225
0.104700 0.420810 0.765580
0.110400 0.423232 0.863935
0.116100 0.425655 0.962290
0.099850 0.516249 0.179852
0.105550 0.518671 0.278208
0.111250 0.521094 0.376563
0.116950 0.523516 0.474917
0.122650 0.525939 0.573272
0.128350 0.528361 0.671628
0.134050 0.530784 0.769983
0.139750 0.533206 0.868337
0.145450 0.535629 0.966693
0.129200 0.626223 0.184255
0.134900 0.628645 0.282610
0.140600 0.631068 0.380965
0.146300 0.633490 0.479320
0.152000 0.635913 0.577675
0.157700 0.638335 0.676030
0.163400 0.640758 0.774385
0.169100 0.643180 0.872740
0.174800 0.645602 0.971095
0.158550 0.736196 0.188657
0.164250 0.738619 0.287013
0.169950 0.741041 0.385367
0.175650 0.743464 0.483722
0.181350 0.745886 0.582078
0.187050 0.748309 0.680433
0.192750 0.750731 0.778787
0.198450 0.753154 0.877142
0.204150 0.755576 0.975497
0.187900 0.846170 0.193060
0.193600 0.848592 0.291415
0.199300 0.851015 0.389770
0.205000 0.853437 0.488125
0.210700 0.855860 0.586480
0.216400 0.858283 0.684835
0.222100 0.860705 0.783190
0.227800 0.863127 0.881545
0.233500 0.865550 0.979900
0.217250 0.956144 0.197462
0.222950 0.958566 0.295818
0.228650 0.960989 0.394173
0.234350 0.963411 0.492528
0.240050 0.965834 0.590883
0.245750 0.968256 0.689238
0.251450 0.970679 0.787593
0.257150 0.973101 0.885947
0.262850 0.975524 0.984303
0.094900 0.082708 0.164485
0.100600 0.085130 0.262840
0.106300 0.087553 0.361195
0.112000 0.089975 0.459550
0.117700 0.092398 0.557905
0.123400 0.094820 0.656260
0.129100 0.097243 0.754615
0.134800 0.099665 0.852970
0.140500 0.102087 0.951325
0.124250 0.192681 0.168887
0.129950 0.195104 0.267243
0.135650 0.197526 0.365598
0.141350 0.199949 0.463952
0.147050 0.202371 0.562307
0.152750 0.204794 0.660663
0.158450 0.207216 0.759017
0.164150 0.209639 0.857372
0.169850 0.212061 0.955728
0.153600 0.302655 0.173290
0.159300 0.305078 0.271645
0.165000 0.307500 0.370000
0.170700 0.309922 0.468355
0.176400 0.312345 0.566710
0.182100 0.314768 0.665065
0.187800 0.317190 0.763420
0.193500 0.319613 0.861775
0.199200 0.322035 0.960130
0.182950 0.412629 0.177693
0.188650 0.415051 0.276048
0.194350 0.417474 0.374403
0.200050 0.419896 0.472757
0.205750 0.422319 0.571113
0.211450 0.424741 0.669467
0.217150 0.427164 0.767822
0.222850 0.429586 0.866178
0.228550 0.432009 0.964533
0.212300 0.522602 0.182095
0.218000 0.525025 0.280450
0.223700 0.527448 0.378805
0.229400 0.529870 0.477160
0.235100 0.532293 0.575515
0.240800 0.534715 0.673870
0.246500 0.537138 0.772225
0.252200 0.539560 0.870580
0.257900 0.541983 0.968935
0.241650 0.632576 0.186497
0.247350 0.634999 0.284853
0.253050 0.637421 0.383208
0.258750 0.639844 0.481563
0.264450 0.642266 0.579918
0.270150 0.644689 0.678273
0.275850 0.647111 0.776628
0.281550 0.649534 0.874982
0.287250 0.651956 0.973338
0.271000 0.742550 0.190900
0.276700 0.744972 0.289255
0.282400 0.747395 0.387610
0.288100 0.749817 0.485965
0.293800 0.752240 0.584320
0.299500 0.754663 0.682675
0.305200 0.757085 0.781030
0.310900 0.759508 0.879385
0.316600 0.761930 0.977740
0.300350 0.852524 0.195302
0.306050 0.854946 0.293658
0.311750 0.857369 0.392012
0.317450 0.859791 0.490368
0.323150 0.862214 0.588723
0.328850 0.864636 0.687078
0.334550 0.867059 0.785432
0.340250 0.869481 0.883787
0.345950 0.871904 0.982143
0.329700 0.962498 0.199705
0.335400 0.964920 0.298060
0.341100 0.967342 0.396415
0.346800 0.969765 0.494770
0.352500 0.972187 0.593125
0.358200 0.974610 0.691480
0.363900 0.977032 0.789835
0.369600 0.979455 0.888190
0.375300 0.981877 0.986545
0.207350 0.089061 0.166728
0.213050 0.091484 0.265082
0.218750 0.093906 0.363438
0.224450 0.096329 0.461792
0.230150 0.098751 0.560148
0.235850 0.101174 0.658502
0.241550 0.103596 0.756858
0.247250 0.106019 0.855213
0.252950 0.108441 0.953568
0.236700 0.199035 0.171130
0.242400 0.201458 0.269485
0.248100 0.203880 0.367840
0.253800 0.206303 0.466195
0.259500 0.208725 0.564550
0.265200 0.211148 0.662905
0.270900 0.213570 0.761260
0.276600 0.215993 0.859615
0.282300 0.218415 0.957970
0.266050 0.309009 0.175533
0.271750 0.311431 0.273888
0.277450 0.313854 0.372243
0.283150 0.316276 0.470598
0.288850 0.318699 0.568953
0.294550 0.321121 0.667307
0.300250 0.323544 0.765662
0.305950 0.325966 0.864017
0.311650 0.328389 0.962372
0.295400 0.418983 0.179935
0.301100 0.421405 0.278290
0.306800 0.423828 0.376645
0.312500 0.426250 0.475000
0.318200 0.428673 0.573355
0.323900 0.431095 0.671710
0.329600 0.433518 0.770065
0.335300 0.435940 0.868420
0.341000 0.438362 0.966775
0.324750 0.528956 0.184337
0.330450 0.531379 0.282693
0.336150 0.533801 0.381047
0.341850 0.536224 0.479403
0.347550 0.538646 0.577758
0.353250 0.541069 0.676113
0.358950 0.543491 0.774467
0.364650 0.545914 0.872822
0.370350 0.548336 0.971178
0.354100 0.638930 0.188740
0.359800 0.641353 0.287095
0.365500 0.643775 0.385450
0.371200 0.646198 0.483805
0.376900 0.648620 0.582160
0.382600 0.651043 0.680515
0.388300 0.653465 0.778870
0.394000 0.655888 0.877225
0.399700 0.658310 0.975580
0.383450 0.748904 0.193142
0.389150 0.751326 0.291498
0.394850 0.753749 0.389852
0.400550 0.756171 0.488207
0.406250 0.758594 0.586562
0.411950 0.761016 0.684918
0.417650 0.763439 0.783272
0.423350 0.765861 0.881628
0.429050 0.768284 0.979982
0.412800 0.858878 0.197545
0.418500 0.861300 0.295900
0.424200 0.863723 0.394255
0.429900 0.866145 0.492610
0.435600 0.868568 0.590965
0.441300 0.870990 0.689320
0.447000 0.873413 0.787675
0.452700 0.875835 0.886030
0.458400 0.878258 0.984385
0.442150 0.968851 0.201948
0.447850 0.971274 0.300303
0.453550 0.973696 0.398657
0.459250 0.976119 0.497012
0.464950 0.978541 0.595367
0.470650 0.980964 0.693723
0.476350 0.983386 0.792077
0.482050 0.985809 0.890432
0.487750 0.988231 0.988788
0.319800 0.095415 0.168970
0.325500 0.097837 0.267325
0.331200 0.100260 0.365680
0.336900 0.102682 0.464035
0.342600 0.105105 0.562390
0.348300 0.107528 0.660745
0.354000 0.109950 0.759100
0.359700 0.112373 0.857455
0.365400 0.114795 0.955810
0.349150 0.205389 0.173373
0.354850 0.207811 0.271728
0.360550 0.210234 0.370082
0.366250 0.212656 0.468438
0.371950 0.215079 0.566793
0.377650 0.217501 0.665148
0.383350 0.219924 0.763502
0.389050 0.222346 0.861858
0.394750 0.224769 0.960213
0.378500 0.315362 0.177775
0.384200 0.317785 0.276130
0.389900 0.320208 0.374485
0.395600 0.322630 0.472840
0.401300 0.325053 0.571195
0.407000 0.327475 0.669550
0.412700 0.329898 0.767905
0.418400 0.332320 0.866260
0.424100 0.334743 0.964615
0.407850 0.425336 0.182177
0.413550 0.427759 0.280533
0.419250 0.430181 0.378887
0.424950 0.432604 0.477242
0.430650 0.435026 0.575597
0.436350 0.437449 0.673953
0.442050 0.439871 0.772308
0.447750 0.442294 0.870663
0.453450 0.444716 0.969018
0.437200 0.535310 0.186580
0.442900 0.537732 0.284935
0.448600 0.540155 0.383290
0.454300 0.542578 0.481645
0.460000 0.545000 0.580000
0.465700 0.547423 0.678355
0.471400 0.549845 0.776710
0.477100 0.552267 0.875065
0.482800 0.554690 0.973420
0.466550 0.645284 0.190982
0.472250 0.647706 0.289337
0.477950 0.650129 0.387692
0.483650 0.652551 0.486047
0.489350 0.654974 0.584402
0.495050 0.657396 0.682758
0.500750 0.659819 0.781112
0.506450 0.662241 0.879468
0.512150 0.664664 0.977823
0.495900 0.755257 0.195385
0.501600 0.757680 0.293740
0.507300 0.760102 0.392095
0.513000 0.762525 0.490450
0.518700 0.764948 0.588805
0.524400 0.767370 0.687160
0.530100 0.769792 0.785515
0.535800 0.772215 0.883870
0.541500 0.774637 0.982225
0.525250 0.865231 0.199788
0.530950 0.867654 0.298143
0.536650 0.870076 0.396498
0.542350 0.872499 0.494852
0.548050 0.874921 0.593208
0.553750 0.877344 0.691563
0.559450 0.879766 0.789917
0.565150 0.882189 0.888272
0.570850 0.884611 0.986627
0.554600 0.975205 0.204190
0.560300 0.977628 0.302545
0.566000 0.980050 0.400900
0.571700 0.982472 0.499255
0.577400 0.984895 0.597610
0.583100 0.987318 0.695965
0.588800 0.989740 0.794320
0.594500 0.992163 0.892675
0.600200 0.994585 0.991030
0.432250 0.101769 0.171212
0.437950 0.104191 0.269567
0.443650 0.106614 0.367923
0.449350 0.109036 0.466278
0.455050 0.111459 0.564632
0.460750 0.113881 0.662988
0.466450 0.116304 0.761342
0.472150 0.118726 0.859698
0.477850 0.121149 0.958052
0.461600 0.211743 0.175615
0.467300 0.214165 0.273970
0.473000 0.216588 0.372325
0.478700 0.219010 0.470680
0.484400 0.221432 0.569035
0.490100 0.223855 0.667390
0.495800 0.226278 0.765745
0.501500 0.228700 0.864100
0.507200 0.231122 0.962455
0.490950 0.321716 0.180017
0.496650 0.324139 0.278373
0.502350 0.326561 0.376727
0.508050 0.328984 0.475083
0.513750 0.331406 0.573438
0.519450 0.333829 0.671793
0.525150 0.336251 0.770147
0.530850 0.338674 0.868502
0.536550 0.341096 0.966858
0.520300 0.431690 0.184420
0.526000 0.434113 0.282775
0.531700 0.436535 0.381130
0.537400 0.438957 0.479485
0.543100 0.441380 0.577840
0.548800 0.443802 0.676195
0.554500 0.446225 0.774550
0.560200 0.448647 0.872905
0.565900 0.451070 0.971260
0.549650 0.541664 0.188823
0.555350 0.544086 0.287177
0.561050 0.546509 0.385533
0.566750 0.548931 0.483888
0.572450 0.551354 0.582242
0.578150 0.553776 0.680598
0.583850 0.556199 0.778952
0.589550 0.558621 0.877308
0.595250 0.561044 0.975662
0.579000 0.651637 0.193225
0.584700 0.654060 0.291580
0.590400 0.656483 0.389935
0.596100 0.658905 0.488290
0.601800 0.661328 0.586645
0.607500 0.663750 0.685000
0.613200 0.666173 0.783355
0.618900 0.668595 0.881710
0.624600 0.671018 0.980065
0.608350 0.761611 0.197628
0.614050 0.764034 0.295983
0.619750 0.766456 0.394338
0.625450 0.768879 0.492693
0.631150 0.771301 0.591048
0.636850 0.773724 0.689403
0.642550 0.776146 0.787757
0.648250 0.778569 0.886112
0.653950 0.780991 0.984468
0.637700 0.871585 0.202030
0.643400 0.874007 0.300385
0.649100 0.876430 0.398740
0.654800 0.878852 0.497095
0.660500 0.881275 0.595450
0.666200 0.883697 0.693805
0.671900 0.886120 0.792160
0.677600 0.888543 0.890515
0.683300 0.890965 0.988870
0.667050 0.981559 0.206433
0.672750 0.983981 0.304787
0.678450 0.986404 0.403142
0.684150 0.988826 0.501498
0.689850 0.991249 0.599853
0.695550 0.993671 0.698208
0.701250 0.996094 0.796562
0.706950 0.998516 0.894918
0.712650 1.000000 0.993273
0.544700 0.108123 0.173455
0.550400 0.110545 0.271810
0.556100 0.112968 0.370165
0.561800 0.115390 0.468520
0.567500 0.117813 0.566875
0.573200 0.120235 0.665230
0.578900 0.122658 0.763585
0.584600 0.125080 0.861940
0.590300 0.127502 0.960295
0.574050 0.218096 0.177858
0.579750 0.220519 0.276212
0.585450 0.222941 0.374568
0.591150 0.225364 0.472922
0.596850 0.227786 0.571277
0.602550 0.230209 0.669632
0.608250 0.232631 0.767988
0.613950 0.235054 0.866343
0.619650 0.237476 0.964697
0.603400 0.328070 0.182260
0.609100 0.330493 0.280615
0.614800 0.332915 0.378970
0.620500 0.335338 0.477325
0.626200 0.337760 0.575680
0.631900 0.340182 0.674035
0.637600 0.342605 0.772390
0.643300 0.345028 0.870745
0.649000 0.347450 0.969100
0.632750 0.438044 0.186663
0.638450 0.440466 0.285018
0.644150 0.442889 0.383373
0.649850 0.445311 0.481727
0.655550 0.447734 0.580082
0.661250 0.450156 0.678438
0.666950 0.452579 0.776792
0.672650 0.455001 0.875147
0.678350 0.457424 0.973503
0.662100 0.548018 0.191065
0.667800 0.550440 0.289420
0.673500 0.552863 0.387775
0.679200 0.555285 0.486130
0.684900 0.557708 0.584485
0.690600 0.560130 0.682840
0.696300 0.562553 0.781195
0.702000 0.564975 0.879550
0.707700 0.567397 0.977905
0.691450 0.657991 0.195468
0.697150 0.660414 0.293822
0.702850 0.662836 0.392178
0.708550 0.665259 0.490532
0.714250 0.667681 0.588888
0.719950 0.670104 0.687242
0.725650 0.672526 0.785597
0.731350 0.674949 0.883953
0.737050 0.677371 0.982308
0.720800 0.767965 0.199870
0.726500 0.770387 0.298225
0.732200 0.772810 0.396580
0.737900 0.775232 0.494935
0.743600 0.777655 0.593290
0.749300 0.780077 0.691645
0.755000 0.782500 0.790000
0.760700 0.784922 0.888355
0.766400 0.787345 0.986710
0.750150 0.877939 0.204273
0.755850 0.880361 0.302627
0.761550 0.882784 0.400983
0.767250 0.885206 0.499337
0.772950 0.887629 0.597692
0.778650 0.890051 0.696048
0.784350 0.892474 0.794402
0.790050 0.894896 0.892757
0.795750 0.897319 0.991112
0.779500 0.987912 0.208675
0.785200 0.990335 0.307030
0.790900 0.992757 0.405385
0.796600 0.995180 0.503740
0.802300 0.997603 0.602095
0.808000 1.000000 0.700450
0.813700 1.000000 0.798805
0.819400 1.000000 0.897160
0.825100 1.000000 0.995515
0.657150 0.114476 0.175698
0.662850 0.116899 0.274053
0.668550 0.119321 0.372408
0.674250 0.121744 0.470763
0.679950 0.124166 0.569117
0.685650 0.126589 0.667473
0.691350 0.129011 0.765827
0.697050 0.131434 0.864183
0.702750 0.133856 0.962538
0.686500 0.224450 0.180100
0.692200 0.226873 0.278455
0.697900 0.229295 0.376810
0.703600 0.231718 0.475165
0.709300 0.234140 0.573520
0.715000 0.236563 0.671875
0.720700 0.238985 0.770230
0.726400 0.241408 0.868585
0.732100 0.243830 0.966940
0.715850 0.334424 0.184503
0.721550 0.336846 0.282857
0.727250 0.339269 0.381213
0.732950 0.341691 0.479567
0.738650 0.344114 0.577923
0.744350 0.346536 0.676278
0.750050 0.348959 0.774633
0.755750 0.351381 0.872988
0.761450 0.353804 0.971343
0.745200 0.444398 0.188905
0.750900 0.446820 0.287260
0.756600 0.449242 0.385615
0.762300 0.451665 0.483970
0.768000 0.454087 0.582325
0.773700 0.456510 0.680680
0.779400 0.458932 0.779035
0.785100 0.461355 0.877390
0.790800 0.463777 0.975745
0.774550 0.554371 0.193308
0.780250 0.556794 0.291662
0.785950 0.559216 0.390018
0.791650 0.561639 0.488372
0.797350 0.564061 0.586728
0.803050 0.566484 0.685083
0.808750 0.568906 0.783437
0.814450 0.571329 0.881792
0.820150 0.573751 0.980147
0.803900 0.664345 0.197710
0.809600 0.666767 0.296065
0.815300 0.669190 0.394420
0.821000 0.671613 0.492775
0.826700 0.674035 0.591130
0.832400 0.676458 0.689485
0.838100 0.678880 0.787840
0.843800 0.681303 0.886195
0.849500 0.683725 0.984550
0.833250 0.774319 0.202113
0.838950 0.776741 0.300467
0.844650 0.779164 0.398823
0.850350 0.781586 0.497177
0.856050 0.784009 0.595533
0.861750 0.786431 0.693887
0.867450 0.788854 0.792242
0.873150 0.791276 0.890598
0.878850 0.793699 0.988953
0.862600 0.884293 0.206515
0.868300 0.886715 0.304870
0.874000 0.889137 0.403225
0.879700 0.891560 0.501580
0.885400 0.893983 0.599935
0.891100 0.896405 0.698290
0.896800 0.898828 0.796645
0.902500 0.901250 0.895000
0.908200 0.903673 0.993355
0.891950 0.994266 0.210917
0.897650 0.996689 0.309273
0.903350 0.999111 0.407628
0.909050 1.000000 0.505983
0.914750 1.000000 0.604338
0.920450 1.000000 0.702693
0.926150 1.000000 0.801047
0.931850 1.000000 0.899402
0.937550 1.000000 0.997757
0.769600 0.120830 0.177940
0.775300 0.123252 0.276295
0.781000 0.125675 0.374650
0.786700 0.128098 0.473005
0.792400 0.130520 0.571360
0.798100 0.132942 0.669715
0.803800 0.135365 0.768070
0.809500 0.137788 0.866425
0.815200 0.140210 0.964780
0.798950 0.230804 0.182343
0.804650 0.233226 0.280697
0.810350 0.235649 0.379053
0.816050 0.238071 0.477407
0.821750 0.240494 0.575762
0.827450 0.242916 0.674118
0.833150 0.245339 0.772473
0.838850 0.247761 0.870827
0.844550 0.250184 0.969183
0.828300 0.340778 0.186745
0.834000 0.343200 0.285100
0.839700 0.345623 0.383455
0.845400 0.348045 0.481810
0.851100 0.350467 0.580165
0.856800 0.352890 0.678520
0.862500 0.355313 0.776875
0.868200 0.357735 0.875230
0.873900 0.360158 0.973585
0.857650 0.450751 0.191147
0.863350 0.453174 0.289502
0.869050 0.455596 0.387857
0.874750 0.458019 0.486212
0.880450 0.460441 0.584568
0.886150 0.462864 0.682923
0.891850 0.465286 0.781277
0.897550 0.467709 0.879633
0.903250 0.470131 0.977988
0.887000 0.560725 0.195550
0.892700 0.563148 0.293905
0.898400 0.565570 0.392260
0.904100 0.567992 0.490615
0.909800 0.570415 0.588970
0.915500 0.572837 0.687325
0.921200 0.575260 0.785680
0.926900 0.577682 0.884035
0.932600 0.580105 0.982390
0.916350 0.670699 0.199953
0.922050 0.673121 0.298308
0.927750 0.675544 0.396662
0.933450 0.677966 0.495017
0.939150 0.680389 0.593373
0.944850 0.682811 0.691728
0.950550 0.685234 0.790083
0.956250 0.687656 0.888437
0.961950 0.690079 0.986793
0.945700 0.780672 0.204355
0.951400 0.783095 0.302710
0.957100 0.785517 0.401065
0.962800 0.787940 0.499420
0.968500 0.790362 0.597775
0.974200 0.792785 0.696130
0.979900 0.795207 0.794485
0.985600 0.797630 0.892840
0.991300 0.800052 0.991195
0.975050 0.890646 0.208757
0.980750 0.893069 0.307112
0.986450 0.895491 0.405467
0.992150 0.897914 0.503822
0.997850 0.900336 0.602178
1.000000 0.902759 0.700533
1.000000 0.905181 0.798887
1.000000 0.907604 0.897243
1.000000 0.910026 0.995598
1.000000 1.000000 0.213160
1.000000 1.000000 0.311515
1.000000 1.000000 0.409870
1.000000 1.000000 0.508225
1.000000 1.000000 0.606580
1.000000 1.000000 0.704935
1.000000 1.000000 0.803290
1.000000 1.000000 0.901645
1.000000 1.000000 1.000000
