assets/lut/Cool-Icy.cube
LUT_3D_SIZE 33
DOMAIN_MIN 0.0 0.0 0.0
DOMAIN_MAX 1.0 1.0 1.0
0.00000 0.00000 0.00000
0.02813 0.00000 0.00000
0.05625 0.00000 0.00000
0.08438 0.00000 0.00000
0.11250 0.00000 0.00000
0.14062 0.00000 0.00000
0.16875 0.00000 0.00000
0.19687 0.00000 0.00000
0.22500 0.00000 0.00000
0.25312 0.00000 0.00000
0.28125 0.00000 0.00000
0.30938 0.00000 0.00000
0.33750 0.00000 0.00000
0.36563 0.00000 0.00000
0.39375 0.00000 0.00000
0.42188 0.00000 0.00000
0.45000 0.00000 0.00000
0.47813 0.00000 0.00000
0.50625 0.00000 0.00000
0.53438 0.00000 0.00000
0.56250 0.00000 0.00000
0.59063 0.00000 0.00000
0.61875 0.00000 0.00000
0.64687 0.00000 0.00000
0.67500 0.00000 0.00000
0.70312 0.00000 0.00000
0.73125 0.00000 0.00000
0.75938 0.00000 0.00000
0.78750 0.00000 0.00000
0.81563 0.00000 0.00000
0.84375 0.00000 0.00000
0.87188 0.00000 0.00000
0.90000 0.00000 0.00000
0.00000 0.03031 0.00000
0.02813 0.03031 0.00000
0.05625 0.03031 0.00000
0.08438 0.03031 0.00000
0.11250 0.03031 0.00000
0.14062 0.03031 0.00000
0.16875 0.03031 0.00000
0.19687 0.03031 0.00000
0.22500 0.03031 0.00000
0.25312 0.03031 0.00000
0.28125 0.03031 0.00000
0.30938 0.03031 0.00000
0.33750 0.03031 0.00000
0.36563 0.03031 0.00000
0.39375 0.03031 0.00000
0.42188 0.03031 0.00000
0.45000 0.03031 0.00000
0.47813 0.03031 0.00000
0.50625 0.03031 0.00000
0.53438 0.03031 0.00000
0.56250 0.03031 0.00000
0.59063 0.03031 0.00000
0.61875 0.03031 0.00000
0.64687 0.03031 0.00000
0.67500 0.03031 0.00000
0.70312 0.03031 0.00000
0.73125 0.03031 0.00000
0.75938 0.03031 0.00000
0.78750 0.03031 0.00000
0.81563 0.03031 0.00000
0.84375 0.03031 0.00000
0.87188 0.03031 0.00000
0.90000 0.03031 0.00000
0.00000 0.06062 0.00000
0.02813 0.06062 0.00000
0.05625 0.06062 0.00000
0.08438 0.06062 0.00000
0.11250 0.06062 0.00000
0.14062 0.06062 0.00000
0.16875 0.06062 0.00000
0.19687 0.06062 0.00000
0.22500 0.06062 0.00000
0.25312 0.06062 0.00000
0.28125 0.06062 0.00000
0.30938 0.06062 0.00000
0.33750 0.06062 0.00000
0.36563 0.06062 0.00000
0.39375 0.06062 0.00000
0.42188 0.06062 0.00000
0.45000 0.06062 0.00000
0.47813 0.06062 0.00000
0.50625 0.06062 0.00000
0.53438 0.06062 0.00000
0.56250 0.06062 0.00000
0.59063 0.06062 0.00000
0.61875 0.06062 0.00000
0.64687 0.06062 0.00000
0.67500 0.06062 0.00000
0.70312 0.06062 0.00000
0.73125 0.06062 0.00000
0.75938 0.06062 0.00000
0.78750 0.06062 0.00000
0.81563 0.06062 0.00000
0.84375 0.06062 0.00000
0.87188 0.06062 0.00000
0.90000 0.06062 0.00000
0.00000 0.09094 0.00000
0.02813 0.09094 0.00000
0.05625 0.09094 0.00000
0.08438 0.09094 0.00000
0.11250 0.09094 0.00000
0.14062 0.09094 0.00000
0.16875 0.09094 0.00000
0.19687 0.09094 0.00000
0.22500 0.09094 0.00000
0.25312 0.09094 0.00000
0.28125 0.09094 0.00000
0.30938 0.09094 0.00000
0.33750 0.09094 0.00000
0.36563 0.09094 0.00000
0.39375 0.09094 0.00000
0.42188 0.09094 0.00000
0.45000 0.09094 0.00000
0.47813 0.09094 0.00000
0.50625 0.09094 0.00000
0.53438 0.09094 0.00000
0.56250 0.09094 0.00000
0.59063 0.09094 0.00000
0.61875 0.09094 0.00000
0.64687 0.09094 0.00000
0.67500 0.09094 0.00000
0.70312 0.09094 0.00000
0.73125 0.09094 0.00000
0.75938 0.09094 0.00000
0.78750 0.09094 0.00000
0.81563 0.09094 0.00000
0.84375 0.09094 0.00000
0.87188 0.09094 0.00000
0.90000 0.09094 0.00000
0.00000 0.12125 0.00000
0.02813 0.12125 0.00000
0.05625 0.12125 0.00000
0.08438 0.12125 0.00000
0.11250 0.12125 0.00000
0.14062 0.12125 0.00000
0.16875 0.12125 0.00000
0.19687 0.12125 0.00000
0.22500 0.12125 0.00000
0.25312 0.12125 0.00000
0.28125 0.12125 0.00000
0.30938 0.12125 0.00000
0.33750 0.12125 0.00000
0.36563 0.12125 0.00000
0.39375 0.12125 0.00000
0.42188 0.12125 0.00000
0.45000 0.12125 0.00000
0.47813 0.12125 0.00000
0.50625 0.12125 0.00000
0.53438 0.12125 0.00000
0.56250 0.12125 0.00000
0.59063 0.12125 0.00000
0.61875 0.12125 0.00000
0.64687 0.12125 0.00000
0.67500 0.12125 0.00000
0.70312 0.12125 0.00000
0.73125 0.12125 0.00000
0.75938 0.12125 0.00000
0.78750 0.12125 0.00000
0.81563 0.12125 0.00000
0.84375 0.12125 0.00000
0.87188 0.12125 0.00000
0.90000 0.12125 0.00000
0.00000 0.15156 0.00000
0.02813 0.15156 0.00000
0.05625 0.15156 0.00000
0.08438 0.15156 0.00000
0.11250 0.15156 0.00000
0.14062 0.15156 0.00000
0.16875 0.15156 0.00000
0.19687 0.15156 0.00000
0.22500 0.15156 0.00000
0.25312 0.15156 0.00000
0.28125 0.15156 0.00000
0.30938 0.15156 0.00000
0.33750 0.15156 0.00000
0.36563 0.15156 0.00000
0.39375 0.15156 0.00000
0.42188 0.15156 0.00000
0.45000 0.15156 0.00000
0.47813 0.15156 0.00000
0.50625 0.15156 0.00000
0.53438 0.15156 0.00000
0.56250 0.15156 0.00000
0.59063 0.15156 0.00000
0.61875 0.15156 0.00000
0.64687 0.15156 0.00000
0.67500 0.15156 0.00000
0.70312 0.15156 0.00000
0.73125 0.15156 0.00000
0.75938 0.15156 0.00000
0.78750 0.15156 0.00000
0.81563 0.15156 0.00000
0.84375 0.15156 0.00000
0.87188 0.15156 0.00000
0.90000 0.15156 0.00000
0.00000 0.18188 0.00000
0.02813 0.18188 0.00000
0.05625 0.18188 0.00000
0.08438 0.18188 0.00000
0.11250 0.18188 0.00000
0.14062 0.18188 0.00000
0.16875 0.18188 0.00000
0.19687 0.18188 0.00000
0.22500 0.18188 0.00000
0.25312 0.18188 0.00000
0.28125 0.18188 0.00000
0.30938 0.18188 0.00000
0.33750 0.18188 0.00000
0.36563 0.18188 0.00000
0.39375 0.18188 0.00000
0.42188 0.18188 0.00000
0.45000 0.18188 0.00000
0.47813 0.18188 0.00000
0.50625 0.18188 0.00000
0.53438 0.18188 0.00000
0.56250 0.18188 0.00000
0.59063 0.18188 0.00000
0.61875 0.18188 0.00000
0.64687 0.18188 0.00000
0.67500 0.18188 0.00000
0.70312 0.18188 0.00000
0.73125 0.18188 0.00000
0.75938 0.18188 0.00000
0.78750 0.18188 0.00000
0.81563 0.18188 0.00000
0.84375 0.18188 0.00000
0.87188 0.18188 0.00000
0.90000 0.18188 0.00000
0.00000 0.21219 0.00000
0.02813 0.21219 0.00000
0.05625 0.21219 0.00000
0.08438 0.21219 0.00000
0.11250 0.21219 0.00000
0.14062 0.21219 0.00000
0.16875 0.21219 0.00000
0.19687 0.21219 0.00000
0.22500 0.21219 0.00000
0.25312 0.21219 0.00000
0.28125 0.21219 0.00000
0.30938 0.21219 0.00000
0.33750 0.21219 0.00000
0.36563 0.21219 0.00000
0.39375 0.21219 0.00000
0.42188 0.21219 0.00000
0.45000 0.21219 0.00000
0.47813 0.21219 0.00000
0.50625 0.21219 0.00000
0.53438 0.21219 0.00000
0.56250 0.21219 0.00000
0.59063 0.21219 0.00000
0.61875 0.21219 0.00000
0.64687 0.21219 0.00000
0.67500 0.21219 0.00000
0.70312 0.21219 0.00000
0.73125 0.21219 0.00000
0.75938 0.21219 0.00000
0.78750 0.21219 0.00000
0.81563 0.21219 0.00000
0.84375 0.21219 0.00000
0.87188 0.21219 0.00000
0.90000 0.21219 0.00000
0.00000 0.24250 0.00000
0.02813 0.24250 0.00000
0.05625 0.24250 0.00000
0.08438 0.24250 0.00000
0.11250 0.24250 0.00000
0.14062 0.24250 0.00000
0.16875 0.24250 0.00000
0.19687 0.24250 0.00000
0.22500 0.24250 0.00000
0.25312 0.24250 0.00000
0.28125 0.24250 0.00000
0.30938 0.24250 0.00000
0.33750 0.24250 0.00000
0.36563 0.24250 0.00000
0.39375 0.24250 0.00000
0.42188 0.24250 0.00000
0.45000 0.24250 0.00000
0.47813 0.24250 0.00000
0.50625 0.24250 0.00000
0.53438 0.24250 0.00000
0.56250 0.24250 0.00000
0.59063 0.24250 0.00000
0.61875 0.24250 0.00000
0.64687 0.24250 0.00000
0.67500 0.24250 0.00000
0.70312 0.24250 0.00000
0.73125 0.24250 0.00000
0.75938 0.24250 0.00000
0.78750 0.24250 0.00000
0.81563 0.24250 0.00000
0.84375 0.24250 0.00000
0.87188 0.24250 0.00000
0.90000 0.24250 0.00000
0.00000 0.27281 0.00000
0.02813 0.27281 0.00000
0.05625 0.27281 0.00000
0.08438 0.27281 0.00000
0.11250 0.27281 0.00000
0.14062 0.27281 0.00000
0.16875 0.27281 0.00000
0.19687 0.27281 0.00000
0.22500 0.27281 0.00000
0.25312 0.27281 0.00000
0.28125 0.27281 0.00000
0.30938 0.27281 0.00000
0.33750 0.27281 0.00000
0.36563 0.27281 0.00000
0.39375 0.27281 0.00000
0.42188 0.27281 0.00000
0.45000 0.27281 0.00000
0.47813 0.27281 0.00000
0.50625 0.27281 0.00000
0.53438 0.27281 0.00000
0.56250 0.27281 0.00000
0.59063 0.27281 0.00000
0.61875 0.27281 0.00000
0.64687 0.27281 0.00000
0.67500 0.27281 0.00000
0.70312 0.27281 0.00000
0.73125 0.27281 0.00000
0.75938 0.27281 0.00000
0.78750 0.27281 0.00000
0.81563 0.27281 0.00000
0.84375 0.27281 0.00000
0.87188 0.27281 0.00000
0.90000 0.27281 0.00000
0.00000 0.30312 0.00000
0.02813 0.30312 0.00000
0.05625 0.30312 0.00000
0.08438 0.30312 0.00000
0.11250 0.30312 0.00000
0.14062 0.30312 0.00000
0.16875 0.30312 0.00000
0.19687 0.30312 0.00000
0.22500 0.30312 0.00000
0.25312 0.30312 0.00000
0.28125 0.30312 0.00000
0.30938 0.30312 0.00000
0.33750 0.30312 0.00000
0.36563 0.30312 0.00000
0.39375 0.30312 0.00000
0.42188 0.30312 0.00000
0.45000 0.30312 0.00000
0.47813 0.30312 0.00000
0.50625 0.30312 0.00000
0.53438 0.30312 0.00000
0.56250 0.30312 0.00000
0.59063 0.30312 0.00000
0.61875 0.30312 0.00000
0.64687 0.30312 0.00000
0.67500 0.30312 0.00000
0.70312 0.30312 0.00000
0.73125 0.30312 0.00000
0.75938 0.30312 0.00000
0.78750 0.30312 0.00000
0.81563 0.30312 0.00000
0.84375 0.30312 0.00000
0.87188 0.30312 0.00000
0.90000 0.30312 0.00000
0.00000 0.33344 0.00000
0.02813 0.33344 0.00000
0.05625 0.33344 0.00000
0.08438 0.33344 0.00000
0.11250 0.33344 0.00000
0.14062 0.33344 0.00000
0.16875 0.33344 0.00000
0.19687 0.33344 0.00000
0.22500 0.33344 0.00000
0.25312 0.33344 0.00000
0.28125 0.33344 0.00000
0.30938 0.33344 0.00000
0.33750 0.33344 0.00000
0.36563 0.33344 0.00000
0.39375 0.33344 0.00000
0.42188 0.33344 0.00000
0.45000 0.33344 0.00000
0.47813 0.33344 0.00000
0.50625 0.33344 0.00000
0.53438 0.33344 0.00000
0.56250 0.33344 0.00000
0.59063 0.33344 0.00000
0.61875 0.33344 0.00000
0.64687 0.33344 0.00000
0.67500 0.33344 0.00000
0.70312 0.33344 0.00000
0.73125 0.33344 0.00000
0.75938 0.33344 0.00000
0.78750 0.33344 0.00000
0.81563 0.33344 0.00000
0.84375 0.33344 0.00000
0.87188 0.33344 0.00000
0.90000 0.33344 0.00000
0.00000 0.36375 0.00000
0.02813 0.36375 0.00000
0.05625 0.36375 0.00000
0.08438 0.36375 0.00000
0.11250 0.36375 0.00000
0.14062 0.36375 0.00000
0.16875 0.36375 0.00000
0.19687 0.36375 0.00000
0.22500 0.36375 0.00000
0.25312 0.36375 0.00000
0.28125 0.36375 0.00000
0.30938 0.36375 0.00000
0.33750 0.36375 0.00000
0.36563 0.36375 0.00000
0.39375 0.36375 0.00000
0.42188 0.36375 0.00000
0.45000 0.36375 0.00000
0.47813 0.36375 0.00000
0.50625 0.36375 0.00000
0.53438 0.36375 0.00000
0.56250 0.36375 0.00000
0.59063 0.36375 0.00000
0.61875 0.36375 0.00000
0.64687 0.36375 0.00000
0.67500 0.36375 0.00000
0.70312 0.36375 0.00000
0.73125 0.36375 0.00000
0.75938 0.36375 0.00000
0.78750 0.36375 0.00000
0.81563 0.36375 0.00000
0.84375 0.36375 0.00000
0.87188 0.36375 0.00000
0.90000 0.36375 0.00000
0.00000 0.39406 0.00000
0.02813 0.39406 0.00000
0.05625 0.39406 0.00000
0.08438 0.39406 0.00000
0.11250 0.39406 0.00000
0.14062 0.39406 0.00000
0.16875 0.39406 0.00000
0.19687 0.39406 0.00000
0.22500 0.39406 0.00000
0.25312 0.39406 0.00000
0.28125 0.39406 0.00000
0.30938 0.39406 0.00000
0.33750 0.39406 0.00000
0.36563 0.39406 0.00000
0.39375 0.39406 0.00000
0.42188 0.39406 0.00000
0.45000 0.39406 0.00000
0.47813 0.39406 0.00000
0.50625 0.39406 0.00000
0.53438 0.39406 0.00000
0.56250 0.39406 0.00000
0.59063 0.39406 0.00000
0.61875 0.39406 0.00000
0.64687 0.39406 0.00000
0.67500 0.39406 0.00000
0.70312 0.39406 0.00000
0.73125 0.39406 0.00000
0.75938 0.39406 0.00000
0.78750 0.39406 0.00000
0.81563 0.39406 0.00000
0.84375 0.39406 0.00000
0.87188 0.39406 0.00000
0.90000 0.39406 0.00000
0.00000 0.42438 0.00000
0.02813 0.42438 0.00000
0.05625 0.42438 0.00000
0.08438 0.42438 0.00000
0.11250 0.42438 0.00000
0.14062 0.42438 0.00000
0.16875 0.42438 0.00000
0.19687 0.42438 0.00000
0.22500 0.42438 0.00000
0.25312 0.42438 0.00000
0.28125 0.42438 0.00000
0.30938 0.42438 0.00000
0.33750 0.42438 0.00000
0.36563 0.42438 0.00000
0.39375 0.42438 0.00000
0.42188 0.42438 0.00000
0.45000 0.42438 0.00000
0.47813 0.42438 0.00000
0.50625 0.42438 0.00000
0.53438 0.42438 0.00000
0.56250 0.42438 0.00000
0.59063 0.42438 0.00000
0.61875 0.42438 0.00000
0.64687 0.42438 0.00000
0.67500 0.42438 0.00000
0.70312 0.42438 0.00000
0.73125 0.42438 0.00000
0.75938 0.42438 0.00000
0.78750 0.42438 0.00000
0.81563 0.42438 0.00000
0.84375 0.42438 0.00000
0.87188 0.42438 0.00000
0.90000 0.42438 0.00000
0.00000 0.45469 0.00000
0.02813 0.45469 0.00000
0.05625 0.45469 0.00000
0.08438 0.45469 0.00000
0.11250 0.45469 0.00000
0.14062 0.45469 0.00000
0.16875 0.45469 0.00000
0.19687 0.45469 0.00000
0.22500 0.45469 0.00000
0.25312 0.45469 0.00000
0.28125 0.45469 0.00000
0.30938 0.45469 0.00000
0.33750 0.45469 0.00000
0.36563 0.45469 0.00000
0.39375 0.45469 0.00000
0.42188 0.45469 0.00000
0.45000 0.45469 0.00000
0.47813 0.45469 0.00000
0.50625 0.45469 0.00000
0.53438 0.45469 0.00000
0.56250 0.45469 0.00000
0.59063 0.45469 0.00000
0.61875 0.45469 0.00000
0.64687 0.45469 0.00000
0.67500 0.45469 0.00000
0.70312 0.45469 0.00000
0.73125 0.45469 0.00000
0.75938 0.45469 0.00000
0.78750 0.45469 0.00000
0.81563 0.45469 0.00000
0.84375 0.45469 0.00000
0.87188 0.45469 0.00000
0.90000 0.45469 0.00000
0.00000 0.48500 0.00000
0.02813 0.48500 0.00000
0.05625 0.48500 0.00000
0.08438 0.48500 0.00000
0.11250 0.48500 0.00000
0.14062 0.48500 0.00000
0.16875 0.48500 0.00000
0.19687 0.48500 0.00000
0.22500 0.48500 0.00000
0.25312 0.48500 0.00000
0.28125 0.48500 0.00000
0.30938 0.48500 0.00000
0.33750 0.48500 0.00000
0.36563 0.48500 0.00000
0.39375 0.48500 0.00000
0.42188 0.48500 0.00000
0.45000 0.48500 0.00000
0.47813 0.48500 0.00000
0.50625 0.48500 0.00000
0.53438 0.48500 0.00000
0.56250 0.48500 0.00000
0.59063 0.48500 0.00000
0.61875 0.48500 0.00000
0.64687 0.48500 0.00000
0.67500 0.48500 0.00000
0.70312 0.48500 0.00000
0.73125 0.48500 0.00000
0.75938 0.48500 0.00000
0.78750 0.48500 0.00000
0.81563 0.48500 0.00000
0.84375 0.48500 0.00000
0.87188 0.48500 0.00000
0.90000 0.48500 0.00000
0.00000 0.51531 0.00000
0.02813 0.51531 0.00000
0.05625 0.51531 0.00000
0.08438 0.51531 0.00000
0.11250 0.51531 0.00000
0.14062 0.51531 0.00000
0.16875 0.51531 0.00000
0.19687 0.51531 0.00000
0.22500 0.51531 0.00000
0.25312 0.51531 0.00000
0.28125 0.51531 0.00000
0.30938 0.51531 0.00000
0.33750 0.51531 0.00000
0.36563 0.51531 0.00000
0.39375 0.51531 0.00000
0.42188 0.51531 0.00000
0.45000 0.51531 0.00000
0.47813 0.51531 0.00000
0.50625 0.51531 0.00000
0.53438 0.51531 0.00000
0.56250 0.51531 0.00000
0.59063 0.51531 0.00000
0.61875 0.51531 0.00000
0.64687 0.51531 0.00000
0.67500 0.51531 0.00000
0.70312 0.51531 0.00000
0.73125 0.51531 0.00000
0.75938 0.51531 0.00000
0.78750 0.51531 0.00000
0.81563 0.51531 0.00000
0.84375 0.51531 0.00000
0.87188 0.51531 0.00000
0.90000 0.51531 0.00000
0.00000 0.54563 0.00000
0.02813 0.54563 0.00000
0.05625 0.54563 0.00000
0.08438 0.54563 0.00000
0.11250 0.54563 0.00000
0.14062 0.54563 0.00000
0.16875 0.54563 0.00000
0.19687 0.54563 0.00000
0.22500 0.54563 0.00000
0.25312 0.54563 0.00000
0.28125 0.54563 0.00000
0.30938 0.54563 0.00000
0.33750 0.54563 0.00000
0.36563 0.54563 0.00000
0.39375 0.54563 0.00000
0.42188 0.54563 0.00000
0.45000 0.54563 0.00000
0.47813 0.54563 0.00000
0.50625 0.54563 0.00000
0.53438 0.54563 0.00000
0.56250 0.54563 0.00000
0.59063 0.54563 0.00000
0.61875 0.54563 0.00000
0.64687 0.54563 0.00000
0.67500 0.54563 0.00000
0.70312 0.54563 0.00000
0.73125 0.54563 0.00000
0.75938 0.54563 0.00000
0.78750 0.54563 0.00000
0.81563 0.54563 0.00000
0.84375 0.54563 0.00000
0.87188 0.54563 0.00000
0.90000 0.54563 0.00000
0.00000 0.57594 0.00000
0.02813 0.57594 0.00000
0.05625 0.57594 0.00000
0.08438 0.57594 0.00000
0.11250 0.57594 0.00000
0.14062 0.57594 0.00000
0.16875 0.57594 0.00000
0.19687 0.57594 0.00000
0.22500 0.57594 0.00000
0.25312 0.57594 0.00000
0.28125 0.57594 0.00000
0.30938 0.57594 0.00000
0.33750 0.57594 0.00000
0.36563 0.57594 0.00000
0.39375 0.57594 0.00000
0.42188 0.57594 0.00000
0.45000 0.57594 0.00000
0.47813 0.57594 0.00000
0.50625 0.57594 0.00000
0.53438 0.57594 0.00000
0.56250 0.57594 0.00000
0.59063 0.57594 0.00000
0.61875 0.57594 0.00000
0.64687 0.57594 0.00000
0.67500 0.57594 0.00000
0.70312 0.57594 0.00000
0.73125 0.57594 0.00000
0.75938 0.57594 0.00000
0.78750 0.57594 0.00000
0.81563 0.57594 0.00000
0.84375 0.57594 0.00000
0.87188 0.57594 0.00000
0.90000 0.57594 0.00000
0.00000 0.60625 0.00000
0.02813 0.60625 0.00000
0.05625 0.60625 0.00000
0.08438 0.60625 0.00000
0.11250 0.60625 0.00000
0.14062 0.60625 0.00000
0.16875 0.60625 0.00000
0.19687 0.60625 0.00000
0.22500 0.60625 0.00000
0.25312 0.60625 0.00000
0.28125 0.60625 0.00000
0.30938 0.60625 0.00000
0.33750 0.60625 0.00000
0.36563 0.60625 0.00000
0.39375 0.60625 0.00000
0.42188 0.60625 0.00000
0.45000 0.60625 0.00000
0.47813 0.60625 0.00000
0.50625 0.60625 0.00000
0.53438 0.60625 0.00000
0.56250 0.60625 0.00000
0.59063 0.60625 0.00000
0.61875 0.60625 0.00000
0.64687 0.60625 0.00000
0.67500 0.60625 0.00000
0.70312 0.60625 0.00000
0.73125 0.60625 0.00000
0.75938 0.60625 0.00000
0.78750 0.60625 0.00000
0.81563 0.60625 0.00000
0.84375 0.60625 0.00000
0.87188 0.60625 0.00000
0.90000 0.60625 0.00000
0.00000 0.63656 0.00000
0.02813 0.63656 0.00000
0.05625 0.63656 0.00000
0.08438 0.63656 0.00000
0.11250 0.63656 0.00000
0.14062 0.63656 0.00000
0.16875 0.63656 0.00000
0.19687 0.63656 0.00000
0.22500 0.63656 0.00000
0.25312 0.63656 0.00000
0.28125 0.63656 0.00000
0.30938 0.63656 0.00000
0.33750 0.63656 0.00000
0.36563 0.63656 0.00000
0.39375 0.63656 0.00000
0.42188 0.63656 0.00000
0.45000 0.63656 0.00000
0.47813 0.63656 0.00000
0.50625 0.63656 0.00000
0.53438 0.63656 0.00000
0.56250 0.63656 0.00000
0.59063 0.63656 0.00000
0.61875 0.63656 0.00000
0.64687 0.63656 0.00000
0.67500 0.63656 0.00000
0.70312 0.63656 0.00000
0.73125 0.63656 0.00000
0.75938 0.63656 0.00000
0.78750 0.63656 0.00000
0.81563 0.63656 0.00000
0.84375 0.63656 0.00000
0.87188 0.63656 0.00000
0.90000 0.63656 0.00000
0.00000 0.66687 0.00000
0.02813 0.66687 0.00000
0.05625 0.66687 0.00000
0.08438 0.66687 0.00000
0.11250 0.66687 0.00000
0.14062 0.66687 0.00000
0.16875 0.66687 0.00000
0.19687 0.66687 0.00000
0.22500 0.66687 0.00000
0.25312 0.66687 0.00000
0.28125 0.66687 0.00000
0.30938 0.66687 0.00000
0.33750 0.66687 0.00000
0.36563 0.66687 0.00000
0.39375 0.66687 0.00000
0.42188 0.66687 0.00000
0.45000 0.66687 0.00000
0.47813 0.66687 0.00000
0.50625 0.66687 0.00000
0.53438 0.66687 0.00000
0.56250 0.66687 0.00000
0.59063 0.66687 0.00000
0.61875 0.66687 0.00000
0.64687 0.66687 0.00000
0.67500 0.66687 0.00000
0.70312 0.66687 0.00000
0.73125 0.66687 0.00000
0.75938 0.66687 0.00000
0.78750 0.66687 0.00000
0.81563 0.66687 0.00000
0.84375 0.66687 0.00000
0.87188 0.66687 0.00000
0.90000 0.66687 0.00000
0.00000 0.69719 0.00000
0.02813 0.69719 0.00000
0.05625 0.69719 0.00000
0.08438 0.69719 0.00000
0.11250 0.69719 0.00000
0.14062 0.69719 0.00000
0.16875 0.69719 0.00000
0.19687 0.69719 0.00000
0.22500 0.69719 0.00000
0.25312 0.69719 0.00000
0.28125 0.69719 0.00000
0.30938 0.69719 0.00000
0.33750 0.69719 0.00000
0.36563 0.69719 0.00000
0.39375 0.69719 0.00000
0.42188 0.69719 0.00000
0.45000 0.69719 0.00000
0.47813 0.69719 0.00000
0.50625 0.69719 0.00000
0.53438 0.69719 0.00000
0.56250 0.69719 0.00000
0.59063 0.69719 0.00000
0.61875 0.69719 0.00000
0.64687 0.69719 0.00000
0.67500 0.69719 0.00000
0.70312 0.69719 0.00000
0.73125 0.69719 0.00000
0.75938 0.69719 0.00000
0.78750 0.69719 0.00000
0.81563 0.69719 0.00000
0.84375 0.69719 0.00000
0.87188 0.69719 0.00000
0.90000 0.69719 0.00000
0.00000 0.72750 0.00000
0.02813 0.72750 0.00000
0.05625 0.72750 0.00000
0.08438 0.72750 0.00000
0.11250 0.72750 0.00000
0.14062 0.72750 0.00000
0.16875 0.72750 0.00000
0.19687 0.72750 0.00000
0.22500 0.72750 0.00000
0.25312 0.72750 0.00000
0.28125 0.72750 0.00000
0.30938 0.72750 0.00000
0.33750 0.72750 0.00000
0.36563 0.72750 0.00000
0.39375 0.72750 0.00000
0.42188 0.72750 0.00000
0.45000 0.72750 0.00000
0.47813 0.72750 0.00000
0.50625 0.72750 0.00000
0.53438 0.72750 0.00000
0.56250 0.72750 0.00000
0.59063 0.72750 0.00000
0.61875 0.72750 0.00000
0.64687 0.72750 0.00000
0.67500 0.72750 0.00000
0.70312 0.72750 0.00000
0.73125 0.72750 0.00000
0.75938 0.72750 0.00000
0.78750 0.72750 0.00000
0.81563 0.72750 0.00000
0.84375 0.72750 0.00000
0.87188 0.72750 0.00000
0.90000 0.72750 0.00000
0.00000 0.75781 0.00000
0.02813 0.75781 0.00000
0.05625 0.75781 0.00000
0.08438 0.75781 0.00000
0.11250 0.75781 0.00000
0.14062 0.75781 0.00000
0.16875 0.75781 0.00000
0.19687 0.75781 0.00000
0.22500 0.75781 0.00000
0.25312 0.75781 0.00000
0.28125 0.75781 0.00000
0.30938 0.75781 0.00000
0.33750 0.75781 0.00000
0.36563 0.75781 0.00000
0.39375 0.75781 0.00000
0.42188 0.75781 0.00000
0.45000 0.75781 0.00000
0.47813 0.75781 0.00000
0.50625 0.75781 0.00000
0.53438 0.75781 0.00000
0.56250 0.75781 0.00000
0.59063 0.75781 0.00000
0.61875 0.75781 0.00000
0.64687 0.75781 0.00000
0.67500 0.75781 0.00000
0.70312 0.75781 0.00000
0.73125 0.75781 0.00000
0.75938 0.75781 0.00000
0.78750 0.75781 0.00000
0.81563 0.75781 0.00000
0.84375 0.75781 0.00000
0.87188 0.75781 0.00000
0.90000 0.75781 0.00000
0.00000 0.78812 0.00000
0.02813 0.78812 0.00000
0.05625 0.78812 0.00000
0.08438 0.78812 0.00000
0.11250 0.78812 0.00000
0.14062 0.78812 0.00000
0.16875 0.78812 0.00000
0.19687 0.78812 0.00000
0.22500 0.78812 0.00000
0.25312 0.78812 0.00000
0.28125 0.78812 0.00000
0.30938 0.78812 0.00000
0.33750 0.78812 0.00000
0.36563 0.78812 0.00000
0.39375 0.78812 0.00000
0.42188 0.78812 0.00000
0.45000 0.78812 0.00000
0.47813 0.78812 0.00000
0.50625 0.78812 0.00000
0.53438 0.78812 0.00000
0.56250 0.78812 0.00000
0.59063 0.78812 0.00000
0.61875 0.78812 0.00000
0.64687 0.78812 0.00000
0.67500 0.78812 0.00000
0.70312 0.78812 0.00000
0.73125 0.78812 0.00000
0.75938 0.78812 0.00000
0.78750 0.78812 0.00000
0.81563 0.78812 0.00000
0.84375 0.78812 0.00000
0.87188 0.78812 0.00000
0.90000 0.78812 0.00000
0.00000 0.81844 0.00000
0.02813 0.81844 0.00000
0.05625 0.81844 0.00000
0.08438 0.81844 0.00000
0.11250 0.81844 0.00000
0.14062 0.81844 0.00000
0.16875 0.81844 0.00000
0.19687 0.81844 0.00000
0.22500 0.81844 0.00000
