assets/lut/Cool-Icy.cube
LUT_3D_SIZE 5
DOMAIN_MIN 0.0 0.0 0.0
DOMAIN_MAX 1.0 1.0 1.0
0.00000 0.00000 0.00000
0.22500 0.00000 0.00000
0.45000 0.00000 0.00000
0.67500 0.00000 0.00000
0.90000 0.00000 0.00000
0.00000 0.24250 0.00000
0.22500 0.24250 0.00000
0.45000 0.24250 0.00000
0.67500 0.24250 0.00000
0.90000 0.24250 0.00000
0.00000 0.48500 0.00000
0.22500 0.48500 0.00000
0.45000 0.48500 0.00000
0.67500 0.48500 0.00000
0.90000 0.48500 0.00000
0.00000 0.72750 0.00000
0.22500 0.72750 0.00000
0.45000 0.72750 0.00000
0.67500 0.72750 0.00000
0.90000 0.72750 0.00000
0.00000 0.97000 0.00000
0.22500 0.97000 0.00000
0.45000 0.97000 0.00000
0.67500 0.97000 0.00000
0.90000 0.97000 0.00000
0.00000 0.00000 0.27000
0.22500 0.00000 0.27000
0.45000 0.00000 0.27000
0.67500 0.00000 0.27000
0.90000 0.00000 0.27000
0.00000 0.24250 0.27000
0.22500 0.24250 0.27000
0.45000 0.24250 0.27000
0.67500 0.24250 0.27000
0.90000 0.24250 0.27000
0.00000 0.48500 0.27000
0.22500 0.48500 0.27000
0.45000 0.48500 0.27000
0.67500 0.48500 0.27000
0.90000 0.48500 0.27000
0.00000 0.72750 0.27000
0.22500 0.72750 0.27000
0.45000 0.72750 0.27000
0.67500 0.72750 0.27000
0.90000 0.72750 0.27000
0.00000 0.97000 0.27000
0.22500 0.97000 0.27000
0.45000 0.97000 0.27000
0.67500 0.97000 0.27000
0.90000 0.97000 0.27000
0.00000 0.00000 0.54000
0.22500 0.00000 0.54000
0.45000 0.00000 0.54000
0.67500 0.00000 0.54000
0.90000 0.00000 0.54000
0.00000 0.24250 0.54000
0.22500 0.24250 0.54000
0.45000 0.24250 0.54000
0.67500 0.24250 0.54000
0.90000 0.24250 0.54000
0.00000 0.48500 0.54000
0.22500 0.48500 0.54000
0.45000 0.48500 0.54000
0.67500 0.48500 0.54000
0.90000 0.48500 0.54000
0.00000 0.72750 0.54000
0.22500 0.72750 0.54000
0.45000 0.72750 0.54000
0.67500 0.72750 0.54000
0.90000 0.72750 0.54000
0.00000 0.97000 0.54000
0.22500 0.97000 0.54000
0.45000 0.97000 0.54000
0.67500 0.97000 0.54000
0.90000 0.97000 0.54000
0.00000 0.00000 0.81000
0.22500 0.00000 0.81000
0.45000 0.00000 0.81000
0.67500 0.00000 0.81000
0.90000 0.00000 0.81000
0.00000 0.24250 0.81000
0.22500 0.24250 0.81000
0.45000 0.24250 0.81000
0.67500 0.24250 0.81000
0.90000 0.24250 0.81000
0.00000 0.48500 0.81000
0.22500 0.48500 0.81000
0.45000 0.48500 0.81000
0.67500 0.48500 0.81000
0.90000 0.48500 0.81000
0.00000 0.72750 0.81000
0.22500 0.72750 0.81000
0.45000 0.72750 0.81000
0.67500 0.72750 0.81000
0.90000 0.72750 0.81000
0.00000 0.97000 0.81000
0.22500 0.97000 0.81000
0.45000 0.97000 0.81000
0.67500 0.97000 0.81000
0.90000 0.97000 0.81000
0.00000 0.00000 1.00000
0.22500 0.00000 1.00000
0.45000 0.00000 1.00000
0.67500 0.00000 1.00000
0.90000 0.00000 1.00000
0.00000 0.24250 1.00000
0.22500 0.24250 1.00000
0.45000 0.24250 1.00000
0.67500 0.24250 1.00000
0.90000 0.24250 1.00000
0.00000 0.48500 1.00000
0.22500 0.48500 1.00000
0.45000 0.48500 1.00000
0.67500 0.48500 1.00000
0.90000 0.48500 1.00000
0.00000 0.72750 1.00000
0.22500 0.72750 1.00000
0.45000 0.72750 1.00000
0.67500 0.72750 1.00000
0.90000 0.72750 1.00000
0.00000 0.97000 1.00000
0.22500 0.97000 1.00000
0.45000 0.97000 1.00000
0.67500 0.97000 1.00000
0.90000 0.97000 1.00000
