assets/lut/Cool-Icy.cube
LUT_3D_SIZE 9
DOMAIN_MIN 0.0 0.0 0.0
DOMAIN_MAX 1.0 1.0 1.0
0.00000 0.00000 0.00000
0.11250 0.00000 0.00000
0.22500 0.00000 0.00000
0.33750 0.00000 0.00000
0.45000 0.00000 0.00000
0.56250 0.00000 0.00000
0.67500 0.00000 0.00000
0.78750 0.00000 0.00000
0.90000 0.00000 0.00000
0.00000 0.12125 0.00000
0.11250 0.12125 0.00000
0.22500 0.12125 0.00000
0.33750 0.12125 0.00000
0.45000 0.12125 0.00000
0.56250 0.12125 0.00000
0.67500 0.12125 0.00000
0.78750 0.12125 0.00000
0.90000 0.12125 0.00000
0.00000 0.24250 0.00000
0.11250 0.24250 0.00000
0.22500 0.24250 0.00000
0.33750 0.24250 0.00000
0.45000 0.24250 0.00000
0.56250 0.24250 0.00000
0.67500 0.24250 0.00000
0.78750 0.24250 0.00000
0.90000 0.24250 0.00000
0.00000 0.36375 0.00000
0.11250 0.36375 0.00000
0.22500 0.36375 0.00000
0.33750 0.36375 0.00000
0.45000 0.36375 0.00000
0.56250 0.36375 0.00000
0.67500 0.36375 0.00000
0.78750 0.36375 0.00000
0.90000 0.36375 0.00000
0.00000 0.48500 0.00000
0.11250 0.48500 0.00000
0.22500 0.48500 0.00000
0.33750 0.48500 0.00000
0.45000 0.48500 0.00000
0.56250 0.48500 0.00000
0.67500 0.48500 0.00000
0.78750 0.48500 0.00000
0.90000 0.48500 0.00000
0.00000 0.60625 0.00000
0.11250 0.60625 0.00000
0.22500 0.60625 0.00000
0.33750 0.60625 0.00000
0.45000 0.60625 0.00000
0.56250 0.60625 0.00000
0.67500 0.60625 0.00000
0.78750 0.60625 0.00000
0.90000 0.60625 0.00000
0.00000 0.72750 0.00000
0.11250 0.72750 0.00000
0.22500 0.72750 0.00000
0.33750 0.72750 0.00000
0.45000 0.72750 0.00000
0.56250 0.72750 0.00000
0.67500 0.72750 0.00000
0.78750 0.72750 0.00000
0.90000 0.72750 0.00000
0.00000 0.84875 0.00000
0.11250 0.84875 0.00000
0.22500 0.84875 0.00000
0.33750 0.84875 0.00000
0.45000 0.84875 0.00000
0.56250 0.84875 0.00000
0.67500 0.84875 0.00000
0.78750 0.84875 0.00000
0.90000 0.84875 0.00000
0.00000 0.97000 0.00000
0.11250 0.97000 0.00000
0.22500 0.97000 0.00000
0.33750 0.97000 0.00000
0.45000 0.97000 0.00000
0.56250 0.97000 0.00000
0.67500 0.97000 0.00000
0.78750 0.97000 0.00000
0.90000 0.97000 0.00000
0.00000 0.00000 0.13500
0.11250 0.00000 0.13500
0.22500 0.00000 0.13500
0.33750 0.00000 0.13500
0.45000 0.00000 0.13500
0.56250 0.00000 0.13500
0.67500 0.00000 0.13500
0.78750 0.00000 0.13500
0.90000 0.00000 0.13500
0.00000 0.12125 0.13500
0.11250 0.12125 0.13500
0.22500 0.12125 0.13500
0.33750 0.12125 0.13500
0.45000 0.12125 0.13500
0.56250 0.12125 0.13500
0.67500 0.12125 0.13500
0.78750 0.12125 0.13500
0.90000 0.12125 0.13500
0.00000 0.24250 0.13500
0.11250 0.24250 0.13500
0.22500 0.24250 0.13500
0.33750 0.24250 0.13500
0.45000 0.24250 0.13500
0.56250 0.24250 0.13500
0.67500 0.24250 0.13500
0.78750 0.24250 0.13500
0.90000 0.24250 0.13500
0.00000 0.36375 0.13500
0.11250 0.36375 0.13500
0.22500 0.36375 0.13500
0.33750 0.36375 0.13500
0.45000 0.36375 0.13500
0.56250 0.36375 0.13500
0.67500 0.36375 0.13500
0.78750 0.36375 0.13500
0.90000 0.36375 0.13500
0.00000 0.48500 0.13500
0.11250 0.48500 0.13500
0.22500 0.48500 0.13500
0.33750 0.48500 0.13500
0.45000 0.48500 0.13500
0.56250 0.48500 0.13500
0.67500 0.48500 0.13500
0.78750 0.48500 0.13500
0.90000 0.48500 0.13500
0.00000 0.60625 0.13500
0.11250 0.60625 0.13500
0.22500 0.60625 0.13500
0.33750 0.60625 0.13500
0.45000 0.60625 0.13500
0.56250 0.60625 0.13500
0.67500 0.60625 0.13500
0.78750 0.60625 0.13500
0.90000 0.60625 0.13500
0.00000 0.72750 0.13500
0.11250 0.72750 0.13500
0.22500 0.72750 0.13500
0.33750 0.72750 0.13500
0.45000 0.72750 0.13500
0.56250 0.72750 0.13500
0.67500 0.72750 0.13500
0.78750 0.72750 0.13500
0.90000 0.72750 0.13500
0.00000 0.84875 0.13500
0.11250 0.84875 0.13500
0.22500 0.84875 0.13500
0.33750 0.84875 0.13500
0.45000 0.84875 0.13500
0.56250 0.84875 0.13500
0.67500 0.84875 0.13500
0.78750 0.84875 0.13500
0.90000 0.84875 0.13500
0.00000 0.97000 0.13500
0.11250 0.97000 0.13500
0.22500 0.97000 0.13500
0.33750 0.97000 0.13500
0.45000 0.97000 0.13500
0.56250 0.97000 0.13500
0.67500 0.97000 0.13500
0.78750 0.97000 0.13500
0.90000 0.97000 0.13500
0.00000 0.00000 0.27000
0.11250 0.00000 0.27000
0.22500 0.00000 0.27000
0.33750 0.00000 0.27000
0.45000 0.00000 0.27000
0.56250 0.00000 0.27000
0.67500 0.00000 0.27000
0.78750 0.00000 0.27000
0.90000 0.00000 0.27000
0.00000 0.12125 0.27000
0.11250 0.12125 0.27000
0.22500 0.12125 0.27000
0.33750 0.12125 0.27000
0.45000 0.12125 0.27000
0.56250 0.12125 0.27000
0.67500 0.12125 0.27000
0.78750 0.12125 0.27000
0.90000 0.12125 0.27000
0.00000 0.24250 0.27000
0.11250 0.24250 0.27000
0.22500 0.24250 0.27000
0.33750 0.24250 0.27000
0.45000 0.24250 0.27000
0.56250 0.24250 0.27000
0.67500 0.24250 0.27000
0.78750 0.24250 0.27000
0.90000 0.24250 0.27000
0.00000 0.36375 0.27000
0.11250 0.36375 0.27000
0.22500 0.36375 0.27000
0.33750 0.36375 0.27000
0.45000 0.36375 0.27000
0.56250 0.36375 0.27000
0.67500 0.36375 0.27000
0.78750 0.36375 0.27000
0.90000 0.36375 0.27000
0.00000 0.48500 0.27000
0.11250 0.48500 0.27000
0.22500 0.48500 0.27000
0.33750 0.48500 0.27000
0.45000 0.48500 0.27000
0.56250 0.48500 0.27000
0.67500 0.48500 0.27000
0.78750 0.48500 0.27000
0.90000 0.48500 0.27000
0.00000 0.60625 0.27000
0.11250 0.60625 0.27000
0.22500 0.60625 0.27000
0.33750 0.60625 0.27000
0.45000 0.60625 0.27000
0.56250 0.60625 0.27000
0.67500 0.60625 0.27000
0.78750 0.60625 0.27000
0.90000 0.60625 0.27000
0.00000 0.72750 0.27000
0.11250 0.72750 0.27000
0.22500 0.72750 0.27000
0.33750 0.72750 0.27000
0.45000 0.72750 0.27000
0.56250 0.72750 0.27000
0.67500 0.72750 0.27000
0.78750 0.72750 0.27000
0.90000 0.72750 0.27000
0.00000 0.84875 0.27000
0.11250 0.84875 0.27000
0.22500 0.84875 0.27000
0.33750 0.84875 0.27000
0.45000 0.84875 0.27000
0.56250 0.84875 0.27000
0.67500 0.84875 0.27000
0.78750 0.84875 0.27000
0.90000 0.84875 0.27000
0.00000 0.97000 0.27000
0.11250 0.97000 0.27000
0.22500 0.97000 0.27000
0.33750 0.97000 0.27000
0.45000 0.97000 0.27000
0.56250 0.97000 0.27000
0.67500 0.97000 0.27000
0.78750 0.97000 0.27000
0.90000 0.97000 0.27000
0.00000 0.00000 0.40500
0.11250 0.00000 0.40500
0.22500 0.00000 0.40500
0.33750 0.00000 0.40500
0.45000 0.00000 0.40500
0.56250 0.00000 0.40500
0.67500 0.00000 0.40500
0.78750 0.00000 0.40500
0.90000 0.00000 0.40500
0.00000 0.12125 0.40500
0.11250 0.12125 0.40500
0.22500 0.12125 0.40500
0.33750 0.12125 0.40500
0.45000 0.12125 0.40500
0.56250 0.12125 0.40500
0.67500 0.12125 0.40500
0.78750 0.12125 0.40500
0.90000 0.12125 0.40500
0.00000 0.24250 0.40500
0.11250 0.24250 0.40500
0.22500 0.24250 0.40500
0.33750 0.24250 0.40500
0.45000 0.24250 0.40500
0.56250 0.24250 0.40500
0.67500 0.24250 0.40500
0.78750 0.24250 0.40500
0.90000 0.24250 0.40500
0.00000 0.36375 0.40500
0.11250 0.36375 0.40500
0.22500 0.36375 0.40500
0.33750 0.36375 0.40500
0.45000 0.36375 0.40500
0.56250 0.36375 0.40500
0.67500 0.36375 0.40500
0.78750 0.36375 0.40500
0.90000 0.36375 0.40500
0.00000 0.48500 0.40500
0.11250 0.48500 0.40500
0.22500 0.48500 0.40500
0.33750 0.48500 0.40500
0.45000 0.48500 0.40500
0.56250 0.48500 0.40500
0.67500 0.48500 0.40500
0.78750 0.48500 0.40500
0.90000 0.48500 0.40500
0.00000 0.60625 0.40500
0.11250 0.60625 0.40500
0.22500 0.60625 0.40500
0.33750 0.60625 0.40500
0.45000 0.60625 0.40500
0.56250 0.60625 0.40500
0.67500 0.60625 0.40500
0.78750 0.60625 0.40500
0.90000 0.60625 0.40500
0.00000 0.72750 0.40500
0.11250 0.72750 0.40500
0.22500 0.72750 0.40500
0.33750 0.72750 0.40500
0.45000 0.72750 0.40500
0.56250 0.72750 0.40500
0.67500 0.72750 0.40500
0.78750 0.72750 0.40500
0.90000 0.72750 0.40500
0.00000 0.84875 0.40500
0.11250 0.84875 0.40500
0.22500 0.84875 0.40500
0.33750 0.84875 0.40500
0.45000 0.84875 0.40500
0.56250 0.84875 0.40500
0.67500 0.84875 0.40500
0.78750 0.84875 0.40500
0.90000 0.84875 0.40500
0.00000 0.97000 0.40500
0.11250 0.97000 0.40500
0.22500 0.97000 0.40500
0.33750 0.97000 0.40500
0.45000 0.97000 0.40500
0.56250 0.97000 0.40500
0.67500 0.97000 0.40500
0.78750 0.97000 0.40500
0.90000 0.97000 0.40500
0.00000 0.00000 0.54000
0.11250 0.00000 0.54000
0.22500 0.00000 0.54000
0.33750 0.00000 0.54000
0.45000 0.00000 0.54000
0.56250 0.00000 0.54000
0.67500 0.00000 0.54000
0.78750 0.00000 0.54000
0.90000 0.00000 0.54000
0.00000 0.12125 0.54000
0.11250 0.12125 0.54000
0.22500 0.12125 0.54000
0.33750 0.12125 0.54000
0.45000 0.12125 0.54000
0.56250 0.12125 0.54000
0.67500 0.12125 0.54000
0.78750 0.12125 0.54000
0.90000 0.12125 0.54000
0.00000 0.24250 0.54000
0.11250 0.24250 0.54000
0.22500 0.24250 0.54000
0.33750 0.24250 0.54000
0.45000 0.24250 0.54000
0.56250 0.24250 0.54000
0.67500 0.24250 0.54000
0.78750 0.24250 0.54000
0.90000 0.24250 0.54000
0.00000 0.36375 0.54000
0.11250 0.36375 0.54000
0.22500 0.36375 0.54000
0.33750 0.36375 0.54000
0.45000 0.36375 0.54000
0.56250 0.36375 0.54000
0.67500 0.36375 0.54000
0.78750 0.36375 0.54000
0.90000 0.36375 0.54000
0.00000 0.48500 0.54000
0.11250 0.48500 0.54000
0.22500 0.48500 0.54000
0.33750 0.48500 0.54000
0.45000 0.48500 0.54000
0.56250 0.48500 0.54000
0.67500 0.48500 0.54000
0.78750 0.48500 0.54000
0.90000 0.48500 0.54000
0.00000 0.60625 0.54000
0.11250 0.60625 0.54000
0.22500 0.60625 0.54000
0.33750 0.60625 0.54000
0.45000 0.60625 0.54000
0.56250 0.60625 0.54000
0.67500 0.60625 0.54000
0.78750 0.60625 0.54000
0.90000 0.60625 0.54000
0.00000 0.72750 0.54000
0.11250 0.72750 0.54000
0.22500 0.72750 0.54000
0.33750 0.72750 0.54000
0.45000 0.72750 0.54000
0.56250 0.72750 0.54000
0.67500 0.72750 0.54000
0.78750 0.72750 0.54000
0.90000 0.72750 0.54000
0.00000 0.84875 0.54000
0.11250 0.84875 0.54000
0.22500 0.84875 0.54000
0.33750 0.84875 0.54000
0.45000 0.84875 0.54000
0.56250 0.84875 0.54000
0.67500 0.84875 0.54000
0.78750 0.84875 0.54000
0.90000 0.84875 0.54000
0.00000 0.97000 0.54000
0.11250 0.97000 0.54000
0.22500 0.97000 0.54000
0.33750 0.97000 0.54000
0.45000 0.97000 0.54000
0.56250 0.97000 0.54000
0.67500 0.97000 0.54000
0.78750 0.97000 0.54000
0.90000 0.97000 0.54000
0.00000 0.00000 0.67500
0.11250 0.00000 0.67500
0.22500 0.00000 0.67500
0.33750 0.00000 0.67500
0.45000 0.00000 0.67500
0.56250 0.00000 0.67500
0.67500 0.00000 0.67500
0.78750 0.00000 0.67500
0.90000 0.00000 0.67500
0.00000 0.12125 0.67500
0.11250 0.12125 0.67500
0.22500 0.12125 0.67500
0.33750 0.12125 0.67500
0.45000 0.12125 0.67500
0.56250 0.12125 0.67500
0.67500 0.12125 0.67500
0.78750 0.12125 0.67500
0.90000 0.12125 0.67500
0.00000 0.24250 0.67500
0.11250 0.24250 0.67500
0.22500 0.24250 0.67500
0.33750 0.24250 0.67500
0.45000 0.24250 0.67500
0.56250 0.24250 0.67500
0.67500 0.24250 0.67500
0.78750 0.24250 0.67500
0.90000 0.24250 0.67500
0.00000 0.36375 0.67500
0.11250 0.36375 0.67500
0.22500 0.36375 0.67500
0.33750 0.36375 0.67500
0.45000 0.36375 0.67500
0.56250 0.36375 0.67500
0.67500 0.36375 0.67500
0.78750 0.36375 0.67500
0.90000 0.36375 0.67500
0.00000 0.48500 0.67500
0.11250 0.48500 0.67500
0.22500 0.48500 0.67500
0.33750 0.48500 0.67500
0.45000 0.48500 0.67500
0.56250 0.48500 0.67500
0.67500 0.48500 0.67500
0.78750 0.48500 0.67500
0.90000 0.48500 0.67500
0.00000 0.60625 0.67500
0.11250 0.60625 0.67500
0.22500 0.60625 0.67500
0.33750 0.60625 0.67500
0.45000 0.60625 0.67500
0.56250 0.60625 0.67500
0.67500 0.60625 0.67500
0.78750 0.60625 0.67500
0.90000 0.60625 0.67500
0.00000 0.72750 0.67500
0.11250 0.72750 0.67500
0.22500 0.72750 0.67500
0.33750 0.72750 0.67500
0.45000 0.72750 0.67500
0.56250 0.72750 0.67500
0.67500 0.72750 0.67500
0.78750 0.72750 0.67500
0.90000 0.72750 0.67500
0.00000 0.84875 0.67500
0.11250 0.84875 0.67500
0.22500 0.84875 0.67500
0.33750 0.84875 0.67500
0.45000 0.84875 0.67500
0.56250 0.84875 0.67500
0.67500 0.84875 0.67500
0.78750 0.84875 0.67500
0.90000 0.84875 0.67500
0.00000 0.97000 0.67500
0.11250 0.97000 0.67500
0.22500 0.97000 0.67500
0.33750 0.97000 0.67500
0.45000 0.97000 0.67500
0.56250 0.97000 0.67500
0.67500 0.97000 0.67500
0.78750 0.97000 0.67500
0.90000 0.97000 0.67500
0.00000 0.00000 0.81000
0.11250 0.00000 0.81000
0.22500 0.00000 0.81000
0.33750 0.00000 0.81000
0.45000 0.00000 0.81000
0.56250 0.00000 0.81000
0.67500 0.00000 0.81000
0.78750 0.00000 0.81000
0.90000 0.00000 0.81000
0.00000 0.12125 0.81000
0.11250 0.12125 0.81000
0.22500 0.12125 0.81000
0.33750 0.12125 0.81000
0.45000 0.12125 0.81000
0.56250 0.12125 0.81000
0.67500 0.12125 0.81000
0.78750 0.12125 0.81000
0.90000 0.12125 0.81000
0.00000 0.24250 0.81000
0.11250 0.24250 0.81000
0.22500 0.24250 0.81000
0.33750 0.24250 0.81000
0.45000 0.24250 0.81000
0.56250 0.24250 0.81000
0.67500 0.24250 0.81000
0.78750 0.24250 0.81000
0.90000 0.24250 0.81000
0.00000 0.36375 0.81000
0.11250 0.36375 0.81000
0.22500 0.36375 0.81000
0.33750 0.36375 0.81000
0.45000 0.36375 0.81000
0.56250 0.36375 0.81000
0.67500 0.36375 0.81000
0.78750 0.36375 0.81000
0.90000 0.36375 0.81000
0.00000 0.48500 0.81000
0.11250 0.48500 0.81000
0.22500 0.48500 0.81000
0.33750 0.48500 0.81000
0.45000 0.48500 0.81000
0.56250 0.48500 0.81000
0.67500 0.48500 0.81000
0.78750 0.48500 0.81000
0.90000 0.48500 0.81000
0.00000 0.60625 0.81000
0.11250 0.60625 0.81000
0.22500 0.60625 0.81000
0.33750 0.60625 0.81000
0.45000 0.60625 0.81000
0.56250 0.60625 0.81000
0.67500 0.60625 0.81000
0.78750 0.60625 0.81000
0.90000 0.60625 0.81000
0.00000 0.72750 0.81000
0.11250 0.72750 0.81000
0.22500 0.72750 0.81000
0.33750 0.72750 0.81000
0.45000 0.72750 0.81000
0.56250 0.72750 0.81000
0.67500 0.72750 0.81000
0.78750 0.72750 0.81000
0.90000 0.72750 0.81000
0.00000 0.84875 0.81000
0.11250 0.84875 0.81000
0.22500 0.84875 0.81000
0.33750 0.84875 0.81000
0.45000 0.84875 0.81000
0.56250 0.84875 0.81000
0.67500 0.84875 0.81000
0.78750 0.84875 0.81000
0.90000 0.84875 0.81000
0.00000 0.97000 0.81000
0.11250 0.97000 0.81000
0.22500 0.97000 0.81000
0.33750 0.97000 0.81000
0.45000 0.97000 0.81000
0.56250 0.97000 0.81000
0.67500 0.97000 0.81000
0.78750 0.97000 0.81000
0.90000 0.97000 0.81000
0.00000 0.00000 0.94500
0.11250 0.00000 0.94500
0.22500 0.00000 0.94500
0.33750 0.00000 0.94500
0.45000 0.00000 0.94500
0.56250 0.00000 0.94500
0.67500 0.00000 0.94500
0.78750 0.00000 0.94500
0.90000 0.00000 0.94500
0.00000 0.12125 0.94500
0.11250 0.12125 0.94500
0.22500 0.12125 0.94500
0.33750 0.12125 0.94500
0.45000 0.12125 0.94500
0.56250 0.12125 0.94500
0.67500 0.12125 0.94500
0.78750 0.12125 0.94500
0.90000 0.12125 0.94500
0.00000 0.24250 0.94500
0.11250 0.24250 0.94500
0.22500 0.24250 0.94500
0.33750 0.24250 0.94500
0.45000 0.24250 0.94500
0.56250 0.24250 0.94500
0.67500 0.24250 0.94500
0.78750 0.24250 0.94500
0.90000 0.24250 0.94500
0.00000 0.36375 0.94500
0.11250 0.36375 0.94500
0.22500 0.36375 0.94500
0.33750 0.36375 0.94500
0.45000 0.36375 0.94500
0.56250 0.36375 0.94500
0.67500 0.36375 0.94500
0.78750 0.36375 0.94500
0.90000 0.36375 0.94500
0.00000 0.48500 0.94500
0.11250 0.48500 0.94500
0.22500 0.48500 0.94500
0.33750 0.48500 0.94500
0.45000 0.48500 0.94500
0.56250 0.48500 0.94500
0.67500 0.48500 0.94500
0.78750 0.48500 0.94500
0.90000 0.48500 0.94500
0.00000 0.60625 0.94500
0.11250 0.60625 0.94500
0.22500 0.60625 0.94500
0.33750 0.60625 0.94500
0.45000 0.60625 0.94500
0.56250 0.60625 0.94500
0.67500 0.60625 0.94500
0.78750 0.60625 0.94500
0.90000 0.60625 0.94500
0.00000 0.72750 0.94500
0.11250 0.72750 0.94500
0.22500 0.72750 0.94500
0.33750 0.72750 0.94500
0.45000 0.72750 0.94500
0.56250 0.72750 0.94500
0.67500 0.72750 0.94500
0.78750 0.72750 0.94500
0.90000 0.72750 0.94500
0.00000 0.84875 0.94500
0.11250 0.84875 0.94500
0.22500 0.84875 0.94500
0.33750 0.84875 0.94500
0.45000 0.84875 0.94500
0.56250 0.84875 0.94500
0.67500 0.84875 0.94500
0.78750 0.84875 0.94500
0.90000 0.84875 0.94500
0.00000 0.97000 0.94500
0.11250 0.97000 0.94500
0.22500 0.97000 0.94500
0.33750 0.97000 0.94500
0.45000 0.97000 0.94500
0.56250 0.97000 0.94500
0.67500 0.97000 0.94500
0.78750 0.97000 0.94500
0.90000 0.97000 0.94500
0.00000 0.00000 1.00000
0.11250 0.00000 1.00000
0.22500 0.00000 1.00000
0.33750 0.00000 1.00000
0.45000 0.00000 1.00000
0.56250 0.00000 1.00000
0.67500 0.00000 1.00000
0.78750 0.00000 1.00000
0.90000 0.00000 1.00000
0.00000 0.12125 1.00000
0.11250 0.12125 1.00000
0.22500 0.12125 1.00000
0.33750 0.12125 1.00000
0.45000 0.12125 1.00000
0.56250 0.12125 1.00000
0.67500 0.12125 1.00000
0.78750 0.12125 1.00000
0.90000 0.12125 1.00000
0.00000 0.24250 1.00000
0.11250 0.24250 1.00000
0.22500 0.24250 1.00000
0.33750 0.24250 1.00000
0.45000 0.24250 1.00000
0.56250 0.24250 1.00000
0.67500 0.24250 1.00000
0.78750 0.24250 1.00000
0.90000 0.24250 1.00000
0.00000 0.36375 1.00000
0.11250 0.36375 1.00000
0.22500 0.36375 1.00000
0.33750 0.36375 1.00000
0.45000 0.36375 1.00000
0.56250 0.36375 1.00000
0.67500 0.36375 1.00000
0.78750 0.36375 1.00000
0.90000 0.36375 1.00000
0.00000 0.48500 1.00000
0.11250 0.48500 1.00000
0.22500 0.48500 1.00000
0.33750 0.48500 1.00000
0.45000 0.48500 1.00000
0.56250 0.48500 1.00000
0.67500 0.48500 1.00000
0.78750 0.48500 1.00000
0.90000 0.48500 1.00000
0.00000 0.60625 1.00000
0.11250 0.60625 1.00000
0.22500 0.60625 1.00000
0.33750 0.60625 1.00000
0.45000 0.60625 1.00000
0.56250 0.60625 1.00000
0.67500 0.60625 1.00000
0.78750 0.60625 1.00000
0.90000 0.60625 1.00000
0.00000 0.72750 1.00000
0.11250 0.72750 1.00000
0.22500 0.72750 1.00000
0.33750 0.72750 1.00000
0.45000 0.72750 1.00000
0.56250 0.72750 1.00000
0.67500 0.72750 1.00000
0.78750 0.72750 1.00000
0.90000 0.72750 1.00000
0.00000 0.84875 1.00000
0.11250 0.84875 1.00000
0.22500 0.84875 1.00000
0.33750 0.84875 1.00000
0.45000 0.84875 1.00000
0.56250 0.84875 1.00000
0.67500 0.84875 1.00000
0.78750 0.84875 1.00000
0.90000 0.84875 1.00000
0.00000 0.97000 1.00000
0.11250 0.97000 1.00000
0.22500 0.97000 1.00000
0.33750 0.97000 1.00000
0.45000 0.97000 1.00000
0.56250 0.97000 1.00000
0.67500 0.97000 1.00000
0.78750 0.97000 1.00000
0.90000 0.97000 1.00000
