assets/lut/Mono.cube
TITLE "Mono.cube"
LUT_3D_SIZE 5
0.000000 0.000000 0.000000
0.028500 0.028500 0.028500
0.057000 0.057000 0.057000
0.085500 0.085500 0.085500
0.114000 0.114000 0.114000
0.146750 0.146750 0.146750
0.175250 0.175250 0.175250
0.203750 0.203750 0.203750
0.232250 0.232250 0.232250
0.260750 0.260750 0.260750
0.293500 0.293500 0.293500
0.322000 0.322000 0.322000
0.350500 0.350500 0.350500
0.379000 0.379000 0.379000
0.407500 0.407500 0.407500
0.440250 0.440250 0.440250
0.468750 0.468750 0.468750
0.497250 0.497250 0.497250
0.525750 0.525750 0.525750
0.554250 0.554250 0.554250
0.587000 0.587000 0.587000
0.615500 0.615500 0.615500
0.644000 0.644000 0.644000
0.672500 0.672500 0.672500
0.701000 0.701000 0.701000
0.074750 0.074750 0.074750
0.103250 0.103250 0.103250
0.131750 0.131750 0.131750
0.160250 0.160250 0.160250
0.188750 0.188750 0.188750
0.221500 0.221500 0.221500
0.250000 0.250000 0.250000
0.278500 0.278500 0.278500
0.307000 0.307000 0.307000
0.335500 0.335500 0.335500
0.368250 0.368250 0.368250
0.396750 0.396750 0.396750
0.425250 0.425250 0.425250
0.453750 0.453750 0.453750
0.482250 0.482250 0.482250
0.515000 0.515000 0.515000
0.543500 0.543500 0.543500
0.572000 0.572000 0.572000
0.600500 0.600500 0.600500
0.629000 0.629000 0.629000
0.661750 0.661750 0.661750
0.690250 0.690250 0.690250
0.718750 0.718750 0.718750
0.747250 0.747250 0.747250
0.775750 0.775750 0.775750
0.149500 0.149500 0.149500
0.178000 0.178000 0.178000
0.206500 0.206500 0.206500
0.235000 0.235000 0.235000
0.263500 0.263500 0.263500
0.296250 0.296250 0.296250
0.324750 0.324750 0.324750
0.353250 0.353250 0.353250
0.381750 0.381750 0.381750
0.410250 0.410250 0.410250
0.443000 0.443000 0.443000
0.471500 0.471500 0.471500
0.500000 0.500000 0.500000
0.528500 0.528500 0.528500
0.557000 0.557000 0.557000
0.589750 0.589750 0.589750
0.618250 0.618250 0.618250
0.646750 0.646750 0.646750
0.675250 0.675250 0.675250
0.703750 0.703750 0.703750
0.736500 0.736500 0.736500
0.765000 0.765000 0.765000
0.793500 0.793500 0.793500
0.822000 0.822000 0.822000
0.850500 0.850500 0.850500
0.224250 0.224250 0.224250
0.252750 0.252750 0.252750
0.281250 0.281250 0.281250
0.309750 0.309750 0.309750
0.338250 0.338250 0.338250
0.371000 0.371000 0.371000
0.399500 0.399500 0.399500
0.428000 0.428000 0.428000
0.456500 0.456500 0.456500
0.485000 0.485000 0.485000
0.517750 0.517750 0.517750
0.546250 0.546250 0.546250
0.574750 0.574750 0.574750
0.603250 0.603250 0.603250
0.631750 0.631750 0.631750
0.664500 0.664500 0.664500
0.693000 0.693000 0.693000
0.721500 0.721500 0.721500
0.750000 0.750000 0.750000
0.778500 0.778500 0.778500
0.811250 0.811250 0.811250
0.839750 0.839750 0.839750
0.868250 0.868250 0.868250
0.896750 0.896750 0.896750
0.925250 0.925250 0.925250
0.299000 0.299000 0.299000
0.327500 0.327500 0.327500
0.356000 0.356000 0.356000
0.384500 0.384500 0.384500
0.413000 0.413000 0.413000
0.445750 0.445750 0.445750
0.474250 0.474250 0.474250
0.502750 0.502750 0.502750
0.531250 0.531250 0.531250
0.559750 0.559750 0.559750
0.592500 0.592500 0.592500
0.621000 0.621000 0.621000
0.649500 0.649500 0.649500
0.678000 0.678000 0.678000
0.706500 0.706500 0.706500
0.739250 0.739250 0.739250
0.767750 0.767750 0.767750
0.796250 0.796250 0.796250
0.824750 0.824750 0.824750
0.853250 0.853250 0.853250
0.886000 0.886000 0.886000
0.914500 0.914500 0.914500
0.943000 0.943000 0.943000
0.971500 0.971500 0.971500
1.000000 1.000000 1.000000
