assets/lut/Mono.cube
TITLE "Mono.cube"
LUT_3D_SIZE 9
0.000000 0.000000 0.000000
0.014250 0.014250 0.014250
0.028500 0.028500 0.028500
0.042750 0.042750 0.042750
0.057000 0.057000 0.057000
0.071250 0.071250 0.071250
0.085500 0.085500 0.085500
0.099750 0.099750 0.099750
0.114000 0.114000 0.114000
0.073375 0.073375 0.073375
0.087625 0.087625 0.087625
0.101875 0.101875 0.101875
0.116125 0.116125 0.116125
0.130375 0.130375 0.130375
0.144625 0.144625 0.144625
0.158875 0.158875 0.158875
0.173125 0.173125 0.173125
0.187375 0.187375 0.187375
0.146750 0.146750 0.146750
0.161000 0.161000 0.161000
0.175250 0.175250 0.175250
0.189500 0.189500 0.189500
0.203750 0.203750 0.203750
0.218000 0.218000 0.218000
0.232250 0.232250 0.232250
0.246500 0.246500 0.246500
0.260750 0.260750 0.260750
0.220125 0.220125 0.220125
0.234375 0.234375 0.234375
0.248625 0.248625 0.248625
0.262875 0.262875 0.262875
0.277125 0.277125 0.277125
0.291375 0.291375 0.291375
0.305625 0.305625 0.305625
0.319875 0.319875 0.319875
0.334125 0.334125 0.334125
0.293500 0.293500 0.293500
0.307750 0.307750 0.307750
0.322000 0.322000 0.322000
0.336250 0.336250 0.336250
0.350500 0.350500 0.350500
0.364750 0.364750 0.364750
0.379000 0.379000 0.379000
0.393250 0.393250 0.393250
0.407500 0.407500 0.407500
0.366875 0.366875 0.366875
0.381125 0.381125 0.381125
0.395375 0.395375 0.395375
0.409625 0.409625 0.409625
0.423875 0.423875 0.423875
0.438125 0.438125 0.438125
0.452375 0.452375 0.452375
0.466625 0.466625 0.466625
0.480875 0.480875 0.480875
0.440250 0.440250 0.440250
0.454500 0.454500 0.454500
0.468750 0.468750 0.468750
0.483000 0.483000 0.483000
0.497250 0.497250 0.497250
0.511500 0.511500 0.511500
0.525750 0.525750 0.525750
0.540000 0.540000 0.540000
0.554250 0.554250 0.554250
0.513625 0.513625 0.513625
0.527875 0.527875 0.527875
0.542125 0.542125 0.542125
0.556375 0.556375 0.556375
0.570625 0.570625 0.570625
0.584875 0.584875 0.584875
0.599125 0.599125 0.599125
0.613375 0.613375 0.613375
0.627625 0.627625 0.627625
0.587000 0.587000 0.587000
0.601250 0.601250 0.601250
0.615500 0.615500 0.615500
0.629750 0.629750 0.629750
0.644000 0.644000 0.644000
0.658250 0.658250 0.658250
0.672500 0.672500 0.672500
0.686750 0.686750 0.686750
0.701000 0.701000 0.701000
0.037375 0.037375 0.037375
0.051625 0.051625 0.051625
0.065875 0.065875 0.065875
0.080125 0.080125 0.080125
0.094375 0.094375 0.094375
0.108625 0.108625 0.108625
0.122875 0.122875 0.122875
0.137125 0.137125 0.137125
0.151375 0.151375 0.151375
0.110750 0.110750 0.110750
0.125000 0.125000 0.125000
0.139250 0.139250 0.139250
0.153500 0.153500 0.153500
0.167750 0.167750 0.167750
0.182000 0.182000 0.182000
0.196250 0.196250 0.196250
0.210500 0.210500 0.210500
0.224750 0.224750 0.224750
0.184125 0.184125 0.184125
0.198375 0.198375 0.198375
0.212625 0.212625 0.212625
0.226875 0.226875 0.226875
0.241125 0.241125 0.241125
0.255375 0.255375 0.255375
0.269625 0.269625 0.269625
0.283875 0.283875 0.283875
0.298125 0.298125 0.298125
0.257500 0.257500 0.257500
0.271750 0.271750 0.271750
0.286000 0.286000 0.286000
0.300250 0.300250 0.300250
0.314500 0.314500 0.314500
0.328750 0.328750 0.328750
0.343000 0.343000 0.343000
0.357250 0.357250 0.357250
0.371500 0.371500 0.371500
0.330875 0.330875 0.330875
0.345125 0.345125 0.345125
0.359375 0.359375 0.359375
0.373625 0.373625 0.373625
0.387875 0.387875 0.387875
0.402125 0.402125 0.402125
0.416375 0.416375 0.416375
0.430625 0.430625 0.430625
0.444875 0.444875 0.444875
0.404250 0.404250 0.404250
0.418500 0.418500 0.418500
0.432750 0.432750 0.432750
0.447000 0.447000 0.447000
0.461250 0.461250 0.461250
0.475500 0.475500 0.475500
0.489750 0.489750 0.489750
0.504000 0.504000 0.504000
0.518250 0.518250 0.518250
0.477625 0.477625 0.477625
0.491875 0.491875 0.491875
0.506125 0.506125 0.506125
0.520375 0.520375 0.520375
0.534625 0.534625 0.534625
0.548875 0.548875 0.548875
0.563125 0.563125 0.563125
0.577375 0.577375 0.577375
0.591625 0.591625 0.591625
0.551000 0.551000 0.551000
0.565250 0.565250 0.565250
0.579500 0.579500 0.579500
0.593750 0.593750 0.593750
0.608000 0.608000 0.608000
0.622250 0.622250 0.622250
0.636500 0.636500 0.636500
0.650750 0.650750 0.650750
0.665000 0.665000 0.665000
0.624375 0.624375 0.624375
0.638625 0.638625 0.638625
0.652875 0.652875 0.652875
0.667125 0.667125 0.667125
0.681375 0.681375 0.681375
0.695625 0.695625 0.695625
0.709875 0.709875 0.709875
0.724125 0.724125 0.724125
0.738375 0.738375 0.738375
0.074750 0.074750 0.074750
0.089000 0.089000 0.089000
0.103250 0.103250 0.103250
0.117500 0.117500 0.117500
0.131750 0.131750 0.131750
0.146000 0.146000 0.146000
0.160250 0.160250 0.160250
0.174500 0.174500 0.174500
0.188750 0.188750 0.188750
0.148125 0.148125 0.148125
0.162375 0.162375 0.162375
0.176625 0.176625 0.176625
0.190875 0.190875 0.190875
0.205125 0.205125 0.205125
0.219375 0.219375 0.219375
0.233625 0.233625 0.233625
0.247875 0.247875 0.247875
0.262125 0.262125 0.262125
0.221500 0.221500 0.221500
0.235750 0.235750 0.235750
0.250000 0.250000 0.250000
0.264250 0.264250 0.264250
0.278500 0.278500 0.278500
0.292750 0.292750 0.292750
0.307000 0.307000 0.307000
0.321250 0.321250 0.321250
0.335500 0.335500 0.335500
0.294875 0.294875 0.294875
0.309125 0.309125 0.309125
0.323375 0.323375 0.323375
0.337625 0.337625 0.337625
0.351875 0.351875 0.351875
0.366125 0.366125 0.366125
0.380375 0.380375 0.380375
0.394625 0.394625 0.394625
0.408875 0.408875 0.408875
0.368250 0.368250 0.368250
0.382500 0.382500 0.382500
0.396750 0.396750 0.396750
0.411000 0.411000 0.411000
0.425250 0.425250 0.425250
0.439500 0.439500 0.439500
0.453750 0.453750 0.453750
0.468000 0.468000 0.468000
0.482250 0.482250 0.482250
0.441625 0.441625 0.441625
0.455875 0.455875 0.455875
0.470125 0.470125 0.470125
0.484375 0.484375 0.484375
0.498625 0.498625 0.498625
0.512875 0.512875 0.512875
0.527125 0.527125 0.527125
0.541375 0.541375 0.541375
0.555625 0.555625 0.555625
0.515000 0.515000 0.515000
0.529250 0.529250 0.529250
0.543500 0.543500 0.543500
0.557750 0.557750 0.557750
0.572000 0.572000 0.572000
0.586250 0.586250 0.586250
0.600500 0.600500 0.600500
0.614750 0.614750 0.614750
0.629000 0.629000 0.629000
0.588375 0.588375 0.588375
0.602625 0.602625 0.602625
0.616875 0.616875 0.616875
0.631125 0.631125 0.631125
0.645375 0.645375 0.645375
0.659625 0.659625 0.659625
0.673875 0.673875 0.673875
0.688125 0.688125 0.688125
0.702375 0.702375 0.702375
0.661750 0.661750 0.661750
0.676000 0.676000 0.676000
0.690250 0.690250 0.690250
0.704500 0.704500 0.704500
0.718750 0.718750 0.718750
0.733000 0.733000 0.733000
0.747250 0.747250 0.747250
0.761500 0.761500 0.761500
0.775750 0.775750 0.775750
0.112125 0.112125 0.112125
0.126375 0.126375 0.126375
0.140625 0.140625 0.140625
0.154875 0.154875 0.154875
0.169125 0.169125 0.169125
0.183375 0.183375 0.183375
0.197625 0.197625 0.197625
0.211875 0.211875 0.211875
0.226125 0.226125 0.226125
0.185500 0.185500 0.185500
0.199750 0.199750 0.199750
0.214000 0.214000 0.214000
0.228250 0.228250 0.228250
0.242500 0.242500 0.242500
0.256750 0.256750 0.256750
0.271000 0.271000 0.271000
0.285250 0.285250 0.285250
0.299500 0.299500 0.299500
0.258875 0.258875 0.258875
0.273125 0.273125 0.273125
0.287375 0.287375 0.287375
0.301625 0.301625 0.301625
0.315875 0.315875 0.315875
0.330125 0.330125 0.330125
0.344375 0.344375 0.344375
0.358625 0.358625 0.358625
0.372875 0.372875 0.372875
0.332250 0.332250 0.332250
0.346500 0.346500 0.346500
0.360750 0.360750 0.360750
0.375000 0.375000 0.375000
0.389250 0.389250 0.389250
0.403500 0.403500 0.403500
0.417750 0.417750 0.417750
0.432000 0.432000 0.432000
0.446250 0.446250 0.446250
0.405625 0.405625 0.405625
0.419875 0.419875 0.419875
0.434125 0.434125 0.434125
0.448375 0.448375 0.448375
0.462625 0.462625 0.462625
0.476875 0.476875 0.476875
0.491125 0.491125 0.491125
0.505375 0.505375 0.505375
0.519625 0.519625 0.519625
0.479000 0.479000 0.479000
0.493250 0.493250 0.493250
0.507500 0.507500 0.507500
0.521750 0.521750 0.521750
0.536000 0.536000 0.536000
0.550250 0.550250 0.550250
0.564500 0.564500 0.564500
0.578750 0.578750 0.578750
0.593000 0.593000 0.593000
0.552375 0.552375 0.552375
0.566625 0.566625 0.566625
0.580875 0.580875 0.580875
0.595125 0.595125 0.595125
0.609375 0.609375 0.609375
0.623625 0.623625 0.623625
0.637875 0.637875 0.637875
0.652125 0.652125 0.652125
0.666375 0.666375 0.666375
0.625750 0.625750 0.625750
0.640000 0.640000 0.640000
0.654250 0.654250 0.654250
0.668500 0.668500 0.668500
0.682750 0.682750 0.682750
0.697000 0.697000 0.697000
0.711250 0.711250 0.711250
0.725500 0.725500 0.725500
0.739750 0.739750 0.739750
0.699125 0.699125 0.699125
0.713375 0.713375 0.713375
0.727625 0.727625 0.727625
0.741875 0.741875 0.741875
0.756125 0.756125 0.756125
0.770375 0.770375 0.770375
0.784625 0.784625 0.784625
0.798875 0.798875 0.798875
0.813125 0.813125 0.813125
0.149500 0.149500 0.149500
0.163750 0.163750 0.163750
0.178000 0.178000 0.178000
0.192250 0.192250 0.192250
0.206500 0.206500 0.206500
0.220750 0.220750 0.220750
0.235000 0.235000 0.235000
0.249250 0.249250 0.249250
0.263500 0.263500 0.263500
0.222875 0.222875 0.222875
0.237125 0.237125 0.237125
0.251375 0.251375 0.251375
0.265625 0.265625 0.265625
0.279875 0.279875 0.279875
0.294125 0.294125 0.294125
0.308375 0.308375 0.308375
0.322625 0.322625 0.322625
0.336875 0.336875 0.336875
0.296250 0.296250 0.296250
0.310500 0.310500 0.310500
0.324750 0.324750 0.324750
0.339000 0.339000 0.339000
0.353250 0.353250 0.353250
0.367500 0.367500 0.367500
0.381750 0.381750 0.381750
0.396000 0.396000 0.396000
0.410250 0.410250 0.410250
0.369625 0.369625 0.369625
0.383875 0.383875 0.383875
0.398125 0.398125 0.398125
0.412375 0.412375 0.412375
0.426625 0.426625 0.426625
0.440875 0.440875 0.440875
0.455125 0.455125 0.455125
0.469375 0.469375 0.469375
0.483625 0.483625 0.483625
0.443000 0.443000 0.443000
0.457250 0.457250 0.457250
0.471500 0.471500 0.471500
0.485750 0.485750 0.485750
0.500000 0.500000 0.500000
0.514250 0.514250 0.514250
0.528500 0.528500 0.528500
0.542750 0.542750 0.542750
0.557000 0.557000 0.557000
0.516375 0.516375 0.516375
0.530625 0.530625 0.530625
0.544875 0.544875 0.544875
0.559125 0.559125 0.559125
0.573375 0.573375 0.573375
0.587625 0.587625 0.587625
0.601875 0.601875 0.601875
0.616125 0.616125 0.616125
0.630375 0.630375 0.630375
0.589750 0.589750 0.589750
0.604000 0.604000 0.604000
0.618250 0.618250 0.618250
0.632500 0.632500 0.632500
0.646750 0.646750 0.646750
0.661000 0.661000 0.661000
0.675250 0.675250 0.675250
0.689500 0.689500 0.689500
0.703750 0.703750 0.703750
0.663125 0.663125 0.663125
0.677375 0.677375 0.677375
0.691625 0.691625 0.691625
0.705875 0.705875 0.705875
0.720125 0.720125 0.720125
0.734375 0.734375 0.734375
0.748625 0.748625 0.748625
0.762875 0.762875 0.762875
0.777125 0.777125 0.777125
0.736500 0.736500 0.736500
0.750750 0.750750 0.750750
0.765000 0.765000 0.765000
0.779250 0.779250 0.779250
0.793500 0.793500 0.793500
0.807750 0.807750 0.807750
0.822000 0.822000 0.822000
0.836250 0.836250 0.836250
0.850500 0.850500 0.850500
0.186875 0.186875 0.186875
0.201125 0.201125 0.201125
0.215375 0.215375 0.215375
0.229625 0.229625 0.229625
0.243875 0.243875 0.243875
0.258125 0.258125 0.258125
0.272375 0.272375 0.272375
0.286625 0.286625 0.286625
0.300875 0.300875 0.300875
0.260250 0.260250 0.260250
0.274500 0.274500 0.274500
0.288750 0.288750 0.288750
0.303000 0.303000 0.303000
0.317250 0.317250 0.317250
0.331500 0.331500 0.331500
0.345750 0.345750 0.345750
0.360000 0.360000 0.360000
0.374250 0.374250 0.374250
0.333625 0.333625 0.333625
0.347875 0.347875 0.347875
0.362125 0.362125 0.362125
0.376375 0.376375 0.376375
0.390625 0.390625 0.390625
0.404875 0.404875 0.404875
0.419125 0.419125 0.419125
0.433375 0.433375 0.433375
0.447625 0.447625 0.447625
0.407000 0.407000 0.407000
0.421250 0.421250 0.421250
0.435500 0.435500 0.435500
0.449750 0.449750 0.449750
0.464000 0.464000 0.464000
0.478250 0.478250 0.478250
0.492500 0.492500 0.492500
0.506750 0.506750 0.506750
0.521000 0.521000 0.521000
0.480375 0.480375 0.480375
0.494625 0.494625 0.494625
0.508875 0.508875 0.508875
0.523125 0.523125 0.523125
0.537375 0.537375 0.537375
0.551625 0.551625 0.551625
0.565875 0.565875 0.565875
0.580125 0.580125 0.580125
0.594375 0.594375 0.594375
0.553750 0.553750 0.553750
0.568000 0.568000 0.568000
0.582250 0.582250 0.582250
0.596500 0.596500 0.596500
0.610750 0.610750 0.610750
0.625000 0.625000 0.625000
0.639250 0.639250 0.639250
0.653500 0.653500 0.653500
0.667750 0.667750 0.667750
0.627125 0.627125 0.627125
0.641375 0.641375 0.641375
0.655625 0.655625 0.655625
0.669875 0.669875 0.669875
0.684125 0.684125 0.684125
0.698375 0.698375 0.698375
0.712625 0.712625 0.712625
0.726875 0.726875 0.726875
0.741125 0.741125 0.741125
0.700500 0.700500 0.700500
0.714750 0.714750 0.714750
0.729000 0.729000 0.729000
0.743250 0.743250 0.743250
0.757500 0.757500 0.757500
0.771750 0.771750 0.771750
0.786000 0.786000 0.786000
0.800250 0.800250 0.800250
0.814500 0.814500 0.814500
0.773875 0.773875 0.773875
0.788125 0.788125 0.788125
0.802375 0.802375 0.802375
0.816625 0.816625 0.816625
0.830875 0.830875 0.830875
0.845125 0.845125 0.845125
0.859375 0.859375 0.859375
0.873625 0.873625 0.873625
0.887875 0.887875 0.887875
0.224250 0.224250 0.224250
0.238500 0.238500 0.238500
0.252750 0.252750 0.252750
0.267000 0.267000 0.267000
0.281250 0.281250 0.281250
0.295500 0.295500 0.295500
0.309750 0.309750 0.309750
0.324000 0.324000 0.324000
0.338250 0.338250 0.338250
0.297625 0.297625 0.297625
0.311875 0.311875 0.311875
0.326125 0.326125 0.326125
0.340375 0.340375 0.340375
0.354625 0.354625 0.354625
0.368875 0.368875 0.368875
0.383125 0.383125 0.383125
0.397375 0.397375 0.397375
0.411625 0.411625 0.411625
0.371000 0.371000 0.371000
0.385250 0.385250 0.385250
0.399500 0.399500 0.399500
0.413750 0.413750 0.413750
0.428000 0.428000 0.428000
0.442250 0.442250 0.442250
0.456500 0.456500 0.456500
0.470750 0.470750 0.470750
0.485000 0.485000 0.485000
0.444375 0.444375 0.444375
0.458625 0.458625 0.458625
0.472875 0.472875 0.472875
0.487125 0.487125 0.487125
0.501375 0.501375 0.501375
0.515625 0.515625 0.515625
0.529875 0.529875 0.529875
0.544125 0.544125 0.544125
0.558375 0.558375 0.558375
0.517750 0.517750 0.517750
0.532000 0.532000 0.532000
0.546250 0.546250 0.546250
0.560500 0.560500 0.560500
0.574750 0.574750 0.574750
0.589000 0.589000 0.589000
0.603250 0.603250 0.603250
0.617500 0.617500 0.617500
0.631750 0.631750 0.631750
0.591125 0.591125 0.591125
0.605375 0.605375 0.605375
0.619625 0.619625 0.619625
0.633875 0.633875 0.633875
0.648125 0.648125 0.648125
0.662375 0.662375 0.662375
0.676625 0.676625 0.676625
0.690875 0.690875 0.690875
0.705125 0.705125 0.705125
0.664500 0.664500 0.664500
0.678750 0.678750 0.678750
0.693000 0.693000 0.693000
0.707250 0.707250 0.707250
0.721500 0.721500 0.721500
0.735750 0.735750 0.735750
0.750000 0.750000 0.750000
0.764250 0.764250 0.764250
0.778500 0.778500 0.778500
0.737875 0.737875 0.737875
0.752125 0.752125 0.752125
0.766375 0.766375 0.766375
0.780625 0.780625 0.780625
0.794875 0.794875 0.794875
0.809125 0.809125 0.809125
0.823375 0.823375 0.823375
0.837625 0.837625 0.837625
0.851875 0.851875 0.851875
0.811250 0.811250 0.811250
0.825500 0.825500 0.825500
0.839750 0.839750 0.839750
0.854000 0.854000 0.854000
0.868250 0.868250 0.868250
0.882500 0.882500 0.882500
0.896750 0.896750 0.896750
0.911000 0.911000 0.911000
0.925250 0.925250 0.925250
0.261625 0.261625 0.261625
0.275875 0.275875 0.275875
0.290125 0.290125 0.290125
0.304375 0.304375 0.304375
0.318625 0.318625 0.318625
0.332875 0.332875 0.332875
0.347125 0.347125 0.347125
0.361375 0.361375 0.361375
0.375625 0.375625 0.375625
0.335000 0.335000 0.335000
0.349250 0.349250 0.349250
0.363500 0.363500 0.363500
0.377750 0.377750 0.377750
0.392000 0.392000 0.392000
0.406250 0.406250 0.406250
0.420500 0.420500 0.420500
0.434750 0.434750 0.434750
0.449000 0.449000 0.449000
0.408375 0.408375 0.408375
0.422625 0.422625 0.422625
0.436875 0.436875 0.436875
0.451125 0.451125 0.451125
0.465375 0.465375 0.465375
0.479625 0.479625 0.479625
0.493875 0.493875 0.493875
0.508125 0.508125 0.508125
0.522375 0.522375 0.522375
0.481750 0.481750 0.481750
0.496000 0.496000 0.496000
0.510250 0.510250 0.510250
0.524500 0.524500 0.524500
0.538750 0.538750 0.538750
0.553000 0.553000 0.553000
0.567250 0.567250 0.567250
0.581500 0.581500 0.581500
0.595750 0.595750 0.595750
0.555125 0.555125 0.555125
0.569375 0.569375 0.569375
0.583625 0.583625 0.583625
0.597875 0.597875 0.597875
0.612125 0.612125 0.612125
0.626375 0.626375 0.626375
0.640625 0.640625 0.640625
0.654875 0.654875 0.654875
0.669125 0.669125 0.669125
0.628500 0.628500 0.628500
0.642750 0.642750 0.642750
0.657000 0.657000 0.657000
0.671250 0.671250 0.671250
0.685500 0.685500 0.685500
0.699750 0.699750 0.699750
0.714000 0.714000 0.714000
0.728250 0.728250 0.728250
0.742500 0.742500 0.742500
0.701875 0.701875 0.701875
0.716125 0.716125 0.716125
0.730375 0.730375 0.730375
0.744625 0.744625 0.744625
0.758875 0.758875 0.758875
0.773125 0.773125 0.773125
0.787375 0.787375 0.787375
0.801625 0.801625 0.801625
0.815875 0.815875 0.815875
0.775250 0.775250 0.775250
0.789500 0.789500 0.789500
0.803750 0.803750 0.803750
0.818000 0.818000 0.818000
0.832250 0.832250 0.832250
0.846500 0.846500 0.846500
0.860750 0.860750 0.860750
0.875000 0.875000 0.875000
0.889250 0.889250 0.889250
0.848625 0.848625 0.848625
0.862875 0.862875 0.862875
0.877125 0.877125 0.877125
0.891375 0.891375 0.891375
0.905625 0.905625 0.905625
0.919875 0.919875 0.919875
0.934125 0.934125 0.934125
0.948375 0.948375 0.948375
0.962625 0.962625 0.962625
0.299000 0.299000 0.299000
0.313250 0.313250 0.313250
0.327500 0.327500 0.327500
0.341750 0.341750 0.341750
0.356000 0.356000 0.356000
0.370250 0.370250 0.370250
0.384500 0.384500 0.384500
0.398750 0.398750 0.398750
0.413000 0.413000 0.413000
0.372375 0.372375 0.372375
0.386625 0.386625 0.386625
0.400875 0.400875 0.400875
0.415125 0.415125 0.415125
0.429375 0.429375 0.429375
0.443625 0.443625 0.443625
0.457875 0.457875 0.457875
0.472125 0.472125 0.472125
0.486375 0.486375 0.486375
0.445750 0.445750 0.445750
0.460000 0.460000 0.460000
0.474250 0.474250 0.474250
0.488500 0.488500 0.488500
0.502750 0.502750 0.502750
0.517000 0.517000 0.517000
0.531250 0.531250 0.531250
0.545500 0.545500 0.545500
0.559750 0.559750 0.559750
0.519125 0.519125 0.519125
0.533375 0.533375 0.533375
0.547625 0.547625 0.547625
0.561875 0.561875 0.561875
0.576125 0.576125 0.576125
0.590375 0.590375 0.590375
0.604625 0.604625 0.604625
0.618875 0.618875 0.618875
0.633125 0.633125 0.633125
0.592500 0.592500 0.592500
0.606750 0.606750 0.606750
0.621000 0.621000 0.621000
0.635250 0.635250 0.635250
0.649500 0.649500 0.649500
0.663750 0.663750 0.663750
0.678000 0.678000 0.678000
0.692250 0.692250 0.692250
0.706500 0.706500 0.706500
0.665875 0.665875 0.665875
0.680125 0.680125 0.680125
0.694375 0.694375 0.694375
0.708625 0.708625 0.708625
0.722875 0.722875 0.722875
0.737125 0.737125 0.737125
0.751375 0.751375 0.751375
0.765625 0.765625 0.765625
0.779875 0.779875 0.779875
0.739250 0.739250 0.739250
0.753500 0.753500 0.753500
0.767750 0.767750 0.767750
0.782000 0.782000 0.782000
0.796250 0.796250 0.796250
0.810500 0.810500 0.810500
0.824750 0.824750 0.824750
0.839000 0.839000 0.839000
0.853250 0.853250 0.853250
0.812625 0.812625 0.812625
0.826875 0.826875 0.826875
0.841125 0.841125 0.841125
0.855375 0.855375 0.855375
0.869625 0.869625 0.869625
0.883875 0.883875 0.883875
0.898125 0.898125 0.898125
0.912375 0.912375 0.912375
0.926625 0.926625 0.926625
0.886000 0.886000 0.886000
0.900250 0.900250 0.900250
0.914500 0.914500 0.914500
0.928750 0.928750 0.928750
0.943000 0.943000 0.943000
0.957250 0.957250 0.957250
0.971500 0.971500 0.971500
0.985750 0.985750 0.985750
1.000000 1.000000 1.000000
