assets/lut/Mono.cube
TITLE "Mono.cube"
LUT_3D_SIZE 33
0.000000 0.000000 0.000000
0.003563 0.003563 0.003563
0.007125 0.007125 0.007125
0.010688 0.010688 0.010688
0.014250 0.014250 0.014250
0.017813 0.017813 0.017813
0.021375 0.021375 0.021375
0.024938 0.024938 0.024938
0.028500 0.028500 0.028500
0.032063 0.032063 0.032063
0.035625 0.035625 0.035625
0.039188 0.039188 0.039188
0.042750 0.042750 0.042750
0.046312 0.046312 0.046312
0.049875 0.049875 0.049875
0.053437 0.053437 0.053437
0.057000 0.057000 0.057000
0.060563 0.060563 0.060563
0.064125 0.064125 0.064125
0.067687 0.067687 0.067687
0.071250 0.071250 0.071250
0.074813 0.074813 0.074813
0.078375 0.078375 0.078375
0.081937 0.081937 0.081937
0.085500 0.085500 0.085500
0.089063 0.089063 0.089063
0.092625 0.092625 0.092625
0.096188 0.096188 0.096188
0.099750 0.099750 0.099750
0.103313 0.103313 0.103313
0.106875 0.106875 0.106875
0.110438 0.110438 0.110438
0.114000 0.114000 0.114000
0.018344 0.018344 0.018344
0.021906 0.021906 0.021906
0.025469 0.025469 0.025469
0.029031 0.029031 0.029031
0.032594 0.032594 0.032594
0.036156 0.036156 0.036156
0.039719 0.039719 0.039719
0.043281 0.043281 0.043281
0.046844 0.046844 0.046844
0.050406 0.050406 0.050406
0.053969 0.053969 0.053969
0.057531 0.057531 0.057531
0.061094 0.061094 0.061094
0.064656 0.064656 0.064656
0.068219 0.068219 0.068219
0.071781 0.071781 0.071781
0.075344 0.075344 0.075344
0.078906 0.078906 0.078906
0.082469 0.082469 0.082469
0.086031 0.086031 0.086031
0.089594 0.089594 0.089594
0.093156 0.093156 0.093156
0.096719 0.096719 0.096719
0.100281 0.100281 0.100281
0.103844 0.103844 0.103844
0.107406 0.107406 0.107406
0.110969 0.110969 0.110969
0.114531 0.114531 0.114531
0.118094 0.118094 0.118094
0.121656 0.121656 0.121656
0.125219 0.125219 0.125219
0.128781 0.128781 0.128781
0.132344 0.132344 0.132344
0.036687 0.036687 0.036687
0.040250 0.040250 0.040250
0.043812 0.043812 0.043812
0.047375 0.047375 0.047375
0.050937 0.050937 0.050937
0.054500 0.054500 0.054500
0.058063 0.058063 0.058063
0.061625 0.061625 0.061625
0.065187 0.065187 0.065187
0.068750 0.068750 0.068750
0.072313 0.072313 0.072313
0.075875 0.075875 0.075875
0.079437 0.079437 0.079437
0.083000 0.083000 0.083000
0.086563 0.086563 0.086563
0.090125 0.090125 0.090125
0.093688 0.093688 0.093688
0.097250 0.097250 0.097250
0.100812 0.100812 0.100812
0.104375 0.104375 0.104375
0.107938 0.107938 0.107938
0.111500 0.111500 0.111500
0.115062 0.115062 0.115062
0.118625 0.118625 0.118625
0.122188 0.122188 0.122188
0.125750 0.125750 0.125750
0.129312 0.129312 0.129312
0.132875 0.132875 0.132875
0.136437 0.136437 0.136437
0.140000 0.140000 0.140000
0.143562 0.143562 0.143562
0.147125 0.147125 0.147125
0.150688 0.150688 0.150688
0.055031 0.055031 0.055031
0.058594 0.058594 0.058594
0.062156 0.062156 0.062156
0.065719 0.065719 0.065719
0.069281 0.069281 0.069281
0.072844 0.072844 0.072844
0.076406 0.076406 0.076406
0.079969 0.079969 0.079969
0.083531 0.083531 0.083531
0.087094 0.087094 0.087094
0.090656 0.090656 0.090656
0.094219 0.094219 0.094219
0.097781 0.097781 0.097781
0.101344 0.101344 0.101344
0.104906 0.104906 0.104906
0.108469 0.108469 0.108469
0.112031 0.112031 0.112031
0.115594 0.115594 0.115594
0.119156 0.119156 0.119156
0.122719 0.122719 0.122719
0.126281 0.126281 0.126281
0.129844 0.129844 0.129844
0.133406 0.133406 0.133406
0.136969 0.136969 0.136969
0.140531 0.140531 0.140531
0.144094 0.144094 0.144094
0.147656 0.147656 0.147656
0.151219 0.151219 0.151219
0.154781 0.154781 0.154781
0.158344 0.158344 0.158344
0.161906 0.161906 0.161906
0.165469 0.165469 0.165469
0.169031 0.169031 0.169031
0.073375 0.073375 0.073375
0.076937 0.076937 0.076937
0.080500 0.080500 0.080500
0.084062 0.084062 0.084062
0.087625 0.087625 0.087625
0.091188 0.091188 0.091188
0.094750 0.094750 0.094750
0.098312 0.098312 0.098312
0.101875 0.101875 0.101875
0.105437 0.105437 0.105437
0.109000 0.109000 0.109000
0.112562 0.112562 0.112562
0.116125 0.116125 0.116125
0.119688 0.119688 0.119688
0.123250 0.123250 0.123250
0.126812 0.126812 0.126812
0.130375 0.130375 0.130375
0.133937 0.133937 0.133937
0.137500 0.137500 0.137500
0.141062 0.141062 0.141062
0.144625 0.144625 0.144625
0.148187 0.148187 0.148187
0.151750 0.151750 0.151750
0.155312 0.155312 0.155312
0.158875 0.158875 0.158875
0.162438 0.162438 0.162438
0.166000 0.166000 0.166000
0.169563 0.169563 0.169563
0.173125 0.173125 0.173125
0.176687 0.176687 0.176687
0.180250 0.180250 0.180250
0.183812 0.183812 0.183812
0.187375 0.187375 0.187375
0.091719 0.091719 0.091719
0.095281 0.095281 0.095281
0.098844 0.098844 0.098844
0.102406 0.102406 0.102406
0.105969 0.105969 0.105969
0.109531 0.109531 0.109531
0.113094 0.113094 0.113094
0.116656 0.116656 0.116656
0.120219 0.120219 0.120219
0.123781 0.123781 0.123781
0.127344 0.127344 0.127344
0.130906 0.130906 0.130906
0.134469 0.134469 0.134469
0.138031 0.138031 0.138031
0.141594 0.141594 0.141594
0.145156 0.145156 0.145156
0.148719 0.148719 0.148719
0.152281 0.152281 0.152281
0.155844 0.155844 0.155844
0.159406 0.159406 0.159406
0.162969 0.162969 0.162969
0.166531 0.166531 0.166531
0.170094 0.170094 0.170094
0.173656 0.173656 0.173656
0.177219 0.177219 0.177219
0.180781 0.180781 0.180781
0.184344 0.184344 0.184344
0.187906 0.187906 0.187906
0.191469 0.191469 0.191469
0.195031 0.195031 0.195031
0.198594 0.198594 0.198594
0.202156 0.202156 0.202156
0.205719 0.205719 0.205719
0.110062 0.110062 0.110062
0.113625 0.113625 0.113625
0.117188 0.117188 0.117188
0.120750 0.120750 0.120750
0.124312 0.124312 0.124312
0.127875 0.127875 0.127875
0.131437 0.131437 0.131437
0.135000 0.135000 0.135000
0.138563 0.138563 0.138563
0.142125 0.142125 0.142125
0.145687 0.145687 0.145687
0.149250 0.149250 0.149250
0.152812 0.152812 0.152812
0.156375 0.156375 0.156375
0.159938 0.159938 0.159938
0.163500 0.163500 0.163500
0.167063 0.167063 0.167063
0.170625 0.170625 0.170625
0.174187 0.174187 0.174187
0.177750 0.177750 0.177750
0.181312 0.181312 0.181312
0.184875 0.184875 0.184875
0.188437 0.188437 0.188437
0.192000 0.192000 0.192000
0.195563 0.195563 0.195563
0.199125 0.199125 0.199125
0.202687 0.202687 0.202687
0.206250 0.206250 0.206250
0.209813 0.209813 0.209813
0.213375 0.213375 0.213375
0.216938 0.216938 0.216938
0.220500 0.220500 0.220500
0.224062 0.224062 0.224062
0.128406 0.128406 0.128406
0.131969 0.131969 0.131969
0.135531 0.135531 0.135531
0.139094 0.139094 0.139094
0.142656 0.142656 0.142656
0.146219 0.146219 0.146219
0.149781 0.149781 0.149781
0.153344 0.153344 0.153344
0.156906 0.156906 0.156906
0.160469 0.160469 0.160469
0.164031 0.164031 0.164031
0.167594 0.167594 0.167594
0.171156 0.171156 0.171156
0.174719 0.174719 0.174719
0.178281 0.178281 0.178281
0.181844 0.181844 0.181844
0.185406 0.185406 0.185406
0.188969 0.188969 0.188969
0.192531 0.192531 0.192531
0.196094 0.196094 0.196094
0.199656 0.199656 0.199656
0.203219 0.203219 0.203219
0.206781 0.206781 0.206781
0.210344 0.210344 0.210344
0.213906 0.213906 0.213906
0.217469 0.217469 0.217469
0.221031 0.221031 0.221031
0.224594 0.224594 0.224594
0.228156 0.228156 0.228156
0.231719 0.231719 0.231719
0.235281 0.235281 0.235281
0.238844 0.238844 0.238844
0.242406 0.242406 0.242406
0.146750 0.146750 0.146750
0.150312 0.150312 0.150312
0.153875 0.153875 0.153875
0.157437 0.157437 0.157437
0.161000 0.161000 0.161000
0.164563 0.164563 0.164563
0.168125 0.168125 0.168125
0.171687 0.171687 0.171687
0.175250 0.175250 0.175250
0.178812 0.178812 0.178812
0.182375 0.182375 0.182375
0.185937 0.185937 0.185937
0.189500 0.189500 0.189500
0.193062 0.193062 0.193062
0.196625 0.196625 0.196625
0.200187 0.200187 0.200187
0.203750 0.203750 0.203750
0.207313 0.207313 0.207313
0.210875 0.210875 0.210875
0.214438 0.214438 0.214438
0.218000 0.218000 0.218000
0.221562 0.221562 0.221562
0.225125 0.225125 0.225125
0.228687 0.228687 0.228687
0.232250 0.232250 0.232250
0.235812 0.235812 0.235812
0.239375 0.239375 0.239375
0.242938 0.242938 0.242938
0.246500 0.246500 0.246500
0.250062 0.250062 0.250062
0.253625 0.253625 0.253625
0.257188 0.257188 0.257188
0.260750 0.260750 0.260750
0.165094 0.165094 0.165094
0.168656 0.168656 0.168656
0.172219 0.172219 0.172219
0.175781 0.175781 0.175781
0.179344 0.179344 0.179344
0.182906 0.182906 0.182906
0.186469 0.186469 0.186469
0.190031 0.190031 0.190031
0.193594 0.193594 0.193594
0.197156 0.197156 0.197156
0.200719 0.200719 0.200719
0.204281 0.204281 0.204281
0.207844 0.207844 0.207844
0.211406 0.211406 0.211406
0.214969 0.214969 0.214969
0.218531 0.218531 0.218531
0.222094 0.222094 0.222094
0.225656 0.225656 0.225656
0.229219 0.229219 0.229219
0.232781 0.232781 0.232781
0.236344 0.236344 0.236344
0.239906 0.239906 0.239906
0.243469 0.243469 0.243469
0.247031 0.247031 0.247031
0.250594 0.250594 0.250594
0.254156 0.254156 0.254156
0.257719 0.257719 0.257719
0.261281 0.261281 0.261281
0.264844 0.264844 0.264844
0.268406 0.268406 0.268406
0.271969 0.271969 0.271969
0.275531 0.275531 0.275531
0.279094 0.279094 0.279094
0.183437 0.183437 0.183437
0.187000 0.187000 0.187000
0.190562 0.190562 0.190562
0.194125 0.194125 0.194125
0.197687 0.197687 0.197687
0.201250 0.201250 0.201250
0.204812 0.204812 0.204812
0.208375 0.208375 0.208375
0.211937 0.211937 0.211937
0.215500 0.215500 0.215500
0.219062 0.219062 0.219062
0.222625 0.222625 0.222625
0.226187 0.226187 0.226187
0.229750 0.229750 0.229750
0.233312 0.233312 0.233312
0.236875 0.236875 0.236875
0.240437 0.240437 0.240437
0.244000 0.244000 0.244000
0.247562 0.247562 0.247562
0.251125 0.251125 0.251125
0.254687 0.254687 0.254687
0.258250 0.258250 0.258250
0.261813 0.261813 0.261813
0.265375 0.265375 0.265375
0.268937 0.268937 0.268937
0.272500 0.272500 0.272500
0.276062 0.276062 0.276062
0.279625 0.279625 0.279625
0.283187 0.283187 0.283187
0.286750 0.286750 0.286750
0.290312 0.290312 0.290312
0.293875 0.293875 0.293875
0.297437 0.297437 0.297437
0.201781 0.201781 0.201781
0.205344 0.205344 0.205344
0.208906 0.208906 0.208906
0.212469 0.212469 0.212469
0.216031 0.216031 0.216031
0.219594 0.219594 0.219594
0.223156 0.223156 0.223156
0.226719 0.226719 0.226719
0.230281 0.230281 0.230281
0.233844 0.233844 0.233844
0.237406 0.237406 0.237406
0.240969 0.240969 0.240969
0.244531 0.244531 0.244531
0.248094 0.248094 0.248094
0.251656 0.251656 0.251656
0.255219 0.255219 0.255219
0.258781 0.258781 0.258781
0.262344 0.262344 0.262344
0.265906 0.265906 0.265906
0.269469 0.269469 0.269469
0.273031 0.273031 0.273031
0.276594 0.276594 0.276594
0.280156 0.280156 0.280156
0.283719 0.283719 0.283719
0.287281 0.287281 0.287281
0.290844 0.290844 0.290844
0.294406 0.294406 0.294406
0.297969 0.297969 0.297969
0.301531 0.301531 0.301531
0.305094 0.305094 0.305094
0.308656 0.308656 0.308656
0.312219 0.312219 0.312219
0.315781 0.315781 0.315781
0.220125 0.220125 0.220125
0.223687 0.223687 0.223687
0.227250 0.227250 0.227250
0.230812 0.230812 0.230812
0.234375 0.234375 0.234375
0.237937 0.237937 0.237937
0.241500 0.241500 0.241500
0.245062 0.245062 0.245062
0.248625 0.248625 0.248625
0.252188 0.252188 0.252188
0.255750 0.255750 0.255750
0.259313 0.259313 0.259313
0.262875 0.262875 0.262875
0.266437 0.266437 0.266437
0.270000 0.270000 0.270000
0.273562 0.273562 0.273562
0.277125 0.277125 0.277125
0.280687 0.280687 0.280687
0.284250 0.284250 0.284250
0.287812 0.287812 0.287812
0.291375 0.291375 0.291375
0.294937 0.294937 0.294937
0.298500 0.298500 0.298500
0.302063 0.302063 0.302063
0.305625 0.305625 0.305625
0.309188 0.309188 0.309188
0.312750 0.312750 0.312750
0.316312 0.316312 0.316312
0.319875 0.319875 0.319875
0.323437 0.323437 0.323437
0.327000 0.327000 0.327000
0.330562 0.330562 0.330562
0.334125 0.334125 0.334125
0.238469 0.238469 0.238469
0.242031 0.242031 0.242031
0.245594 0.245594 0.245594
0.249156 0.249156 0.249156
0.252719 0.252719 0.252719
0.256281 0.256281 0.256281
0.259844 0.259844 0.259844
0.263406 0.263406 0.263406
0.266969 0.266969 0.266969
0.270531 0.270531 0.270531
0.274094 0.274094 0.274094
0.277656 0.277656 0.277656
0.281219 0.281219 0.281219
0.284781 0.284781 0.284781
0.288344 0.288344 0.288344
0.291906 0.291906 0.291906
0.295469 0.295469 0.295469
0.299031 0.299031 0.299031
0.302594 0.302594 0.302594
0.306156 0.306156 0.306156
0.309719 0.309719 0.309719
0.313281 0.313281 0.313281
0.316844 0.316844 0.316844
0.320406 0.320406 0.320406
0.323969 0.323969 0.323969
0.327531 0.327531 0.327531
0.331094 0.331094 0.331094
0.334656 0.334656 0.334656
0.338219 0.338219 0.338219
0.341781 0.341781 0.341781
0.345344 0.345344 0.345344
0.348906 0.348906 0.348906
0.352469 0.352469 0.352469
0.256812 0.256812 0.256812
0.260375 0.260375 0.260375
0.263937 0.263937 0.263937
0.267500 0.267500 0.267500
0.271062 0.271062 0.271062
0.274625 0.274625 0.274625
0.278187 0.278187 0.278187
0.281750 0.281750 0.281750
0.285313 0.285313 0.285313
0.288875 0.288875 0.288875
0.292438 0.292438 0.292438
0.296000 0.296000 0.296000
0.299563 0.299563 0.299563
0.303125 0.303125 0.303125
0.306688 0.306688 0.306688
0.310250 0.310250 0.310250
0.313812 0.313812 0.313812
0.317375 0.317375 0.317375
0.320937 0.320937 0.320937
0.324500 0.324500 0.324500
0.328063 0.328063 0.328063
0.331625 0.331625 0.331625
0.335187 0.335187 0.335187
0.338750 0.338750 0.338750
0.342313 0.342313 0.342313
0.345875 0.345875 0.345875
0.349438 0.349438 0.349438
0.353000 0.353000 0.353000
0.356563 0.356563 0.356563
0.360125 0.360125 0.360125
0.363687 0.363687 0.363687
0.367250 0.367250 0.367250
0.370812 0.370812 0.370812
0.275156 0.275156 0.275156
0.278719 0.278719 0.278719
0.282281 0.282281 0.282281
0.285844 0.285844 0.285844
0.289406 0.289406 0.289406
0.292969 0.292969 0.292969
0.296531 0.296531 0.296531
0.300094 0.300094 0.300094
0.303656 0.303656 0.303656
0.307219 0.307219 0.307219
0.310781 0.310781 0.310781
0.314344 0.314344 0.314344
0.317906 0.317906 0.317906
0.321469 0.321469 0.321469
0.325031 0.325031 0.325031
0.328594 0.328594 0.328594
0.332156 0.332156 0.332156
0.335719 0.335719 0.335719
0.339281 0.339281 0.339281
0.342844 0.342844 0.342844
0.346406 0.346406 0.346406
0.349969 0.349969 0.349969
0.353531 0.353531 0.353531
0.357094 0.357094 0.357094
0.360656 0.360656 0.360656
0.364219 0.364219 0.364219
0.367781 0.367781 0.367781
0.371344 0.371344 0.371344
0.374906 0.374906 0.374906
0.378469 0.378469 0.378469
0.382031 0.382031 0.382031
0.385594 0.385594 0.385594
0.389156 0.389156 0.389156
0.293500 0.293500 0.293500
0.297063 0.297063 0.297063
0.300625 0.300625 0.300625
0.304187 0.304187 0.304187
0.307750 0.307750 0.307750
0.311312 0.311312 0.311312
0.314875 0.314875 0.314875
0.318437 0.318437 0.318437
0.322000 0.322000 0.322000
0.325562 0.325562 0.325562
0.329125 0.329125 0.329125
0.332687 0.332687 0.332687
0.336250 0.336250 0.336250
0.339812 0.339812 0.339812
0.343375 0.343375 0.343375
0.346938 0.346938 0.346938
0.350500 0.350500 0.350500
0.354063 0.354063 0.354063
0.357625 0.357625 0.357625
0.361187 0.361187 0.361187
0.364750 0.364750 0.364750
0.368312 0.368312 0.368312
0.371875 0.371875 0.371875
0.375437 0.375437 0.375437
0.379000 0.379000 0.379000
0.382562 0.382562 0.382562
0.386125 0.386125 0.386125
0.389687 0.389687 0.389687
0.393250 0.393250 0.393250
0.396813 0.396813 0.396813
0.400375 0.400375 0.400375
0.403938 0.403938 0.403938
0.407500 0.407500 0.407500
0.311844 0.311844 0.311844
0.315406 0.315406 0.315406
0.318969 0.318969 0.318969
0.322531 0.322531 0.322531
0.326094 0.326094 0.326094
0.329656 0.329656 0.329656
0.333219 0.333219 0.333219
0.336781 0.336781 0.336781
0.340344 0.340344 0.340344
0.343906 0.343906 0.343906
0.347469 0.347469 0.347469
0.351031 0.351031 0.351031
0.354594 0.354594 0.354594
0.358156 0.358156 0.358156
0.361719 0.361719 0.361719
0.365281 0.365281 0.365281
0.368844 0.368844 0.368844
0.372406 0.372406 0.372406
0.375969 0.375969 0.375969
0.379531 0.379531 0.379531
0.383094 0.383094 0.383094
0.386656 0.386656 0.386656
0.390219 0.390219 0.390219
0.393781 0.393781 0.393781
0.397344 0.397344 0.397344
0.400906 0.400906 0.400906
0.404469 0.404469 0.404469
0.408031 0.408031 0.408031
0.411594 0.411594 0.411594
0.415156 0.415156 0.415156
0.418719 0.418719 0.418719
0.422281 0.422281 0.422281
0.425844 0.425844 0.425844
0.330187 0.330187 0.330187
0.333750 0.333750 0.333750
0.337312 0.337312 0.337312
0.340875 0.340875 0.340875
0.344437 0.344437 0.344437
0.348000 0.348000 0.348000
0.351562 0.351562 0.351562
0.355125 0.355125 0.355125
0.358687 0.358687 0.358687
0.362250 0.362250 0.362250
0.365812 0.365812 0.365812
0.369375 0.369375 0.369375
0.372937 0.372937 0.372937
0.376500 0.376500 0.376500
0.380062 0.380062 0.380062
0.383625 0.383625 0.383625
0.387187 0.387187 0.387187
0.390750 0.390750 0.390750
0.394312 0.394312 0.394312
0.397875 0.397875 0.397875
0.401438 0.401438 0.401438
0.405000 0.405000 0.405000
0.408562 0.408562 0.408562
0.412125 0.412125 0.412125
0.415687 0.415687 0.415687
0.419250 0.419250 0.419250
0.422812 0.422812 0.422812
0.426375 0.426375 0.426375
0.429937 0.429937 0.429937
0.433500 0.433500 0.433500
0.437062 0.437062 0.437062
0.440625 0.440625 0.440625
0.444187 0.444187 0.444187
0.348531 0.348531 0.348531
0.352094 0.352094 0.352094
0.355656 0.355656 0.355656
0.359219 0.359219 0.359219
0.362781 0.362781 0.362781
0.366344 0.366344 0.366344
0.369906 0.369906 0.369906
0.373469 0.373469 0.373469
0.377031 0.377031 0.377031
0.380594 0.380594 0.380594
0.384156 0.384156 0.384156
0.387719 0.387719 0.387719
0.391281 0.391281 0.391281
0.394844 0.394844 0.394844
0.398406 0.398406 0.398406
0.401969 0.401969 0.401969
0.405531 0.405531 0.405531
0.409094 0.409094 0.409094
0.412656 0.412656 0.412656
0.416219 0.416219 0.416219
0.419781 0.419781 0.419781
0.423344 0.423344 0.423344
0.426906 0.426906 0.426906
0.430469 0.430469 0.430469
0.434031 0.434031 0.434031
0.437594 0.437594 0.437594
0.441156 0.441156 0.441156
0.444719 0.444719 0.444719
0.448281 0.448281 0.448281
0.451844 0.451844 0.451844
0.455406 0.455406 0.455406
0.458969 0.458969 0.458969
0.462531 0.462531 0.462531
0.366875 0.366875 0.366875
0.370437 0.370437 0.370437
0.374000 0.374000 0.374000
0.377562 0.377562 0.377562
0.381125 0.381125 0.381125
0.384687 0.384687 0.384687
0.388250 0.388250 0.388250
0.391812 0.391812 0.391812
0.395375 0.395375 0.395375
0.398937 0.398937 0.398937
0.402500 0.402500 0.402500
0.406062 0.406062 0.406062
0.409625 0.409625 0.409625
0.413187 0.413187 0.413187
0.416750 0.416750 0.416750
0.420312 0.420312 0.420312
0.423875 0.423875 0.423875
0.427437 0.427437 0.427437
0.431000 0.431000 0.431000
0.434562 0.434562 0.434562
0.438125 0.438125 0.438125
0.441687 0.441687 0.441687
0.445250 0.445250 0.445250
0.448812 0.448812 0.448812
0.452375 0.452375 0.452375
0.455937 0.455937 0.455937
0.459500 0.459500 0.459500
0.463062 0.463062 0.463062
0.466625 0.466625 0.466625
0.470187 0.470187 0.470187
0.473750 0.473750 0.473750
0.477312 0.477312 0.477312
0.480875 0.480875 0.480875
0.385219 0.385219 0.385219
0.388781 0.388781 0.388781
0.392344 0.392344 0.392344
0.395906 0.395906 0.395906
0.399469 0.399469 0.399469
0.403031 0.403031 0.403031
0.406594 0.406594 0.406594
0.410156 0.410156 0.410156
0.413719 0.413719 0.413719
0.417281 0.417281 0.417281
0.420844 0.420844 0.420844
0.424406 0.424406 0.424406
0.427969 0.427969 0.427969
0.431531 0.431531 0.431531
0.435094 0.435094 0.435094
0.438656 0.438656 0.438656
0.442219 0.442219 0.442219
0.445781 0.445781 0.445781
0.449344 0.449344 0.449344
0.452906 0.452906 0.452906
0.456469 0.456469 0.456469
0.460031 0.460031 0.460031
0.463594 0.463594 0.463594
0.467156 0.467156 0.467156
0.470719 0.470719 0.470719
0.474281 0.474281 0.474281
0.477844 0.477844 0.477844
0.481406 0.481406 0.481406
0.484969 0.484969 0.484969
0.488531 0.488531 0.488531
0.492094 0.492094 0.492094
0.495656 0.495656 0.495656
0.499219 0.499219 0.499219
0.403562 0.403562 0.403562
0.407125 0.407125 0.407125
0.410687 0.410687 0.410687
0.414250 0.414250 0.414250
0.417812 0.417812 0.417812
0.421375 0.421375 0.421375
0.424937 0.424937 0.424937
0.428500 0.428500 0.428500
0.432063 0.432063 0.432063
0.435625 0.435625 0.435625
0.439188 0.439188 0.439188
0.442750 0.442750 0.442750
0.446313 0.446313 0.446313
0.449875 0.449875 0.449875
0.453437 0.453437 0.453437
0.457000 0.457000 0.457000
0.460562 0.460562 0.460562
0.464125 0.464125 0.464125
0.467687 0.467687 0.467687
0.471250 0.471250 0.471250
0.474812 0.474812 0.474812
0.478375 0.478375 0.478375
0.481938 0.481938 0.481938
0.485500 0.485500 0.485500
0.489063 0.489063 0.489063
0.492625 0.492625 0.492625
0.496188 0.496188 0.496188
0.499750 0.499750 0.499750
0.503313 0.503313 0.503313
0.506875 0.506875 0.506875
0.510437 0.510437 0.510437
0.514000 0.514000 0.514000
0.517563 0.517563 0.517563
0.421906 0.421906 0.421906
0.425469 0.425469 0.425469
0.429031 0.429031 0.429031
0.432594 0.432594 0.432594
0.436156 0.436156 0.436156
0.439719 0.439719 0.439719
0.443281 0.443281 0.443281
0.446844 0.446844 0.446844
0.450406 0.450406 0.450406
0.453969 0.453969 0.453969
0.457531 0.457531 0.457531
0.461094 0.461094 0.461094
0.464656 0.464656 0.464656
0.468219 0.468219 0.468219
0.471781 0.471781 0.471781
0.475344 0.475344 0.475344
0.478906 0.478906 0.478906
0.482469 0.482469 0.482469
0.486031 0.486031 0.486031
0.489594 0.489594 0.489594
0.493156 0.493156 0.493156
0.496719 0.496719 0.496719
0.500281 0.500281 0.500281
0.503844 0.503844 0.503844
0.507406 0.507406 0.507406
0.510969 0.510969 0.510969
0.514531 0.514531 0.514531
0.518094 0.518094 0.518094
0.521656 0.521656 0.521656
0.525219 0.525219 0.525219
0.528781 0.528781 0.528781
0.532344 0.532344 0.532344
0.535906 0.535906 0.535906
0.440250 0.440250 0.440250
0.443812 0.443812 0.443812
0.447375 0.447375 0.447375
0.450937 0.450937 0.450937
0.454500 0.454500 0.454500
0.458062 0.458062 0.458062
0.461625 0.461625 0.461625
0.465187 0.465187 0.465187
0.468750 0.468750 0.468750
0.472312 0.472312 0.472312
0.475875 0.475875 0.475875
0.479437 0.479437 0.479437
0.483000 0.483000 0.483000
0.486562 0.486562 0.486562
0.490125 0.490125 0.490125
0.493687 0.493687 0.493687
0.497250 0.497250 0.497250
0.500812 0.500812 0.500812
0.504375 0.504375 0.504375
0.507937 0.507937 0.507937
0.511500 0.511500 0.511500
0.515062 0.515062 0.515062
0.518625 0.518625 0.518625
0.522188 0.522188 0.522188
0.525750 0.525750 0.525750
0.529312 0.529312 0.529312
0.532875 0.532875 0.532875
0.536438 0.536438 0.536438
0.540000 0.540000 0.540000
0.543562 0.543562 0.543562
0.547125 0.547125 0.547125
0.550687 0.550687 0.550687
0.554250 0.554250 0.554250
0.458594 0.458594 0.458594
0.462156 0.462156 0.462156
0.465719 0.465719 0.465719
0.469281 0.469281 0.469281
0.472844 0.472844 0.472844
0.476406 0.476406 0.476406
0.479969 0.479969 0.479969
0.483531 0.483531 0.483531
0.487094 0.487094 0.487094
0.490656 0.490656 0.490656
0.494219 0.494219 0.494219
0.497781 0.497781 0.497781
0.501344 0.501344 0.501344
0.504906 0.504906 0.504906
0.508469 0.508469 0.508469
0.512031 0.512031 0.512031
0.515594 0.515594 0.515594
0.519156 0.519156 0.519156
0.522719 0.522719 0.522719
0.526281 0.526281 0.526281
0.529844 0.529844 0.529844
0.533406 0.533406 0.533406
0.536969 0.536969 0.536969
0.540531 0.540531 0.540531
0.544094 0.544094 0.544094
0.547656 0.547656 0.547656
0.551219 0.551219 0.551219
0.554781 0.554781 0.554781
0.558344 0.558344 0.558344
0.561906 0.561906 0.561906
0.565469 0.565469 0.565469
0.569031 0.569031 0.569031
0.572594 0.572594 0.572594
0.476937 0.476937 0.476937
0.480500 0.480500 0.480500
0.484062 0.484062 0.484062
0.487625 0.487625 0.487625
0.491187 0.491187 0.491187
0.494750 0.494750 0.494750
0.498312 0.498312 0.498312
0.501875 0.501875 0.501875
0.505437 0.505437 0.505437
0.509000 0.509000 0.509000
0.512562 0.512562 0.512562
0.516125 0.516125 0.516125
0.519687 0.519687 0.519687
0.523250 0.523250 0.523250
0.526812 0.526812 0.526812
0.530375 0.530375 0.530375
0.533937 0.533937 0.533937
0.537500 0.537500 0.537500
0.541063 0.541063 0.541063
0.544625 0.544625 0.544625
0.548187 0.548187 0.548187
0.551750 0.551750 0.551750
0.555312 0.555312 0.555312
0.558875 0.558875 0.558875
0.562437 0.562437 0.562437
0.566000 0.566000 0.566000
0.569562 0.569562 0.569562
0.573125 0.573125 0.573125
0.576688 0.576688 0.576688
