assets/lut/Moody-Monochrome.cube
LUT_3D_SIZE 9
DOMAIN_MIN 0.0 0.0 0.0
DOMAIN_MAX 1.0 1.0 1.0
0.00000 0.00000 0.00000
0.00000 0.00000 0.00000
0.00000 0.00000 0.00000
0.00000 0.00000 0.00000
0.00788 0.00788 0.00788
0.04109 0.04109 0.04109
0.07431 0.07431 0.07431
0.10753 0.10753 0.10753
0.14075 0.14075 0.14075
0.00000 0.00000 0.00000
0.01997 0.01997 0.01997
0.05319 0.05319 0.05319
0.08641 0.08641 0.08641
0.11962 0.11962 0.11962
0.15284 0.15284 0.15284
0.18606 0.18606 0.18606
0.21928 0.21928 0.21928
0.25250 0.25250 0.25250
0.09850 0.09850 0.09850
0.13172 0.13172 0.13172
0.16494 0.16494 0.16494
0.19816 0.19816 0.19816
0.23137 0.23137 0.23137
0.26459 0.26459 0.26459
0.29781 0.29781 0.29781
0.33103 0.33103 0.33103
0.36425 0.36425 0.36425
0.21025 0.21025 0.21025
0.24347 0.24347 0.24347
0.27669 0.27669 0.27669
0.30991 0.30991 0.30991
0.34313 0.34313 0.34313
0.37634 0.37634 0.37634
0.40956 0.40956 0.40956
0.44278 0.44278 0.44278
0.47600 0.47600 0.47600
0.32200 0.32200 0.32200
0.35522 0.35522 0.35522
0.38844 0.38844 0.38844
0.42166 0.42166 0.42166
0.45487 0.45487 0.45487
0.48809 0.48809 0.48809
0.52131 0.52131 0.52131
0.55453 0.55453 0.55453
0.58775 0.58775 0.58775
0.43375 0.43375 0.43375
0.46697 0.46697 0.46697
0.50019 0.50019 0.50019
0.53341 0.53341 0.53341
0.56662 0.56662 0.56662
0.59984 0.59984 0.59984
0.63306 0.63306 0.63306
0.66628 0.66628 0.66628
0.69950 0.69950 0.69950
0.54550 0.54550 0.54550
0.57872 0.57872 0.57872
0.61194 0.61194 0.61194
0.64516 0.64516 0.64516
0.67838 0.67838 0.67838
0.71159 0.71159 0.71159
0.74481 0.74481 0.74481
0.77803 0.77803 0.77803
0.81125 0.81125 0.81125
0.65725 0.65725 0.65725
0.69047 0.69047 0.69047
0.72369 0.72369 0.72369
0.75691 0.75691 0.75691
0.79012 0.79012 0.79012
0.82334 0.82334 0.82334
0.85656 0.85656 0.85656
0.88978 0.88978 0.88978
0.92300 0.92300 0.92300
0.76900 0.76900 0.76900
0.80222 0.80222 0.80222
0.83544 0.83544 0.83544
0.86866 0.86866 0.86866
0.90187 0.90187 0.90187
0.93509 0.93509 0.93509
0.96831 0.96831 0.96831
1.00000 1.00000 1.00000
1.00000 1.00000 1.00000
0.00000 0.00000 0.00000
0.00000 0.00000 0.00000
0.00000 0.00000 0.00000
0.00000 0.00000 0.00000
0.01916 0.01916 0.01916
0.05238 0.05238 0.05238
0.08559 0.08559 0.08559
0.11881 0.11881 0.11881
0.15203 0.15203 0.15203
0.00000 0.00000 0.00000
0.03125 0.03125 0.03125
0.06447 0.06447 0.06447
0.09769 0.09769 0.09769
0.13091 0.13091 0.13091
0.16413 0.16413 0.16413
0.19734 0.19734 0.19734
0.23056 0.23056 0.23056
0.26378 0.26378 0.26378
0.10978 0.10978 0.10978
0.14300 0.14300 0.14300
0.17622 0.17622 0.17622
0.20944 0.20944 0.20944
0.24266 0.24266 0.24266
0.27588 0.27588 0.27588
0.30909 0.30909 0.30909
0.34231 0.34231 0.34231
0.37553 0.37553 0.37553
0.22153 0.22153 0.22153
0.25475 0.25475 0.25475
0.28797 0.28797 0.28797
0.32119 0.32119 0.32119
0.35441 0.35441 0.35441
0.38762 0.38762 0.38762
0.42084 0.42084 0.42084
0.45406 0.45406 0.45406
0.48728 0.48728 0.48728
0.33328 0.33328 0.33328
0.36650 0.36650 0.36650
0.39972 0.39972 0.39972
0.43294 0.43294 0.43294
0.46616 0.46616 0.46616
0.49938 0.49938 0.49938
0.53259 0.53259 0.53259
0.56581 0.56581 0.56581
0.59903 0.59903 0.59903
0.44503 0.44503 0.44503
0.47825 0.47825 0.47825
0.51147 0.51147 0.51147
0.54469 0.54469 0.54469
0.57791 0.57791 0.57791
0.61112 0.61112 0.61112
0.64434 0.64434 0.64434
0.67756 0.67756 0.67756
0.71078 0.71078 0.71078
0.55678 0.55678 0.55678
0.59000 0.59000 0.59000
0.62322 0.62322 0.62322
0.65644 0.65644 0.65644
0.68966 0.68966 0.68966
0.72288 0.72288 0.72288
0.75609 0.75609 0.75609
0.78931 0.78931 0.78931
0.82253 0.82253 0.82253
0.66853 0.66853 0.66853
0.70175 0.70175 0.70175
0.73497 0.73497 0.73497
0.76819 0.76819 0.76819
0.80141 0.80141 0.80141
0.83462 0.83462 0.83462
0.86784 0.86784 0.86784
0.90106 0.90106 0.90106
0.93428 0.93428 0.93428
0.78028 0.78028 0.78028
0.81350 0.81350 0.81350
0.84672 0.84672 0.84672
0.87994 0.87994 0.87994
0.91316 0.91316 0.91316
0.94637 0.94637 0.94637
0.97959 0.97959 0.97959
1.00000 1.00000 1.00000
1.00000 1.00000 1.00000
0.00000 0.00000 0.00000
0.00000 0.00000 0.00000
0.00000 0.00000 0.00000
0.00000 0.00000 0.00000
0.03044 0.03044 0.03044
0.06366 0.06366 0.06366
0.09687 0.09687 0.09687
0.13009 0.13009 0.13009
0.16331 0.16331 0.16331
0.00931 0.00931 0.00931
0.04253 0.04253 0.04253
0.07575 0.07575 0.07575
0.10897 0.10897 0.10897
0.14219 0.14219 0.14219
0.17541 0.17541 0.17541
0.20863 0.20863 0.20863
0.24184 0.24184 0.24184
0.27506 0.27506 0.27506
0.12106 0.12106 0.12106
0.15428 0.15428 0.15428
0.18750 0.18750 0.18750
0.22072 0.22072 0.22072
0.25394 0.25394 0.25394
0.28716 0.28716 0.28716
0.32038 0.32038 0.32038
0.35359 0.35359 0.35359
0.38681 0.38681 0.38681
0.23281 0.23281 0.23281
0.26603 0.26603 0.26603
0.29925 0.29925 0.29925
0.33247 0.33247 0.33247
0.36569 0.36569 0.36569
0.39891 0.39891 0.39891
0.43212 0.43212 0.43212
0.46534 0.46534 0.46534
0.49856 0.49856 0.49856
0.34456 0.34456 0.34456
0.37778 0.37778 0.37778
0.41100 0.41100 0.41100
0.44422 0.44422 0.44422
0.47744 0.47744 0.47744
0.51066 0.51066 0.51066
0.54387 0.54387 0.54387
0.57709 0.57709 0.57709
0.61031 0.61031 0.61031
0.45631 0.45631 0.45631
0.48953 0.48953 0.48953
0.52275 0.52275 0.52275
0.55597 0.55597 0.55597
0.58919 0.58919 0.58919
0.62241 0.62241 0.62241
0.65562 0.65562 0.65562
0.68884 0.68884 0.68884
0.72206 0.72206 0.72206
0.56806 0.56806 0.56806
0.60128 0.60128 0.60128
0.63450 0.63450 0.63450
0.66772 0.66772 0.66772
0.70094 0.70094 0.70094
0.73416 0.73416 0.73416
0.76737 0.76737 0.76737
0.80059 0.80059 0.80059
0.83381 0.83381 0.83381
0.67981 0.67981 0.67981
0.71303 0.71303 0.71303
0.74625 0.74625 0.74625
0.77947 0.77947 0.77947
0.81269 0.81269 0.81269
0.84591 0.84591 0.84591
0.87912 0.87912 0.87912
0.91234 0.91234 0.91234
0.94556 0.94556 0.94556
0.79156 0.79156 0.79156
0.82478 0.82478 0.82478
0.85800 0.85800 0.85800
0.89122 0.89122 0.89122
0.92444 0.92444 0.92444
0.95766 0.95766 0.95766
0.99087 0.99087 0.99087
1.00000 1.00000 1.00000
1.00000 1.00000 1.00000
0.00000 0.00000 0.00000
0.00000 0.00000 0.00000
0.00000 0.00000 0.00000
0.00850 0.00850 0.00850
0.04172 0.04172 0.04172
0.07494 0.07494 0.07494
0.10816 0.10816 0.10816
0.14138 0.14138 0.14138
0.17459 0.17459 0.17459
0.02059 0.02059 0.02059
0.05381 0.05381 0.05381
0.08703 0.08703 0.08703
0.12025 0.12025 0.12025
0.15347 0.15347 0.15347
0.18669 0.18669 0.18669
0.21991 0.21991 0.21991
0.25312 0.25312 0.25312
0.28634 0.28634 0.28634
0.13234 0.13234 0.13234
0.16556 0.16556 0.16556
0.19878 0.19878 0.19878
0.23200 0.23200 0.23200
0.26522 0.26522 0.26522
0.29844 0.29844 0.29844
0.33166 0.33166 0.33166
0.36487 0.36487 0.36487
0.39809 0.39809 0.39809
0.24409 0.24409 0.24409
0.27731 0.27731 0.27731
0.31053 0.31053 0.31053
0.34375 0.34375 0.34375
0.37697 0.37697 0.37697
0.41019 0.41019 0.41019
0.44341 0.44341 0.44341
0.47663 0.47663 0.47663
0.50984 0.50984 0.50984
0.35584 0.35584 0.35584
0.38906 0.38906 0.38906
0.42228 0.42228 0.42228
0.45550 0.45550 0.45550
0.48872 0.48872 0.48872
0.52194 0.52194 0.52194
0.55516 0.55516 0.55516
0.58837 0.58837 0.58837
0.62159 0.62159 0.62159
0.46759 0.46759 0.46759
0.50081 0.50081 0.50081
0.53403 0.53403 0.53403
0.56725 0.56725 0.56725
0.60047 0.60047 0.60047
0.63369 0.63369 0.63369
0.66691 0.66691 0.66691
0.70012 0.70012 0.70012
0.73334 0.73334 0.73334
0.57934 0.57934 0.57934
0.61256 0.61256 0.61256
0.64578 0.64578 0.64578
0.67900 0.67900 0.67900
0.71222 0.71222 0.71222
0.74544 0.74544 0.74544
0.77866 0.77866 0.77866
0.81187 0.81187 0.81187
0.84509 0.84509 0.84509
0.69109 0.69109 0.69109
0.72431 0.72431 0.72431
0.75753 0.75753 0.75753
0.79075 0.79075 0.79075
0.82397 0.82397 0.82397
0.85719 0.85719 0.85719
0.89041 0.89041 0.89041
0.92362 0.92362 0.92362
0.95684 0.95684 0.95684
0.80284 0.80284 0.80284
0.83606 0.83606 0.83606
0.86928 0.86928 0.86928
0.90250 0.90250 0.90250
0.93572 0.93572 0.93572
0.96894 0.96894 0.96894
1.00000 1.00000 1.00000
1.00000 1.00000 1.00000
1.00000 1.00000 1.00000
0.00000 0.00000 0.00000
0.00000 0.00000 0.00000
0.00000 0.00000 0.00000
0.01978 0.01978 0.01978
0.05300 0.05300 0.05300
0.08622 0.08622 0.08622
0.11944 0.11944 0.11944
0.15266 0.15266 0.15266
0.18588 0.18588 0.18588
0.03187 0.03187 0.03187
0.06509 0.06509 0.06509
0.09831 0.09831 0.09831
0.13153 0.13153 0.13153
0.16475 0.16475 0.16475
0.19797 0.19797 0.19797
0.23119 0.23119 0.23119
0.26441 0.26441 0.26441
0.29763 0.29763 0.29763
0.14363 0.14363 0.14363
0.17684 0.17684 0.17684
0.21006 0.21006 0.21006
0.24328 0.24328 0.24328
0.27650 0.27650 0.27650
0.30972 0.30972 0.30972
0.34294 0.34294 0.34294
0.37616 0.37616 0.37616
0.40937 0.40937 0.40937
0.25538 0.25538 0.25538
0.28859 0.28859 0.28859
0.32181 0.32181 0.32181
0.35503 0.35503 0.35503
0.38825 0.38825 0.38825
0.42147 0.42147 0.42147
0.45469 0.45469 0.45469
0.48791 0.48791 0.48791
0.52113 0.52113 0.52113
0.36712 0.36712 0.36712
0.40034 0.40034 0.40034
0.43356 0.43356 0.43356
0.46678 0.46678 0.46678
0.50000 0.50000 0.50000
0.53322 0.53322 0.53322
0.56644 0.56644 0.56644
0.59966 0.59966 0.59966
0.63288 0.63288 0.63288
0.47887 0.47887 0.47887
0.51209 0.51209 0.51209
0.54531 0.54531 0.54531
0.57853 0.57853 0.57853
0.61175 0.61175 0.61175
0.64497 0.64497 0.64497
0.67819 0.67819 0.67819
0.71141 0.71141 0.71141
0.74462 0.74462 0.74462
0.59062 0.59062 0.59062
0.62384 0.62384 0.62384
0.65706 0.65706 0.65706
0.69028 0.69028 0.69028
0.72350 0.72350 0.72350
0.75672 0.75672 0.75672
0.78994 0.78994 0.78994
0.82316 0.82316 0.82316
0.85637 0.85637 0.85637
0.70237 0.70237 0.70237
0.73559 0.73559 0.73559
0.76881 0.76881 0.76881
0.80203 0.80203 0.80203
0.83525 0.83525 0.83525
0.86847 0.86847 0.86847
0.90169 0.90169 0.90169
0.93491 0.93491 0.93491
0.96812 0.96812 0.96812
0.81412 0.81412 0.81412
0.84734 0.84734 0.84734
0.88056 0.88056 0.88056
0.91378 0.91378 0.91378
0.94700 0.94700 0.94700
0.98022 0.98022 0.98022
1.00000 1.00000 1.00000
1.00000 1.00000 1.00000
1.00000 1.00000 1.00000
0.00000 0.00000 0.00000
0.00000 0.00000 0.00000
0.00000 0.00000 0.00000
0.03106 0.03106 0.03106
0.06428 0.06428 0.06428
0.09750 0.09750 0.09750
0.13072 0.13072 0.13072
0.16394 0.16394 0.16394
0.19716 0.19716 0.19716
0.04316 0.04316 0.04316
0.07638 0.07638 0.07638
0.10959 0.10959 0.10959
0.14281 0.14281 0.14281
0.17603 0.17603 0.17603
0.20925 0.20925 0.20925
0.24247 0.24247 0.24247
0.27569 0.27569 0.27569
0.30891 0.30891 0.30891
0.15491 0.15491 0.15491
0.18812 0.18812 0.18812
0.22134 0.22134 0.22134
0.25456 0.25456 0.25456
0.28778 0.28778 0.28778
0.32100 0.32100 0.32100
0.35422 0.35422 0.35422
0.38744 0.38744 0.38744
0.42066 0.42066 0.42066
0.26666 0.26666 0.26666
0.29988 0.29988 0.29988
0.33309 0.33309 0.33309
0.36631 0.36631 0.36631
0.39953 0.39953 0.39953
0.43275 0.43275 0.43275
0.46597 0.46597 0.46597
0.49919 0.49919 0.49919
0.53241 0.53241 0.53241
0.37841 0.37841 0.37841
0.41163 0.41163 0.41163
0.44484 0.44484 0.44484
0.47806 0.47806 0.47806
0.51128 0.51128 0.51128
0.54450 0.54450 0.54450
0.57772 0.57772 0.57772
0.61094 0.61094 0.61094
0.64416 0.64416 0.64416
0.49016 0.49016 0.49016
0.52337 0.52337 0.52337
0.55659 0.55659 0.55659
0.58981 0.58981 0.58981
0.62303 0.62303 0.62303
0.65625 0.65625 0.65625
0.68947 0.68947 0.68947
0.72269 0.72269 0.72269
0.75591 0.75591 0.75591
0.60191 0.60191 0.60191
0.63512 0.63512 0.63512
0.66834 0.66834 0.66834
0.70156 0.70156 0.70156
0.73478 0.73478 0.73478
0.76800 0.76800 0.76800
0.80122 0.80122 0.80122
0.83444 0.83444 0.83444
0.86766 0.86766 0.86766
0.71366 0.71366 0.71366
0.74687 0.74687 0.74687
0.78009 0.78009 0.78009
0.81331 0.81331 0.81331
0.84653 0.84653 0.84653
0.87975 0.87975 0.87975
0.91297 0.91297 0.91297
0.94619 0.94619 0.94619
0.97941 0.97941 0.97941
0.82541 0.82541 0.82541
0.85862 0.85862 0.85862
0.89184 0.89184 0.89184
0.92506 0.92506 0.92506
0.95828 0.95828 0.95828
0.99150 0.99150 0.99150
1.00000 1.00000 1.00000
1.00000 1.00000 1.00000
1.00000 1.00000 1.00000
0.00000 0.00000 0.00000
0.00000 0.00000 0.00000
0.00912 0.00912 0.00912
0.04234 0.04234 0.04234
0.07556 0.07556 0.07556
0.10878 0.10878 0.10878
0.14200 0.14200 0.14200
0.17522 0.17522 0.17522
0.20844 0.20844 0.20844
0.05444 0.05444 0.05444
0.08766 0.08766 0.08766
0.12087 0.12087 0.12087
0.15409 0.15409 0.15409
0.18731 0.18731 0.18731
0.22053 0.22053 0.22053
0.25375 0.25375 0.25375
0.28697 0.28697 0.28697
0.32019 0.32019 0.32019
0.16619 0.16619 0.16619
0.19941 0.19941 0.19941
0.23263 0.23263 0.23263
0.26584 0.26584 0.26584
0.29906 0.29906 0.29906
0.33228 0.33228 0.33228
0.36550 0.36550 0.36550
0.39872 0.39872 0.39872
0.43194 0.43194 0.43194
0.27794 0.27794 0.27794
0.31116 0.31116 0.31116
0.34438 0.34438 0.34438
0.37759 0.37759 0.37759
0.41081 0.41081 0.41081
0.44403 0.44403 0.44403
0.47725 0.47725 0.47725
0.51047 0.51047 0.51047
0.54369 0.54369 0.54369
0.38969 0.38969 0.38969
0.42291 0.42291 0.42291
0.45613 0.45613 0.45613
0.48934 0.48934 0.48934
0.52256 0.52256 0.52256
0.55578 0.55578 0.55578
0.58900 0.58900 0.58900
0.62222 0.62222 0.62222
0.65544 0.65544 0.65544
0.50144 0.50144 0.50144
0.53466 0.53466 0.53466
0.56788 0.56788 0.56788
0.60109 0.60109 0.60109
0.63431 0.63431 0.63431
0.66753 0.66753 0.66753
0.70075 0.70075 0.70075
0.73397 0.73397 0.73397
0.76719 0.76719 0.76719
0.61319 0.61319 0.61319
0.64641 0.64641 0.64641
0.67963 0.67963 0.67963
0.71284 0.71284 0.71284
0.74606 0.74606 0.74606
0.77928 0.77928 0.77928
0.81250 0.81250 0.81250
0.84572 0.84572 0.84572
0.87894 0.87894 0.87894
0.72494 0.72494 0.72494
0.75816 0.75816 0.75816
0.79137 0.79137 0.79137
0.82459 0.82459 0.82459
0.85781 0.85781 0.85781
0.89103 0.89103 0.89103
0.92425 0.92425 0.92425
0.95747 0.95747 0.95747
0.99069 0.99069 0.99069
0.83669 0.83669 0.83669
0.86991 0.86991 0.86991
0.90312 0.90312 0.90312
0.93634 0.93634 0.93634
0.96956 0.96956 0.96956
1.00000 1.00000 1.00000
1.00000 1.00000 1.00000
1.00000 1.00000 1.00000
1.00000 1.00000 1.00000
0.00000 0.00000 0.00000
0.00000 0.00000 0.00000
0.02041 0.02041 0.02041
0.05363 0.05363 0.05363
0.08684 0.08684 0.08684
0.12006 0.12006 0.12006
0.15328 0.15328 0.15328
0.18650 0.18650 0.18650
0.21972 0.21972 0.21972
0.06572 0.06572 0.06572
0.09894 0.09894 0.09894
0.13216 0.13216 0.13216
0.16537 0.16537 0.16537
0.19859 0.19859 0.19859
0.23181 0.23181 0.23181
0.26503 0.26503 0.26503
0.29825 0.29825 0.29825
0.33147 0.33147 0.33147
0.17747 0.17747 0.17747
0.21069 0.21069 0.21069
0.24391 0.24391 0.24391
0.27712 0.27712 0.27712
0.31034 0.31034 0.31034
0.34356 0.34356 0.34356
0.37678 0.37678 0.37678
0.41000 0.41000 0.41000
0.44322 0.44322 0.44322
0.28922 0.28922 0.28922
0.32244 0.32244 0.32244
0.35566 0.35566 0.35566
0.38887 0.38887 0.38887
0.42209 0.42209 0.42209
0.45531 0.45531 0.45531
0.48853 0.48853 0.48853
0.52175 0.52175 0.52175
0.55497 0.55497 0.55497
0.40097 0.40097 0.40097
0.43419 0.43419 0.43419
0.46741 0.46741 0.46741
0.50062 0.50062 0.50062
0.53384 0.53384 0.53384
0.56706 0.56706 0.56706
0.60028 0.60028 0.60028
0.63350 0.63350 0.63350
0.66672 0.66672 0.66672
0.51272 0.51272 0.51272
0.54594 0.54594 0.54594
0.57916 0.57916 0.57916
0.61238 0.61238 0.61238
0.64559 0.64559 0.64559
0.67881 0.67881 0.67881
0.71203 0.71203 0.71203
0.74525 0.74525 0.74525
0.77847 0.77847 0.77847
0.62447 0.62447 0.62447
0.65769 0.65769 0.65769
0.69091 0.69091 0.69091
0.72413 0.72413 0.72413
0.75734 0.75734 0.75734
0.79056 0.79056 0.79056
0.82378 0.82378 0.82378
0.85700 0.85700 0.85700
0.89022 0.89022 0.89022
0.73622 0.73622 0.73622
0.76944 0.76944 0.76944
0.80266 0.80266 0.80266
0.83587 0.83587 0.83587
0.86909 0.86909 0.86909
0.90231 0.90231 0.90231
0.93553 0.93553 0.93553
0.96875 0.96875 0.96875
1.00000 1.00000 1.00000
0.84797 0.84797 0.84797
0.88119 0.88119 0.88119
0.91441 0.91441 0.91441
0.94762 0.94762 0.94762
0.98084 0.98084 0.98084
1.00000 1.00000 1.00000
1.00000 1.00000 1.00000
1.00000 1.00000 1.00000
1.00000 1.00000 1.00000
0.00000 0.00000 0.00000
0.00000 0.00000 0.00000
0.03169 0.03169 0.03169
0.06491 0.06491 0.06491
0.09813 0.09813 0.09813
0.13134 0.13134 0.13134
0.16456 0.16456 0.16456
0.19778 0.19778 0.19778
0.23100 0.23100 0.23100
0.07700 0.07700 0.07700
0.11022 0.11022 0.11022
0.14344 0.14344 0.14344
0.17666 0.17666 0.17666
0.20987 0.20987 0.20987
0.24309 0.24309 0.24309
0.27631 0.27631 0.27631
0.30953 0.30953 0.30953
0.34275 0.34275 0.34275
0.18875 0.18875 0.18875
0.22197 0.22197 0.22197
0.25519 0.25519 0.25519
0.28841 0.28841 0.28841
0.32162 0.32162 0.32162
0.35484 0.35484 0.35484
0.38806 0.38806 0.38806
0.42128 0.42128 0.42128
0.45450 0.45450 0.45450
0.30050 0.30050 0.30050
0.33372 0.33372 0.33372
0.36694 0.36694 0.36694
0.40016 0.40016 0.40016
0.43337 0.43337 0.43337
0.46659 0.46659 0.46659
0.49981 0.49981 0.49981
0.53303 0.53303 0.53303
0.56625 0.56625 0.56625
0.41225 0.41225 0.41225
0.44547 0.44547 0.44547
0.47869 0.47869 0.47869
0.51191 0.51191 0.51191
0.54513 0.54513 0.54513
0.57834 0.57834 0.57834
0.61156 0.61156 0.61156
0.64478 0.64478 0.64478
0.67800 0.67800 0.67800
0.52400 0.52400 0.52400
0.55722 0.55722 0.55722
0.59044 0.59044 0.59044
0.62366 0.62366 0.62366
0.65687 0.65687 0.65687
0.69009 0.69009 0.69009
0.72331 0.72331 0.72331
0.75653 0.75653 0.75653
0.78975 0.78975 0.78975
0.63575 0.63575 0.63575
0.66897 0.66897 0.66897
0.70219 0.70219 0.70219
0.73541 0.73541 0.73541
0.76863 0.76863 0.76863
0.80184 0.80184 0.80184
0.83506 0.83506 0.83506
0.86828 0.86828 0.86828
0.90150 0.90150 0.90150
0.74750 0.74750 0.74750
0.78072 0.78072 0.78072
0.81394 0.81394 0.81394
0.84716 0.84716 0.84716
0.88038 0.88038 0.88038
0.91359 0.91359 0.91359
0.94681 0.94681 0.94681
0.98003 0.98003 0.98003
1.00000 1.00000 1.00000
0.85925 0.85925 0.85925
0.89247 0.89247 0.89247
0.92569 0.92569 0.92569
0.95891 0.95891 0.95891
0.99212 0.99212 0.99212
1.00000 1.00000 1.00000
1.00000 1.00000 1.00000
1.00000 1.00000 1.00000
1.00000 1.00000 1.00000
