assets/lut/Moody-Monochrome.cube
LUT_3D_SIZE 5
DOMAIN_MIN 0.0 0.0 0.0
DOMAIN_MAX 1.0 1.0 1.0
0.00000 0.00000 0.00000
0.00000 0.00000 0.00000
0.00788 0.00788 0.00788
0.07431 0.07431 0.07431
0.14075 0.14075 0.14075
0.09850 0.09850 0.09850
0.16494 0.16494 0.16494
0.23137 0.23137 0.23137
0.29781 0.29781 0.29781
0.36425 0.36425 0.36425
0.32200 0.32200 0.32200
0.38844 0.38844 0.38844
0.45487 0.45487 0.45487
0.52131 0.52131 0.52131
0.58775 0.58775 0.58775
0.54550 0.54550 0.54550
0.61194 0.61194 0.61194
0.67838 0.67838 0.67838
0.74481 0.74481 0.74481
0.81125 0.81125 0.81125
0.76900 0.76900 0.76900
0.83544 0.83544 0.83544
0.90187 0.90187 0.90187
0.96831 0.96831 0.96831
1.00000 1.00000 1.00000
0.00000 0.00000 0.00000
0.00000 0.00000 0.00000
0.03044 0.03044 0.03044
0.09687 0.09687 0.09687
0.16331 0.16331 0.16331
0.12106 0.12106 0.12106
0.18750 0.18750 0.18750
0.25394 0.25394 0.25394
0.32038 0.32038 0.32038
0.38681 0.38681 0.38681
0.34456 0.34456 0.34456
0.41100 0.41100 0.41100
0.47744 0.47744 0.47744
0.54387 0.54387 0.54387
0.61031 0.61031 0.61031
0.56806 0.56806 0.56806
0.63450 0.63450 0.63450
0.70094 0.70094 0.70094
0.76737 0.76737 0.76737
0.83381 0.83381 0.83381
0.79156 0.79156 0.79156
0.85800 0.85800 0.85800
0.92444 0.92444 0.92444
0.99087 0.99087 0.99087
1.00000 1.00000 1.00000
0.00000 0.00000 0.00000
0.00000 0.00000 0.00000
0.05300 0.05300 0.05300
0.11944 0.11944 0.11944
0.18588 0.18588 0.18588
0.14363 0.14363 0.14363
0.21006 0.21006 0.21006
0.27650 0.27650 0.27650
0.34294 0.34294 0.34294
0.40937 0.40937 0.40937
0.36712 0.36712 0.36712
0.43356 0.43356 0.43356
0.50000 0.50000 0.50000
0.56644 0.56644 0.56644
0.63288 0.63288 0.63288
0.59062 0.59062 0.59062
0.65706 0.65706 0.65706
0.72350 0.72350 0.72350
0.78994 0.78994 0.78994
0.85637 0.85637 0.85637
0.81412 0.81412 0.81412
0.88056 0.88056 0.88056
0.94700 0.94700 0.94700
1.00000 1.00000 1.00000
1.00000 1.00000 1.00000
0.00000 0.00000 0.00000
0.00912 0.00912 0.00912
0.07556 0.07556 0.07556
0.14200 0.14200 0.14200
0.20844 0.20844 0.20844
0.16619 0.16619 0.16619
0.23263 0.23263 0.23263
0.29906 0.29906 0.29906
0.36550 0.36550 0.36550
0.43194 0.43194 0.43194
0.38969 0.38969 0.38969
0.45613 0.45613 0.45613
0.52256 0.52256 0.52256
0.58900 0.58900 0.58900
0.65544 0.65544 0.65544
0.61319 0.61319 0.61319
0.67963 0.67963 0.67963
0.74606 0.74606 0.74606
0.81250 0.81250 0.81250
0.87894 0.87894 0.87894
0.83669 0.83669 0.83669
0.90312 0.90312 0.90312
0.96956 0.96956 0.96956
1.00000 1.00000 1.00000
1.00000 1.00000 1.00000
0.00000 0.00000 0.00000
0.03169 0.03169 0.03169
0.09813 0.09813 0.09813
0.16456 0.16456 0.16456
0.23100 0.23100 0.23100
0.18875 0.18875 0.18875
0.25519 0.25519 0.25519
0.32162 0.32162 0.32162
0.38806 0.38806 0.38806
0.45450 0.45450 0.45450
0.41225 0.41225 0.41225
0.47869 0.47869 0.47869
0.54513 0.54513 0.54513
0.61156 0.61156 0.61156
0.67800 0.67800 0.67800
0.63575 0.63575 0.63575
0.70219 0.70219 0.70219
0.76863 0.76863 0.76863
0.83506 0.83506 0.83506
0.90150 0.90150 0.90150
0.85925 0.85925 0.85925
0.92569 0.92569 0.92569
0.99212 0.99212 0.99212
1.00000 1.00000 1.00000
1.00000 1.00000 1.00000
