assets/lut/Moody-Monochrome.cube
LUT_3D_SIZE 33
DOMAIN_MIN 0.0 0.0 0.0
DOMAIN_MAX 1.0 1.0 1.0
0.00000 0.00000 0.00000
0.00000 0.00000 0.00000
0.00000 0.00000 0.00000
0.00000 0.00000 0.00000
0.00000 0.00000 0.00000
0.00000 0.00000 0.00000
0.00000 0.00000 0.00000
0.00000 0.00000 0.00000
0.00000 0.00000 0.00000
0.00000 0.00000 0.00000
0.00000 0.00000 0.00000
0.00000 0.00000 0.00000
0.00000 0.00000 0.00000
0.00000 0.00000 0.00000
0.00000 0.00000 0.00000
0.00000 0.00000 0.00000
0.00788 0.00788 0.00788
0.01618 0.01618 0.01618
0.02448 0.02448 0.02448
0.03279 0.03279 0.03279
0.04109 0.04109 0.04109
0.04940 0.04940 0.04940
0.05770 0.05770 0.05770
0.06601 0.06601 0.06601
0.07431 0.07431 0.07431
0.08262 0.08262 0.08262
0.09092 0.09092 0.09092
0.09923 0.09923 0.09923
0.10753 0.10753 0.10753
0.11584 0.11584 0.11584
0.12414 0.12414 0.12414
0.13245 0.13245 0.13245
0.14075 0.14075 0.14075
0.00000 0.00000 0.00000
0.00000 0.00000 0.00000
0.00000 0.00000 0.00000
0.00000 0.00000 0.00000
0.00000 0.00000 0.00000
0.00000 0.00000 0.00000
0.00000 0.00000 0.00000
0.00000 0.00000 0.00000
0.00000 0.00000 0.00000
0.00000 0.00000 0.00000
0.00000 0.00000 0.00000
0.00000 0.00000 0.00000
0.00259 0.00259 0.00259
0.01090 0.01090 0.01090
0.01920 0.01920 0.01920
0.02751 0.02751 0.02751
0.03581 0.03581 0.03581
0.04412 0.04412 0.04412
0.05242 0.05242 0.05242
0.06073 0.06073 0.06073
0.06903 0.06903 0.06903
0.07734 0.07734 0.07734
0.08564 0.08564 0.08564
0.09395 0.09395 0.09395
0.10225 0.10225 0.10225
0.11055 0.11055 0.11055
0.11886 0.11886 0.11886
0.12716 0.12716 0.12716
0.13547 0.13547 0.13547
0.14377 0.14377 0.14377
0.15208 0.15208 0.15208
0.16038 0.16038 0.16038
0.16869 0.16869 0.16869
0.00000 0.00000 0.00000
0.00000 0.00000 0.00000
0.00000 0.00000 0.00000
0.00000 0.00000 0.00000
0.00000 0.00000 0.00000
0.00000 0.00000 0.00000
0.00000 0.00000 0.00000
0.00000 0.00000 0.00000
0.00000 0.00000 0.00000
0.00562 0.00562 0.00562
0.01392 0.01392 0.01392
0.02223 0.02223 0.02223
0.03053 0.03053 0.03053
0.03884 0.03884 0.03884
0.04714 0.04714 0.04714
0.05545 0.05545 0.05545
0.06375 0.06375 0.06375
0.07205 0.07205 0.07205
0.08036 0.08036 0.08036
0.08866 0.08866 0.08866
0.09697 0.09697 0.09697
0.10527 0.10527 0.10527
0.11358 0.11358 0.11358
0.12188 0.12188 0.12188
0.13019 0.13019 0.13019
0.13849 0.13849 0.13849
0.14680 0.14680 0.14680
0.15510 0.15510 0.15510
0.16341 0.16341 0.16341
0.17171 0.17171 0.17171
0.18002 0.18002 0.18002
0.18832 0.18832 0.18832
0.19663 0.19663 0.19663
0.00000 0.00000 0.00000
0.00000 0.00000 0.00000
0.00000 0.00000 0.00000
0.00000 0.00000 0.00000
0.00000 0.00000 0.00000
0.00034 0.00034 0.00034
0.00864 0.00864 0.00864
0.01695 0.01695 0.01695
0.02525 0.02525 0.02525
0.03355 0.03355 0.03355
0.04186 0.04186 0.04186
0.05016 0.05016 0.05016
0.05847 0.05847 0.05847
0.06677 0.06677 0.06677
0.07508 0.07508 0.07508
0.08338 0.08338 0.08338
0.09169 0.09169 0.09169
0.09999 0.09999 0.09999
0.10830 0.10830 0.10830
0.11660 0.11660 0.11660
0.12491 0.12491 0.12491
0.13321 0.13321 0.13321
0.14152 0.14152 0.14152
0.14982 0.14982 0.14982
0.15813 0.15813 0.15813
0.16643 0.16643 0.16643
0.17473 0.17473 0.17473
0.18304 0.18304 0.18304
0.19134 0.19134 0.19134
0.19965 0.19965 0.19965
0.20795 0.20795 0.20795
0.21626 0.21626 0.21626
0.22456 0.22456 0.22456
0.00000 0.00000 0.00000
0.00000 0.00000 0.00000
0.00336 0.00336 0.00336
0.01166 0.01166 0.01166
0.01997 0.01997 0.01997
0.02827 0.02827 0.02827
0.03658 0.03658 0.03658
0.04488 0.04488 0.04488
0.05319 0.05319 0.05319
0.06149 0.06149 0.06149
0.06980 0.06980 0.06980
0.07810 0.07810 0.07810
0.08641 0.08641 0.08641
0.09471 0.09471 0.09471
0.10302 0.10302 0.10302
0.11132 0.11132 0.11132
0.11962 0.11962 0.11962
0.12793 0.12793 0.12793
0.13623 0.13623 0.13623
0.14454 0.14454 0.14454
0.15284 0.15284 0.15284
0.16115 0.16115 0.16115
0.16945 0.16945 0.16945
0.17776 0.17776 0.17776
0.18606 0.18606 0.18606
0.19437 0.19437 0.19437
0.20267 0.20267 0.20267
0.21098 0.21098 0.21098
0.21928 0.21928 0.21928
0.22759 0.22759 0.22759
0.23589 0.23589 0.23589
0.24420 0.24420 0.24420
0.25250 0.25250 0.25250
0.01469 0.01469 0.01469
0.02299 0.02299 0.02299
0.03130 0.03130 0.03130
0.03960 0.03960 0.03960
0.04791 0.04791 0.04791
0.05621 0.05621 0.05621
0.06452 0.06452 0.06452
0.07282 0.07282 0.07282
0.08113 0.08113 0.08113
0.08943 0.08943 0.08943
0.09773 0.09773 0.09773
0.10604 0.10604 0.10604
0.11434 0.11434 0.11434
0.12265 0.12265 0.12265
0.13095 0.13095 0.13095
0.13926 0.13926 0.13926
0.14756 0.14756 0.14756
0.15587 0.15587 0.15587
0.16417 0.16417 0.16417
0.17248 0.17248 0.17248
0.18078 0.18078 0.18078
0.18909 0.18909 0.18909
0.19739 0.19739 0.19739
0.20570 0.20570 0.20570
0.21400 0.21400 0.21400
0.22230 0.22230 0.22230
0.23061 0.23061 0.23061
0.23891 0.23891 0.23891
0.24722 0.24722 0.24722
0.25552 0.25552 0.25552
0.26383 0.26383 0.26383
0.27213 0.27213 0.27213
0.28044 0.28044 0.28044
0.04263 0.04263 0.04263
0.05093 0.05093 0.05093
0.05923 0.05923 0.05923
0.06754 0.06754 0.06754
0.07584 0.07584 0.07584
0.08415 0.08415 0.08415
0.09245 0.09245 0.09245
0.10076 0.10076 0.10076
0.10906 0.10906 0.10906
0.11737 0.11737 0.11737
0.12567 0.12567 0.12567
0.13398 0.13398 0.13398
0.14228 0.14228 0.14228
0.15059 0.15059 0.15059
0.15889 0.15889 0.15889
0.16720 0.16720 0.16720
0.17550 0.17550 0.17550
0.18380 0.18380 0.18380
0.19211 0.19211 0.19211
0.20041 0.20041 0.20041
0.20872 0.20872 0.20872
0.21702 0.21702 0.21702
0.22533 0.22533 0.22533
0.23363 0.23363 0.23363
0.24194 0.24194 0.24194
0.25024 0.25024 0.25024
0.25855 0.25855 0.25855
0.26685 0.26685 0.26685
0.27516 0.27516 0.27516
0.28346 0.28346 0.28346
0.29177 0.29177 0.29177
0.30007 0.30007 0.30007
0.30838 0.30838 0.30838
0.07056 0.07056 0.07056
0.07887 0.07887 0.07887
0.08717 0.08717 0.08717
0.09548 0.09548 0.09548
0.10378 0.10378 0.10378
0.11209 0.11209 0.11209
0.12039 0.12039 0.12039
0.12870 0.12870 0.12870
0.13700 0.13700 0.13700
0.14530 0.14530 0.14530
0.15361 0.15361 0.15361
0.16191 0.16191 0.16191
0.17022 0.17022 0.17022
0.17852 0.17852 0.17852
0.18683 0.18683 0.18683
0.19513 0.19513 0.19513
0.20344 0.20344 0.20344
0.21174 0.21174 0.21174
0.22005 0.22005 0.22005
0.22835 0.22835 0.22835
0.23666 0.23666 0.23666
0.24496 0.24496 0.24496
0.25327 0.25327 0.25327
0.26157 0.26157 0.26157
0.26987 0.26987 0.26987
0.27818 0.27818 0.27818
0.28648 0.28648 0.28648
0.29479 0.29479 0.29479
0.30309 0.30309 0.30309
0.31140 0.31140 0.31140
0.31970 0.31970 0.31970
0.32801 0.32801 0.32801
0.33631 0.33631 0.33631
0.09850 0.09850 0.09850
0.10680 0.10680 0.10680
0.11511 0.11511 0.11511
0.12341 0.12341 0.12341
0.13172 0.13172 0.13172
0.14002 0.14002 0.14002
0.14833 0.14833 0.14833
0.15663 0.15663 0.15663
0.16494 0.16494 0.16494
0.17324 0.17324 0.17324
0.18155 0.18155 0.18155
0.18985 0.18985 0.18985
0.19816 0.19816 0.19816
0.20646 0.20646 0.20646
0.21477 0.21477 0.21477
0.22307 0.22307 0.22307
0.23137 0.23137 0.23137
0.23968 0.23968 0.23968
0.24798 0.24798 0.24798
0.25629 0.25629 0.25629
0.26459 0.26459 0.26459
0.27290 0.27290 0.27290
0.28120 0.28120 0.28120
0.28951 0.28951 0.28951
0.29781 0.29781 0.29781
0.30612 0.30612 0.30612
0.31442 0.31442 0.31442
0.32273 0.32273 0.32273
0.33103 0.33103 0.33103
0.33934 0.33934 0.33934
0.34764 0.34764 0.34764
0.35595 0.35595 0.35595
0.36425 0.36425 0.36425
0.12644 0.12644 0.12644
0.13474 0.13474 0.13474
0.14305 0.14305 0.14305
0.15135 0.15135 0.15135
0.15966 0.15966 0.15966
0.16796 0.16796 0.16796
0.17627 0.17627 0.17627
0.18457 0.18457 0.18457
0.19287 0.19287 0.19287
0.20118 0.20118 0.20118
0.20948 0.20948 0.20948
0.21779 0.21779 0.21779
0.22609 0.22609 0.22609
0.23440 0.23440 0.23440
0.24270 0.24270 0.24270
0.25101 0.25101 0.25101
0.25931 0.25931 0.25931
0.26762 0.26762 0.26762
0.27592 0.27592 0.27592
0.28423 0.28423 0.28423
0.29253 0.29253 0.29253
0.30084 0.30084 0.30084
0.30914 0.30914 0.30914
0.31745 0.31745 0.31745
0.32575 0.32575 0.32575
0.33405 0.33405 0.33405
0.34236 0.34236 0.34236
0.35066 0.35066 0.35066
0.35897 0.35897 0.35897
0.36727 0.36727 0.36727
0.37558 0.37558 0.37558
0.38388 0.38388 0.38388
0.39219 0.39219 0.39219
0.15437 0.15437 0.15437
0.16268 0.16268 0.16268
0.17098 0.17098 0.17098
0.17929 0.17929 0.17929
0.18759 0.18759 0.18759
0.19590 0.19590 0.19590
0.20420 0.20420 0.20420
0.21251 0.21251 0.21251
0.22081 0.22081 0.22081
0.22912 0.22912 0.22912
0.23742 0.23742 0.23742
0.24573 0.24573 0.24573
0.25403 0.25403 0.25403
0.26234 0.26234 0.26234
0.27064 0.27064 0.27064
0.27895 0.27895 0.27895
0.28725 0.28725 0.28725
0.29555 0.29555 0.29555
0.30386 0.30386 0.30386
0.31216 0.31216 0.31216
0.32047 0.32047 0.32047
0.32877 0.32877 0.32877
0.33708 0.33708 0.33708
0.34538 0.34538 0.34538
0.35369 0.35369 0.35369
0.36199 0.36199 0.36199
0.37030 0.37030 0.37030
0.37860 0.37860 0.37860
0.38691 0.38691 0.38691
0.39521 0.39521 0.39521
0.40352 0.40352 0.40352
0.41182 0.41182 0.41182
0.42012 0.42012 0.42012
0.18231 0.18231 0.18231
0.19062 0.19062 0.19062
0.19892 0.19892 0.19892
0.20723 0.20723 0.20723
0.21553 0.21553 0.21553
0.22384 0.22384 0.22384
0.23214 0.23214 0.23214
0.24045 0.24045 0.24045
0.24875 0.24875 0.24875
0.25705 0.25705 0.25705
0.26536 0.26536 0.26536
0.27366 0.27366 0.27366
0.28197 0.28197 0.28197
0.29027 0.29027 0.29027
0.29858 0.29858 0.29858
0.30688 0.30688 0.30688
0.31519 0.31519 0.31519
0.32349 0.32349 0.32349
0.33180 0.33180 0.33180
0.34010 0.34010 0.34010
0.34841 0.34841 0.34841
0.35671 0.35671 0.35671
0.36502 0.36502 0.36502
0.37332 0.37332 0.37332
0.38162 0.38162 0.38162
0.38993 0.38993 0.38993
0.39823 0.39823 0.39823
0.40654 0.40654 0.40654
0.41484 0.41484 0.41484
0.42315 0.42315 0.42315
0.43145 0.43145 0.43145
0.43976 0.43976 0.43976
0.44806 0.44806 0.44806
0.21025 0.21025 0.21025
0.21855 0.21855 0.21855
0.22686 0.22686 0.22686
0.23516 0.23516 0.23516
0.24347 0.24347 0.24347
0.25177 0.25177 0.25177
0.26008 0.26008 0.26008
0.26838 0.26838 0.26838
0.27669 0.27669 0.27669
0.28499 0.28499 0.28499
0.29330 0.29330 0.29330
0.30160 0.30160 0.30160
0.30991 0.30991 0.30991
0.31821 0.31821 0.31821
0.32652 0.32652 0.32652
0.33482 0.33482 0.33482
0.34313 0.34313 0.34313
0.35143 0.35143 0.35143
0.35973 0.35973 0.35973
0.36804 0.36804 0.36804
0.37634 0.37634 0.37634
0.38465 0.38465 0.38465
0.39295 0.39295 0.39295
0.40126 0.40126 0.40126
0.40956 0.40956 0.40956
0.41787 0.41787 0.41787
0.42617 0.42617 0.42617
0.43448 0.43448 0.43448
0.44278 0.44278 0.44278
0.45109 0.45109 0.45109
0.45939 0.45939 0.45939
0.46770 0.46770 0.46770
0.47600 0.47600 0.47600
0.23819 0.23819 0.23819
0.24649 0.24649 0.24649
0.25480 0.25480 0.25480
0.26310 0.26310 0.26310
0.27141 0.27141 0.27141
0.27971 0.27971 0.27971
0.28802 0.28802 0.28802
0.29632 0.29632 0.29632
0.30463 0.30463 0.30463
0.31293 0.31293 0.31293
0.32123 0.32123 0.32123
0.32954 0.32954 0.32954
0.33784 0.33784 0.33784
0.34615 0.34615 0.34615
0.35445 0.35445 0.35445
0.36276 0.36276 0.36276
0.37106 0.37106 0.37106
0.37937 0.37937 0.37937
0.38767 0.38767 0.38767
0.39598 0.39598 0.39598
0.40428 0.40428 0.40428
0.41259 0.41259 0.41259
0.42089 0.42089 0.42089
0.42920 0.42920 0.42920
0.43750 0.43750 0.43750
0.44580 0.44580 0.44580
0.45411 0.45411 0.45411
0.46241 0.46241 0.46241
0.47072 0.47072 0.47072
0.47902 0.47902 0.47902
0.48733 0.48733 0.48733
0.49563 0.49563 0.49563
0.50394 0.50394 0.50394
0.26612 0.26612 0.26612
0.27443 0.27443 0.27443
0.28273 0.28273 0.28273
0.29104 0.29104 0.29104
0.29934 0.29934 0.29934
0.30765 0.30765 0.30765
0.31595 0.31595 0.31595
0.32426 0.32426 0.32426
0.33256 0.33256 0.33256
0.34087 0.34087 0.34087
0.34917 0.34917 0.34917
0.35748 0.35748 0.35748
0.36578 0.36578 0.36578
0.37409 0.37409 0.37409
0.38239 0.38239 0.38239
0.39070 0.39070 0.39070
0.39900 0.39900 0.39900
0.40730 0.40730 0.40730
0.41561 0.41561 0.41561
0.42391 0.42391 0.42391
0.43222 0.43222 0.43222
0.44052 0.44052 0.44052
0.44883 0.44883 0.44883
0.45713 0.45713 0.45713
0.46544 0.46544 0.46544
0.47374 0.47374 0.47374
0.48205 0.48205 0.48205
0.49035 0.49035 0.49035
0.49866 0.49866 0.49866
0.50696 0.50696 0.50696
0.51527 0.51527 0.51527
0.52357 0.52357 0.52357
0.53187 0.53187 0.53187
0.29406 0.29406 0.29406
0.30237 0.30237 0.30237
0.31067 0.31067 0.31067
0.31898 0.31898 0.31898
0.32728 0.32728 0.32728
0.33559 0.33559 0.33559
0.34389 0.34389 0.34389
0.35220 0.35220 0.35220
0.36050 0.36050 0.36050
0.36880 0.36880 0.36880
0.37711 0.37711 0.37711
0.38541 0.38541 0.38541
0.39372 0.39372 0.39372
0.40202 0.40202 0.40202
0.41033 0.41033 0.41033
0.41863 0.41863 0.41863
0.42694 0.42694 0.42694
0.43524 0.43524 0.43524
0.44355 0.44355 0.44355
0.45185 0.45185 0.45185
0.46016 0.46016 0.46016
0.46846 0.46846 0.46846
0.47677 0.47677 0.47677
0.48507 0.48507 0.48507
0.49338 0.49338 0.49338
0.50168 0.50168 0.50168
0.50998 0.50998 0.50998
0.51829 0.51829 0.51829
0.52659 0.52659 0.52659
0.53490 0.53490 0.53490
0.54320 0.54320 0.54320
0.55151 0.55151 0.55151
0.55981 0.55981 0.55981
0.32200 0.32200 0.32200
0.33030 0.33030 0.33030
0.33861 0.33861 0.33861
0.34691 0.34691 0.34691
0.35522 0.35522 0.35522
0.36352 0.36352 0.36352
0.37183 0.37183 0.37183
0.38013 0.38013 0.38013
0.38844 0.38844 0.38844
0.39674 0.39674 0.39674
0.40505 0.40505 0.40505
0.41335 0.41335 0.41335
0.42166 0.42166 0.42166
0.42996 0.42996 0.42996
0.43827 0.43827 0.43827
0.44657 0.44657 0.44657
0.45487 0.45487 0.45487
0.46318 0.46318 0.46318
0.47148 0.47148 0.47148
0.47979 0.47979 0.47979
0.48809 0.48809 0.48809
0.49640 0.49640 0.49640
0.50470 0.50470 0.50470
0.51301 0.51301 0.51301
0.52131 0.52131 0.52131
0.52962 0.52962 0.52962
0.53792 0.53792 0.53792
0.54623 0.54623 0.54623
0.55453 0.55453 0.55453
0.56284 0.56284 0.56284
0.57114 0.57114 0.57114
0.57945 0.57945 0.57945
0.58775 0.58775 0.58775
0.34994 0.34994 0.34994
0.35824 0.35824 0.35824
0.36655 0.36655 0.36655
0.37485 0.37485 0.37485
0.38316 0.38316 0.38316
0.39146 0.39146 0.39146
0.39977 0.39977 0.39977
0.40807 0.40807 0.40807
0.41637 0.41637 0.41637
0.42468 0.42468 0.42468
0.43298 0.43298 0.43298
0.44129 0.44129 0.44129
0.44959 0.44959 0.44959
0.45790 0.45790 0.45790
0.46620 0.46620 0.46620
0.47451 0.47451 0.47451
0.48281 0.48281 0.48281
0.49112 0.49112 0.49112
0.49942 0.49942 0.49942
0.50773 0.50773 0.50773
0.51603 0.51603 0.51603
0.52434 0.52434 0.52434
0.53264 0.53264 0.53264
0.54095 0.54095 0.54095
0.54925 0.54925 0.54925
0.55755 0.55755 0.55755
0.56586 0.56586 0.56586
0.57416 0.57416 0.57416
0.58247 0.58247 0.58247
0.59077 0.59077 0.59077
0.59908 0.59908 0.59908
0.60738 0.60738 0.60738
0.61569 0.61569 0.61569
0.37787 0.37787 0.37787
0.38618 0.38618 0.38618
0.39448 0.39448 0.39448
0.40279 0.40279 0.40279
0.41109 0.41109 0.41109
0.41940 0.41940 0.41940
0.42770 0.42770 0.42770
0.43601 0.43601 0.43601
0.44431 0.44431 0.44431
0.45262 0.45262 0.45262
0.46092 0.46092 0.46092
0.46923 0.46923 0.46923
0.47753 0.47753 0.47753
0.48584 0.48584 0.48584
0.49414 0.49414 0.49414
0.50245 0.50245 0.50245
0.51075 0.51075 0.51075
0.51905 0.51905 0.51905
0.52736 0.52736 0.52736
0.53566 0.53566 0.53566
0.54397 0.54397 0.54397
0.55227 0.55227 0.55227
0.56058 0.56058 0.56058
0.56888 0.56888 0.56888
0.57719 0.57719 0.57719
0.58549 0.58549 0.58549
0.59380 0.59380 0.59380
0.60210 0.60210 0.60210
0.61041 0.61041 0.61041
0.61871 0.61871 0.61871
0.62702 0.62702 0.62702
0.63532 0.63532 0.63532
0.64363 0.64363 0.64363
0.40581 0.40581 0.40581
0.41412 0.41412 0.41412
0.42242 0.42242 0.42242
0.43073 0.43073 0.43073
0.43903 0.43903 0.43903
0.44734 0.44734 0.44734
0.45564 0.45564 0.45564
0.46395 0.46395 0.46395
0.47225 0.47225 0.47225
0.48055 0.48055 0.48055
0.48886 0.48886 0.48886
0.49716 0.49716 0.49716
0.50547 0.50547 0.50547
0.51377 0.51377 0.51377
0.52208 0.52208 0.52208
0.53038 0.53038 0.53038
0.53869 0.53869 0.53869
0.54699 0.54699 0.54699
0.55530 0.55530 0.55530
0.56360 0.56360 0.56360
0.57191 0.57191 0.57191
0.58021 0.58021 0.58021
0.58852 0.58852 0.58852
0.59682 0.59682 0.59682
0.60512 0.60512 0.60512
0.61343 0.61343 0.61343
0.62173 0.62173 0.62173
0.63004 0.63004 0.63004
0.63834 0.63834 0.63834
0.64665 0.64665 0.64665
0.65495 0.65495 0.65495
0.66326 0.66326 0.66326
0.67156 0.67156 0.67156
0.43375 0.43375 0.43375
0.44205 0.44205 0.44205
0.45036 0.45036 0.45036
0.45866 0.45866 0.45866
0.46697 0.46697 0.46697
0.47527 0.47527 0.47527
0.48358 0.48358 0.48358
0.49188 0.49188 0.49188
0.50019 0.50019 0.50019
0.50849 0.50849 0.50849
0.51680 0.51680 0.51680
0.52510 0.52510 0.52510
0.53341 0.53341 0.53341
0.54171 0.54171 0.54171
0.55002 0.55002 0.55002
0.55832 0.55832 0.55832
0.56662 0.56662 0.56662
0.57493 0.57493 0.57493
0.58323 0.58323 0.58323
0.59154 0.59154 0.59154
0.59984 0.59984 0.59984
0.60815 0.60815 0.60815
0.61645 0.61645 0.61645
0.62476 0.62476 0.62476
0.63306 0.63306 0.63306
0.64137 0.64137 0.64137
0.64967 0.64967 0.64967
0.65798 0.65798 0.65798
0.66628 0.66628 0.66628
0.67459 0.67459 0.67459
0.68289 0.68289 0.68289
0.69120 0.69120 0.69120
0.69950 0.69950 0.69950
0.46169 0.46169 0.46169
0.46999 0.46999 0.46999
0.47830 0.47830 0.47830
0.48660 0.48660 0.48660
0.49491 0.49491 0.49491
0.50321 0.50321 0.50321
0.51152 0.51152 0.51152
0.51982 0.51982 0.51982
0.52812 0.52812 0.52812
0.53643 0.53643 0.53643
0.54473 0.54473 0.54473
0.55304 0.55304 0.55304
0.56134 0.56134 0.56134
0.56965 0.56965 0.56965
0.57795 0.57795 0.57795
0.58626 0.58626 0.58626
0.59456 0.59456 0.59456
0.60287 0.60287 0.60287
0.61117 0.61117 0.61117
0.61948 0.61948 0.61948
0.62778 0.62778 0.62778
0.63609 0.63609 0.63609
0.64439 0.64439 0.64439
0.65270 0.65270 0.65270
0.66100 0.66100 0.66100
0.66930 0.66930 0.66930
0.67761 0.67761 0.67761
0.68591 0.68591 0.68591
0.69422 0.69422 0.69422
0.70252 0.70252 0.70252
0.71083 0.71083 0.71083
0.71913 0.71913 0.71913
0.72744 0.72744 0.72744
0.48962 0.48962 0.48962
0.49793 0.49793 0.49793
0.50623 0.50623 0.50623
0.51454 0.51454 0.51454
0.52284 0.52284 0.52284
0.53115 0.53115 0.53115
0.53945 0.53945 0.53945
0.54776 0.54776 0.54776
0.55606 0.55606 0.55606
0.56437 0.56437 0.56437
0.57267 0.57267 0.57267
0.58098 0.58098 0.58098
0.58928 0.58928 0.58928
0.59759 0.59759 0.59759
0.60589 0.60589 0.60589
0.61420 0.61420 0.61420
0.62250 0.62250 0.62250
0.63080 0.63080 0.63080
0.63911 0.63911 0.63911
0.64741 0.64741 0.64741
0.65572 0.65572 0.65572
0.66402 0.66402 0.66402
0.67233 0.67233 0.67233
0.68063 0.68063 0.68063
0.68894 0.68894 0.68894
0.69724 0.69724 0.69724
0.70555 0.70555 0.70555
0.71385 0.71385 0.71385
0.72216 0.72216 0.72216
0.73046 0.73046 0.73046
0.73877 0.73877 0.73877
0.74707 0.74707 0.74707
0.75537 0.75537 0.75537
0.51756 0.51756 0.51756
0.52587 0.52587 0.52587
0.53417 0.53417 0.53417
0.54248 0.54248 0.54248
0.55078 0.55078 0.55078
0.55909 0.55909 0.55909
0.56739 0.56739 0.56739
0.57570 0.57570 0.57570
0.58400 0.58400 0.58400
0.59230 0.59230 0.59230
0.60061 0.60061 0.60061
0.60891 0.60891 0.60891
0.61722 0.61722 0.61722
0.62552 0.62552 0.62552
0.63383 0.63383 0.63383
0.64213 0.64213 0.64213
0.65044 0.65044 0.65044
0.65874 0.65874 0.65874
0.66705 0.66705 0.66705
0.67535 0.67535 0.67535
0.68366 0.68366 0.68366
0.69196 0.69196 0.69196
0.70027 0.70027 0.70027
0.70857 0.70857 0.70857
0.71687 0.71687 0.71687
0.72518 0.72518 0.72518
0.73348 0.73348 0.73348
0.74179 0.74179 0.74179
0.75009 0.75009 0.75009
0.75840 0.75840 0.75840
0.76670 0.76670 0.76670
0.77501 0.77501 0.77501
0.78331 0.78331 0.78331
0.54550 0.54550 0.54550
0.55380 0.55380 0.55380
0.56211 0.56211 0.56211
0.57041 0.57041 0.57041
0.57872 0.57872 0.57872
0.58702 0.58702 0.58702
0.59533 0.59533 0.59533
0.60363 0.60363 0.60363
0.61194 0.61194 0.61194
0.62024 0.62024 0.62024
0.62855 0.62855 0.62855
0.63685 0.63685 0.63685
0.64516 0.64516 0.64516
0.65346 0.65346 0.65346
0.66177 0.66177 0.66177
0.67007 0.67007 0.67007
0.67838 0.67838 0.67838
0.68668 0.68668 0.68668
0.69498 0.69498 0.69498
0.70329 0.70329 0.70329
0.71159 0.71159 0.71159
0.71990 0.71990 0.71990
0.72820 0.72820 0.72820
0.73651 0.73651 0.73651
0.74481 0.74481 0.74481
0.75312 0.75312 0.75312
0.76142 0.76142 0.76142
0.76973 0.76973 0.76973
0.77803 0.77803 0.77803
0.78634 0.78634 0.78634
0.79464 0.79464 0.79464
0.80295 0.80295 0.80295
0.81125 0.81125 0.81125
0.57344 0.57344 0.57344
0.58174 0.58174 0.58174
0.59005 0.59005 0.59005
0.59835 0.59835 0.59835
0.60666 0.60666 0.60666
0.61496 0.61496 0.61496
0.62327 0.62327 0.62327
0.63157 0.63157 0.63157
0.63987 0.63987 0.63987
0.64818 0.64818 0.64818
0.65648 0.65648 0.65648
0.66479 0.66479 0.66479
0.67309 0.67309 0.67309
0.68140 0.68140 0.68140
0.68970 0.68970 0.68970
0.69801 0.69801 0.69801
0.70631 0.70631 0.70631
0.71462 0.71462 0.71462
0.72292 0.72292 0.72292
0.73123 0.73123 0.73123
0.73953 0.73953 0.73953
0.74784 0.74784 0.74784
0.75614 0.75614 0.75614
0.76445 0.76445 0.76445
0.77275 0.77275 0.77275
0.78105 0.78105 0.78105
0.78936 0.78936 0.78936
0.79766 0.79766 0.79766
0.80597 0.80597 0.80597
0.81427 0.81427 0.81427
0.82258 0.82258 0.82258
0.83088 0.83088 0.83088
0.83919 0.83919 0.83919
0.60137 0.60137 0.60137
0.60968 0.60968 0.60968
0.61798 0.61798 0.61798
0.62629 0.62629 0.62629
0.63459 0.63459 0.63459
0.64290 0.64290 0.64290
0.65120 0.65120 0.65120
0.65951 0.65951 0.65951
0.66781 0.66781 0.66781
0.67612 0.67612 0.67612
0.68442 0.68442 0.68442
0.69273 0.69273 0.69273
0.70103 0.70103 0.70103
0.70934 0.70934 0.70934
0.71764 0.71764 0.71764
0.72595 0.72595 0.72595
0.73425 0.73425 0.73425
0.74255 0.74255 0.74255
0.75086 0.75086 0.75086
0.75916 0.75916 0.75916
0.76747 0.76747 0.76747
0.77577 0.77577 0.77577
0.78408 0.78408 0.78408
0.79238 0.79238 0.79238
0.80069 0.80069 0.80069
0.80899 0.80899 0.80899
0.81730 0.81730 0.81730
0.82560 0.82560 0.82560
0.83391 0.83391 0.83391
0.84221 0.84221 0.84221
0.85052 0.85052 0.85052
0.85882 0.85882 0.85882
0.86712 0.86712 0.86712
0.62931 0.62931 0.62931
0.63762 0.63762 0.63762
0.64592 0.64592 0.64592
0.65423 0.65423 0.65423
0.66253 0.66253 0.66253
0.67084 0.67084 0.67084
0.67914 0.67914 0.67914
0.68745 0.68745 0.68745
0.69575 0.69575 0.69575
