assets/lut/TH1_AmberFadedClassicRetro.cube
TITLE "25x25x25 Adobe/IRIDAS cube 3D LUT"
LUT_3D_SIZE 9
0.064319901 0.047370173 0.057044394
0.20654881 0.057791103 0.054357834
0.352431148 0.058834907 0.058434445
0.475979269 0.070962206 0.058317333
0.576501012 0.08163169 0.058534849
0.668142438 0.093921289 0.059971724
0.757236242 0.107793398 0.063606247
0.843779325 0.121358581 0.068451352
0.931445777 0.134117618 0.073580667
0.095956258 0.150825709 0.077917486
0.242402077 0.166035295 0.070990838
0.392620116 0.162819684 0.073304228
0.504107058 0.177174851 0.073330589
0.597239733 0.186449155 0.072620653
0.685220599 0.197786987 0.074892946
0.771214366 0.211404204 0.079453506
0.857337832 0.224889725 0.084875591
0.944419086 0.237117887 0.090309918
0.122555412 0.27374211 0.097030357
0.278115511 0.290014923 0.099324435
0.420761675 0.287147611 0.088272445
0.528733015 0.288135856 0.086191513
0.614907682 0.296309471 0.084604427
0.698073983 0.307476103 0.086704858
0.783219337 0.319719106 0.092390992
0.869022369 0.330647528 0.09863656
0.955333829 0.341325998 0.104752772
0.167143568 0.408933163 0.118573695
0.325471729 0.435809731 0.125408784
0.442498565 0.436060786 0.110331669
0.545897901 0.431551129 0.100401975
0.633133948 0.419192463 0.102049351
0.715986073 0.40991044 0.106516227
0.791309416 0.43476969 0.101894721
0.873939753 0.45181191 0.103445992
0.959450543 0.462506592 0.110076316
0.220198706 0.517545998 0.142541915
0.364842683 0.542108536 0.148975164
0.473130614 0.555227757 0.138641655
0.559870243 0.552308738 0.124062121
0.641646862 0.546801925 0.118684746
0.722157359 0.543311715 0.119947962
0.809349179 0.536320031 0.128844216
0.894529879 0.542936921 0.132951483
0.970749974 0.573403299 0.129253328
0.275557011 0.611346006 0.168939754
0.405445397 0.637131751 0.177873299
0.50490582 0.653285205 0.172044575
0.584046543 0.65448457 0.15974699
0.654004335 0.649203002 0.149423391
0.731205523 0.648928463 0.145093635
0.812871099 0.653719902 0.148091495
0.902272463 0.654435933 0.158962682
0.993925035 0.652105391 0.170773551
0.334113866 0.710279286 0.205813855
0.45113945 0.736334503 0.217901945
0.540650129 0.75144726 0.215480968
0.613952398 0.750531256 0.204064116
0.679705262 0.747210264 0.19288604
0.746532738 0.743311286 0.181829751
0.822637618 0.74623549 0.176700205
0.902256548 0.75413698 0.177222535
0.988093317 0.757964969 0.184560567
0.388016492 0.810245216 0.24419035
0.491916686 0.830112457 0.254706949
0.572302639 0.843375802 0.256612599
0.642096341 0.841204524 0.246362597
0.706442475 0.838242531 0.235613644
0.769979835 0.83381933 0.223369032
0.836224139 0.831072569 0.210021764
0.909876883 0.835976601 0.202551171
0.987439513 0.846378326 0.201888561
0.432822257 0.904058874 0.277410448
0.526275218 0.916112959 0.283972234
0.599939585 0.929917693 0.290805042
0.666695714 0.928991556 0.284252316
0.730010927 0.92584151 0.274271339
0.792115867 0.920580208 0.262305021
0.856354356 0.916291833 0.247900575
0.921675384 0.916216493 0.234037355
0.993939221 0.924221575 0.22636494
0.062863998 0.059354357 0.148355588
0.198660776 0.085030735 0.16021125
0.354908019 0.091611467 0.161012694
0.478300333 0.094892234 0.155429438
0.578212619 0.106815316 0.153515711
0.667918444 0.117186144 0.15162383
0.753039896 0.128461197 0.152501315
0.838979065 0.142575175 0.156343564
0.926718295 0.156677529 0.161479443
0.088655263 0.169103816 0.169852465
0.245848879 0.194885001 0.182962894
0.402943671 0.203828335 0.183151335
0.519322932 0.214732781 0.17649509
0.612546504 0.224348471 0.1703192
0.69372952 0.231308907 0.165891439
0.774666369 0.24235563 0.167654157
0.857760787 0.25499481 0.172027379
0.942816794 0.267685056 0.177798674
0.129721329 0.300305814 0.185067579
0.287695706 0.343912065 0.207165092
0.430734664 0.347633123 0.204209805
0.55161798 0.341417283 0.201376423
0.636161506 0.340021759 0.194147125
0.712860763 0.342472345 0.188566566
0.790792644 0.350305587 0.187964961
0.871731997 0.360736907 0.190473154
0.955190361 0.37254557 0.196111187
0.176454663 0.425518036 0.204912186
0.325096965 0.465518206 0.232064649
0.451450616 0.484585196 0.233179599
0.558411777 0.482764363 0.218306482
0.64438659 0.463635713 0.212437645
0.720446944 0.462235123 0.210380226
0.798967361 0.471376866 0.21075806
0.88102442 0.479833931 0.215477213
0.964861035 0.489980727 0.222815871
0.224884525 0.530672371 0.231708825
0.368571401 0.563803315 0.262896329
0.483482927 0.589776456 0.26768136
0.572442174 0.592621267 0.249878421
0.65147388 0.583619118 0.238601014
0.732191801 0.574633062 0.237708643
0.816078603 0.570193648 0.245763257
0.890817702 0.597585261 0.245505348
0.970133364 0.619467378 0.252218932
0.28083995 0.632372677 0.270580828
0.415766209 0.663681328 0.302807778
0.52054137 0.687017858 0.310053587
0.601161182 0.692324221 0.295634747
0.669186473 0.685853601 0.279322058
0.74043256 0.679795384 0.270276934
0.820506692 0.676846504 0.268648803
0.90578258 0.672583938 0.279436231
0.986063361 0.686741471 0.287995338
0.333752155 0.732831001 0.31087774
0.458354712 0.759407461 0.34003669
0.553457201 0.776734293 0.348348856
0.627504647 0.781818867 0.339310974
0.693615973 0.776969552 0.323328137
0.75491178 0.769724905 0.308281571
0.825738072 0.767083645 0.297128707
0.90367943 0.769788623 0.295476079
0.98623997 0.769178271 0.305989891
0.376192898 0.828805983 0.347884744
0.495376348 0.847341895 0.370777279
0.580954075 0.858986139 0.379803926
0.651319206 0.866835654 0.379290104
0.71600616 0.862330556 0.364554703
0.775668323 0.855099499 0.348743081
0.837992013 0.850090861 0.333079696
0.908161581 0.850665629 0.321186602
0.983368933 0.856855929 0.318410844
0.412549019 0.919987619 0.380297393
0.526668191 0.930471778 0.396848232
0.606009245 0.938342094 0.406568408
0.671778798 0.949656963 0.413132697
0.735098839 0.945724845 0.402172595
0.794578016 0.939148247 0.387557209
0.854649246 0.932947516 0.371820092
0.918834984 0.929625094 0.354118615
0.988575578 0.932846844 0.340795517
0.080199592 0.074732684 0.235645294
0.207611084 0.101051301 0.255407989
0.361087918 0.117142111 0.274137378
0.488616735 0.124174207 0.287568986
0.585272849 0.134226695 0.285292357
0.669597149 0.146434098 0.274136424
0.750194848 0.155616418 0.263436466
0.832010925 0.16713953 0.261510164
0.915990412 0.178834215 0.264202327
0.105420664 0.190314516 0.264069527
0.247165322 0.21725145 0.290884227
0.408629298 0.244890943 0.313990623
0.535294175 0.257953137 0.316013634
0.626567364 0.266815722 0.310239375
0.703511119 0.273370862 0.296948075
0.778722227 0.280289829 0.287862003
0.85827899 0.291266263 0.285747319
0.940247297 0.303633094 0.288689375
0.138487086 0.310558885 0.291680783
0.284698963 0.359014362 0.319052607
0.433946997 0.38193509 0.344335556
0.567182481 0.393105179 0.350733221
0.65888387 0.39732179 0.341402799
0.731975317 0.397164613 0.326868653
0.804412663 0.403101236 0.320481211
0.880966544 0.413110286 0.321691126
0.958783746 0.423728675 0.325750589
0.185282916 0.437140167 0.306874901
0.325021118 0.484763443 0.339945138
0.461421311 0.519516051 0.366292059
0.57416451 0.528267026 0.368531287
0.669686258 0.514367461 0.36768195
0.743558466 0.507978976 0.357987255
0.816410184 0.514180243 0.352540076
0.89095825 0.526141822 0.354068726
0.968065679 0.537924409 0.358645082
0.234147415 0.550785959 0.332403779
0.366806537 0.588785172 0.36585328
0.497600436 0.619387388 0.391462654
0.590861201 0.633883536 0.394759178
0.671449721 0.628439605 0.383064985
0.746019781 0.614601552 0.37955004
0.818434775 0.61574471 0.375229269
0.892319322 0.627926171 0.377601564
0.970753551 0.640932024 0.383655906
0.282221645 0.652852416 0.366906136
0.410358906 0.683518529 0.397843689
0.527851343 0.709041715 0.419771731
0.612284541 0.721117675 0.424595028
0.682484388 0.719526887 0.412122428
0.748496532 0.712414503 0.401468843
0.823065758 0.7045964 0.399859309
0.901841342 0.698772967 0.403351754
0.971752763 0.726756454 0.400816441
0.328188986 0.746387064 0.402018875
0.445662528 0.774421632 0.431696951
0.555912793 0.791319907 0.447290778
0.63357836 0.800562143 0.453522086
0.699287295 0.802771807 0.44786495
0.760577679 0.79751879 0.436008453
0.824329197 0.792860031 0.424630493
0.899430335 0.788872063 0.419487953
0.981469333 0.77950114 0.425799459
0.366346478 0.836442769 0.433891773
0.4752478 0.860085547 0.462246805
0.58085078 0.870297432 0.473359346
0.652927756 0.877398968 0.48164168
0.715985477 0.882714868 0.48325181
0.776238441 0.87761122 0.472929597
0.836365521 0.872404754 0.458860159
0.901727021 0.868850172 0.442078859
0.976728082 0.866928995 0.434477806
0.39638719 0.924607158 0.463261455
0.501848996 0.942652822 0.489032954
0.603226244 0.948887467 0.498518556
0.671686471 0.953971386 0.507048249
0.731743753 0.960984349 0.513306975
0.791489482 0.956133544 0.505903006
0.850208759 0.950009644 0.492519557
0.91340816 0.945862651 0.473535329
0.981268764 0.943906307 0.456065983
0.103396669 0.091331452 0.321298689
0.22683315 0.114256084 0.343121022
0.368356854 0.139202878 0.367658764
0.507620156 0.158485681 0.389944822
0.608225346 0.17257987 0.406683624
0.690215707 0.184967011 0.410390556
0.765402794 0.196167335 0.409325004
0.83915329 0.208066389 0.411906183
0.91463238 0.22121495 0.418812186
0.124099858 0.210824788 0.352401882
0.26758945 0.244167343 0.382756263
0.413601339 0.277576983 0.414331943
0.546400905 0.302957863 0.440010011
0.643128097 0.315807998 0.449023455
0.722542942 0.322664708 0.447133273
0.792865455 0.329530954 0.445108354
0.862462223 0.339281678 0.447877496
0.937072098 0.350506335 0.453075171
0.150387883 0.327731013 0.382601112
0.298393905 0.377755404 0.41778031
0.437256247 0.403777122 0.449388057
0.563822269 0.426373452 0.477464259
0.665938199 0.444484353 0.484255254
0.746565759 0.44886747 0.478194714
0.815750957 0.456600338 0.476489842
0.884617925 0.466006875 0.477139622
0.95790422 0.474767536 0.479208976
0.199766144 0.451976985 0.416697234
0.337052196 0.493799418 0.45295909
0.458689898 0.523113906 0.474207848
0.573408663 0.541356444 0.502478719
0.682164073 0.550050557 0.507722914
0.759726405 0.552771628 0.498984128
0.827204943 0.55555433 0.493636966
0.894730806 0.564362586 0.49237448
0.967142403 0.577333808 0.496275336
0.248278096 0.565153897 0.440541357
0.370978653 0.603968561 0.475193858
0.488148391 0.632810891 0.497473866
0.595480382 0.65598309 0.517522752
0.681377053 0.658195376 0.514604986
0.764289379 0.646439195 0.511978745
0.830223083 0.64354831 0.510329425
0.896912992 0.647369325 0.508201659
0.969357252 0.659467578 0.512155414
0.286575526 0.669763029 0.468941718
0.403744847 0.700803697 0.500064671
0.518607914 0.724572897 0.522184372
0.61758393 0.743299007 0.535050929
0.691242337 0.744734526 0.532776773
0.762176335 0.739698946 0.520334303
0.830781102 0.728425264 0.519464374
0.895304143 0.733603716 0.519565463
0.967398167 0.744230092 0.523348153
0.319075912 0.760902643 0.497294605
0.433674455 0.784229398 0.523646533
0.538399696 0.806762218 0.546155572
0.634384692 0.818209708 0.553298473
0.704067409 0.820596576 0.555768013
0.767824054 0.819375038 0.542151093
0.829221129 0.812303245 0.53034693
0.897776961 0.804140449 0.532692194
0.972106159 0.80355984 0.539319158
0.350961298 0.844187021 0.523197293
0.45762077 0.866076529 0.548272491
0.554312885 0.882768214 0.568132043
0.651371956 0.889728546 0.571727753
0.716535151 0.892758012 0.576630592
0.776850939 0.892116785 0.567655861
0.839215696 0.889241934 0.555097401
0.899778843 0.883716702 0.547683477
0.970426559 0.879146039 0.548579752
0.380875647 0.926963747 0.546748996
0.478869855 0.946513593 0.572593331
0.573972106 0.957649469 0.588704467
0.668254733 0.961729884 0.591316044
0.729702234 0.964256704 0.595843613
0.789123535 0.966196358 0.593707502
0.850817144 0.962722123 0.581875324
0.912007213 0.959835231 0.573450804
0.975449979 0.955857933 0.565742016
0.124384381 0.111114174 0.409615308
0.256356239 0.139590457 0.439497918
0.406229317 0.183471605 0.483154833
0.519320071 0.205405235 0.507213056
0.630247056 0.22193861 0.525053859
0.712476492 0.238327876 0.539298832
0.791043401 0.248916313 0.539470196
0.86180377 0.258899927 0.546148837
0.932304323 0.26871714 0.55182445
0.144101754 0.232248455 0.443724394
0.296373576 0.272873461 0.481677502
0.436485469 0.310737222 0.521673083
0.551078796 0.335561454 0.542193651
0.651130795 0.357088149 0.566835821
0.731862962 0.371060371 0.578169465
0.807735682 0.379636019 0.577629864
0.878511667 0.387401521 0.58117491
0.948449075 0.395165592 0.584086835
0.172079667 0.357301742 0.47698608
0.325504661 0.402354121 0.517214954
0.452434599 0.426626384 0.549711108
0.568204105 0.448170424 0.569844365
0.664421499 0.47201547 0.596408606
0.745737076 0.484478652 0.602315784
0.81981504 0.491305619 0.600429833
0.891088903 0.501663864 0.601346016
0.961799145 0.512699723 0.603098154
0.208512485 0.465248227 0.513348222
0.35055995 0.511623263 0.551745653
0.464154392 0.539117038 0.576197267
0.577590108 0.554791629 0.597556949
0.674336851 0.5698663 0.619543493
0.755869448 0.582576811 0.619289756
0.826918185 0.585961461 0.612275124
0.899504781 0.591953754 0.605943263
0.970616221 0.603185475 0.605360389
0.255000085 0.579935074 0.547193766
0.380582958 0.615626931 0.584016025
0.484106302 0.637887716 0.602754712
0.58739388 0.658567011 0.620133996
0.6802001 0.667327285 0.634595513
0.762677312 0.662483156 0.629155159
0.833387792 0.665023029 0.617683411
0.903142929 0.667697012 0.611142457
0.973398507 0.675265133 0.609758615
0.294021368 0.680357993 0.571312129
0.405536473 0.7108441 0.600510716
0.503769994 0.733956456 0.617493927
0.607159495 0.754415095 0.637232423
0.693138778 0.765720606 0.642253876
0.759841383 0.753157973 0.634378552
0.836518824 0.744888186 0.624217212
0.905584872 0.744132698 0.620977402
0.97470206 0.748397052 0.619993806
0.320310682 0.772889853 0.58935231
0.425884783 0.797045171 0.613646209
0.524498582 0.815735757 0.633431971
0.620572209 0.833986282 0.651994765
0.704361558 0.841933489 0.654004753
0.769585431 0.837109387 0.648095667
0.834835887 0.824714184 0.628622055
0.904314399 0.818187177 0.623397291
0.97044456 0.826474786 0.62461561
0.340763837 0.855593979 0.60677582
0.446632415 0.873932183 0.628811538
0.538252294 0.89027977 0.649894059
0.629225075 0.903502047 0.666188419
0.715262353 0.908242166 0.666279852
0.77879405 0.907468557 0.664916217
0.841139317 0.901323676 0.644022048
0.904462874 0.892748654 0.628413677
0.973395705 0.886122525 0.632434368
0.365057677 0.934023559 0.625090182
0.466554761 0.950778902 0.646684647
0.550977528 0.963573694 0.667559862
0.642296612 0.972938538 0.680649519
0.727054298 0.974925518 0.679466665
0.787350237 0.975708008 0.68087709
0.8501845 0.972990632 0.664925814
0.914622724 0.968646407 0.646664023
0.97758323 0.962513804 0.64273113
0.145047963 0.132742673 0.505416393
0.290694207 0.172770917 0.549299717
0.436950028 0.217515588 0.59343648
0.550202072 0.250738561 0.629331231
0.639452994 0.268034548 0.646235824
0.727661669 0.288988024 0.663153172
0.800402939 0.303574979 0.679904938
0.87709856 0.311200052 0.679226696
0.949858725 0.317480266 0.680222034
0.168243542 0.258358747 0.54224509
0.325882882 0.300092697 0.586601317
0.462885648 0.337160498 0.623168528
0.571258843 0.365480691 0.648901165
0.65968442 0.387990028 0.669674754
0.739035308 0.408354938 0.692792714
0.812802017 0.423620105 0.705968022
0.886903346 0.430711478 0.703697622
0.959092677 0.436558336 0.703071356
0.194462344 0.38364023 0.575545073
0.349666834 0.424226224 0.618784547
0.477855027 0.450154155 0.65077883
0.581667483 0.469521552 0.669117749
0.674579084 0.493503362 0.687300026
0.7465536 0.513171911 0.710471213
0.820946574 0.521016002 0.711569846
0.89377296 0.526457131 0.704480529
0.965717852 0.536660671 0.705199003
0.225761801 0.487018496 0.612361312
0.368341237 0.536947191 0.649697304
0.483536512 0.560432911 0.675692081
0.587787628 0.569510281 0.689033151
0.683484077 0.5863958 0.705399394
0.754769564 0.602854013 0.721361637
0.825549483 0.606787682 0.712975204
0.898654997 0.609559834 0.702679873
0.972053289 0.61954689 0.70127511
0.251710653 0.585997581 0.638989329
0.384723097 0.625723898 0.674503028
0.49051249 0.651728928 0.696340859
0.586988866 0.667329788 0.707087457
0.685868382 0.677613974 0.723113775
0.759711802 0.680362165 0.731185496
0.828337967 0.682845414 0.715630293
0.900431037 0.686363637 0.704450786
0.976219237 0.692551017 0.697178066
0.289952844 0.686895072 0.660139263
0.408564925 0.716479719 0.692370951
0.504774868 0.734460592 0.70965445
0.594670236 0.751204252 0.725515604
0.686041534 0.766319871 0.736179829
0.762474537 0.764824748 0.738761485
0.834208965 0.752557456 0.724210262
0.906995475 0.758000731 0.709456384
0.981092513 0.762708724 0.702192068
0.325262725 0.779190421 0.677633882
0.431889594 0.802684546 0.704367578
0.521167397 0.819813132 0.717369735
0.606009126 0.836151421 0.732918024
0.695405006 0.851432741 0.743634641
0.769668162 0.851881266 0.740861177
0.831882298 0.833860695 0.729927123
0.906879246 0.830114543 0.716492593
0.982264459 0.833178759 0.710597098
0.346768945 0.863661289 0.689761043
0.445532441 0.883774221 0.71127224
0.533025622 0.897825003 0.725861669
0.614611983 0.911058724 0.74348712
0.702124238 0.922956824 0.7546224
0.778265297 0.923742712 0.748098016
0.841174066 0.915207565 0.739896178
0.905924678 0.89811039 0.719329178
0.980962336 0.89760232 0.710248768
0.363263875 0.944298387 0.704089403
0.459761858 0.96006912 0.721452951
0.544882119 0.972084522 0.738598228
0.622994602 0.983690321 0.758615136
0.710716009 0.990372181 0.767508984
0.788224101 0.991638601 0.759911954
0.850869954 0.989120543 0.755294859
0.914005041 0.979238689 0.733917475
0.982545674 0.967221558 0.712320685
0.170136154 0.15869908 0.612701654
0.319090545 0.200455859 0.658152938
0.46044305 0.242225692 0.698048651
0.573623836 0.276586622 0.732486963
0.662054598 0.306618541 0.762844145
0.741309106 0.32915777 0.781003773
0.814764619 0.349049926 0.798819005
0.884460807 0.362532735 0.814303041
0.958487988 0.363822758 0.806364179
0.192202836 0.283208847 0.646211922
0.349542171 0.322004795 0.691619098
0.488024533 0.359003335 0.725236237
0.591931164 0.384977192 0.748322129
0.677590549 0.411868662 0.77212131
0.753471494 0.438187629 0.793153048
0.82181257 0.455586553 0.813651145
0.89021033 0.465127528 0.819705367
0.964065731 0.471343786 0.812493145
0.212990701 0.405382603 0.677116454
0.367844164 0.443195671 0.721466541
0.501883864 0.46980384 0.751202166
0.60324508 0.487469524 0.767199099
0.688154399 0.507720768 0.778594255
0.762910903 0.535858691 0.798965156
0.825667322 0.54656142 0.815618157
0.894922078 0.55136025 0.811516106
0.968428433 0.558714926 0.802249908
0.237362579 0.507427752 0.706201315
0.382042021 0.555119157 0.743832767
0.504679382 0.577012181 0.76996541
0.60791105 0.584791064 0.781062305
0.693302751 0.595961154 0.789556086
0.769854069 0.621915102 0.804512084
0.829372942 0.629335642 0.814882934
0.898951769 0.628949285 0.801764786
0.972856879 0.633467197 0.788137197
0.260451764 0.596780419 0.726809204
0.397294492 0.639682412 0.760695696
0.506338537 0.668763936 0.782230973
0.602932215 0.678528965 0.78961879
0.693991482 0.685027659 0.8019467
0.773297429 0.698496521 0.81406647
0.833074808 0.702606022 0.815216482
0.900680482 0.703254759 0.796602547
0.975093126 0.705025554 0.780585408
0.282231033 0.685982108 0.739710748
0.408691585 0.720766008 0.771088004
0.509469151 0.742044508 0.790044904
0.599482059 0.754433393 0.7983495
0.685771525 0.768521488 0.811787665
0.769756198 0.775650918 0.821056008
0.836036026 0.769829392 0.821618021
0.902035475 0.772578657 0.800031304
0.977243185 0.77624613 0.780805528
0.31839332 0.779457271 0.753690064
0.433032036 0.805291593 0.783257186
0.525755227 0.820554674 0.799472332
0.606452584 0.831227183 0.811828315
0.684248269 0.841527462 0.82290411
0.765263736 0.852282643 0.826345384
0.834026098 0.846810937 0.825228453
0.906659245 0.836792946 0.810131609
0.982355833 0.842895448 0.787761152
0.350628287 0.868798316 0.768774509
0.454315543 0.888975263 0.793750405
0.540226102 0.90116334 0.806540668
0.615442753 0.912702143 0.820883155
0.689902008 0.92502445 0.829765856
0.76905787 0.931404114 0.830708146
0.836829662 0.923576057 0.823925674
0.904472291 0.909599185 0.812911212
0.980949163 0.908676505 0.795953572
0.369758159 0.95173347 0.781110406
0.466240078 0.96931988 0.80199635
0.547471404 0.980160058 0.813582778
0.621540844 0.99198848 0.830338359
0.694438934 1 0.84212321
0.776813388 1 0.842338085
0.84792465 1 0.83228457
0.913528621 0.990438044 0.824320138
0.982589006 0.97456485 0.804362476
0.191137865 0.181170478 0.722045779
0.340013802 0.22159107 0.765669286
0.477437854 0.260066509 0.801979721
0.593606353 0.295498222 0.833842814
0.682136714 0.327504903 0.864277244
0.760529101 0.35552758 0.885809541
0.835146546 0.38572821 0.909944415
0.902134657 0.403673857 0.92397368
0.963195443 0.406129509 0.915323734
0.211003214 0.303696185 0.751456916
0.367132425 0.338798076 0.795445919
0.507090449 0.375503927 0.827701807
0.613681912 0.400712758 0.847681046
0.697962582 0.425264567 0.868016303
0.770592749 0.454238087 0.88678807
0.841436684 0.482352078 0.908848405
0.903714418 0.49684155 0.925122023
0.96586895 0.499792725 0.917992234
0.227919921 0.421578377 0.776256919
0.382475257 0.456108153 0.819686711
0.522139192 0.483014375 0.847280502
0.627222002 0.500940442 0.861914933
0.710136652 0.516976058 0.869445682
0.77748239 0.5437994 0.883801579
0.844915748 0.568177819 0.90072
0.903336644 0.576885819 0.917484522
0.968675137 0.579850912 0.90801996
0.246824369 0.523353815 0.792932868
0.392852008 0.564209759 0.832950294
0.525550544 0.587867141 0.859236479
0.631521285 0.597175717 0.871141016
0.716043353 0.604829967 0.874282598
0.782903314 0.627186298 0.885775387
0.849686682 0.649266064 0.895721734
0.904346704 0.651239276 0.906463981
0.972579598 0.651801884 0.890688181
0.269149244 0.606006503 0.809208512
0.406746 0.651162922 0.842073143
0.523370922 0.679534078 0.863217354
0.625552118 0.688149869 0.873646319
0.71481514 0.692301154 0.880271375
0.783737063 0.703710318 0.89212954
0.851451874 0.720779359 0.895734489
0.905794978 0.723204672 0.899502873
0.975168169 0.721018672 0.877155006
0.285984695 0.692345321 0.818422556
0.418902844 0.729828596 0.8499704
0.525804222 0.752735615 0.869210601
0.617035925 0.764140606 0.873001873
0.701904774 0.772888601 0.881594539
0.776204407 0.779392302 0.894651532
0.85026592 0.786605477 0.900218904
0.907598913 0.78824544 0.898525536
0.975456297 0.789322436 0.871687174
0.308018655 0.774510562 0.824976563
0.430174321 0.807642102 0.854802907
0.527697325 0.826278567 0.872224748
0.613241792 0.834062994 0.878467023
0.690487981 0.839329004 0.888395846
0.762049139 0.84949398 0.895448208
0.844130397 0.856798351 0.904035151
0.9083336 0.851483166 0.902547181
0.977046728 0.85662359 0.879454792
0.342072129 0.864547551 0.837452292
0.454636723 0.88863349 0.865495026
0.545045555 0.901653171 0.881915808
0.62151444 0.908869684 0.892844617
0.688858211 0.91453135 0.903562784
0.758385062 0.922774255 0.908098638
0.833399653 0.927406073 0.9071244
0.904263675 0.920629084 0.90124619
0.980218947 0.915385187 0.887689233
0.373524219 0.955862224 0.855497539
0.475542068 0.974966168 0.880364001
0.558292329 0.983624339 0.892371058
0.628902674 0.992151976 0.907130003
0.696034312 1 0.916731358
0.766724765 1 0.918516994
0.837799013 1 0.913169205
0.90925014 0.999538898 0.904185653
0.982403934 0.98958832 0.89474386
0.20811744 0.19762148 0.82842952
0.35655573 0.236301556 0.87129724
0.492501706 0.272830665 0.906698704
0.61212647 0.309762776 0.934531331
0.70301789 0.342103332 0.962201238
0.780171096 0.371343732 0.984783232
0.850328803 0.401288003 0.995635927
0.92246139 0.431683093 0.993385196
0.980323076 0.43980813 0.981574714
0.226998642 0.317931414 0.854790449
0.382154465 0.350641042 0.896891654
0.521990001 0.384385586 0.926529109
0.635549009 0.411909044 0.94479537
0.720342815 0.434807301 0.961717129
0.792116165 0.463562101 0.978418529
0.856070101 0.492701232 0.995695472
0.925826073 0.520451009 0.995587707
0.978685915 0.525300682 0.985279441
0.241181538 0.430863917 0.870796263
0.395941317 0.462611407 0.912793875
0.538511515 0.489946127 0.93928951
0.6502074 0.509943724 0.953725994
0.73508811 0.524569333 0.96194762
0.801627338 0.548809171 0.970319867
0.85907042 0.576186478 0.985485017
0.925584376 0.597613513 0.99610889
0.977671206 0.601969898 0.988490045
0.255638868 0.531463385 0.877679586
0.402614355 0.565844655 0.917308807
0.543849051 0.59283179 0.945118248
0.654707789 0.604880154 0.958571851
0.74163872 0.612882733 0.962774396
0.808067083 0.629584134 0.968501449
0.861891985 0.654501498 0.977812588
0.926374137 0.670158148 0.984812081
0.979119897 0.673183382 0.99106884
0.275604129 0.61398983 0.888248861
0.412305713 0.657877922 0.920326233
0.539952576 0.683670104 0.94238776
0.648461103 0.694192529 0.95577538
0.739763558 0.698616922 0.961597919
0.808667243 0.707418501 0.970693707
0.860949576 0.725943983 0.977247536
0.927791297 0.741310894 0.978264809
0.981393278 0.741865098 0.986019433
0.291711628 0.695848703 0.895365775
0.42696169 0.735082805 0.927137434
0.540893555 0.760976315 0.945504427
0.637143493 0.772634327 0.950138092
0.725818813 0.776843607 0.954544544
0.798709571 0.781514168 0.968684375
0.858377874 0.792461932 0.977789104
0.926927626 0.805924594 0.978385687
0.982349157 0.807590246 0.978052676
0.305634409 0.779430747 0.899060905
0.435610294 0.814098597 0.929230809
0.540749848 0.833396256 0.947744489
0.630751431 0.840203583 0.952531397
0.70889318 0.843365848 0.954688251
0.777319789 0.850333631 0.961892962
0.847561777 0.859994471 0.974163055
0.924197555 0.866046965 0.980381548
0.982819855 0.870767176 0.977937162
0.330771983 0.858144939 0.905578911
0.450659961 0.890673339 0.934444368
0.545458019 0.909489393 0.952352047
0.627883971 0.915307939 0.95954299
0.699894905 0.915580928 0.967390358
0.766086638 0.920030117 0.975791216
0.836698771 0.929129183 0.979287088
0.912973702 0.930932343 0.982928872
0.980341196 0.929009676 0.978847802
0.365543664 0.950570226 0.923347235
0.47634092 0.973565817 0.951103985
0.563441932 0.984048665 0.967433512
0.636402369 0.989050269 0.976957977
0.69967556 0.992715359 0.987591743
0.760867357 0.995758832 0.994278491
0.832846463 0.997710407 0.993914127
0.905543149 0.999606252 0.990013242
0.982187748 1 0.982524395
