assets/lut/TH1_BrightDaylightEditorial.cube
TITLE "Generated by Resolve"
LUT_3D_SIZE 5
0.0563821 0.0563821 0.0563821
0.291997 0.0559243 0.0559243
0.528679 0.0560616 0.0560616
0.765148 0.0559701 0.0559701
1 0.056199 0.056199
0.0563821 0.292332 0.0563821
0.29247 0.292348 0.0563973
0.529168 0.2925 0.0565499
0.765637 0.292409 0.0564584
1 0.292561 0.056611
0.0565194 0.528923 0.0565194
0.292607 0.528939 0.0565347
0.529183 0.528954 0.0565652
0.765774 0.529 0.0565957
1 0.528984 0.0565805
0.0564889 0.765332 0.0564889
0.292744 0.76553 0.0566873
0.529213 0.765438 0.0565957
0.765911 0.765576 0.056733
1 0.76556 0.0567178
0.0565805 1 0.0565805
0.292897 1 0.0568246
0.529351 1 0.056733
0.766033 1 0.0568399
1 1 0.0568704
0.0559091 0.0559091 0.293095
0.291997 0.0559243 0.293111
0.528695 0.0560769 0.293248
0.765164 0.0559854 0.293156
1 0.0560464 0.293217
0.0563973 0.292348 0.293584
0.29247 0.292363 0.293584
0.528969 0.292287 0.293507
0.765652 0.292424 0.293645
1 0.292409 0.293629
0.0563058 0.52871 0.293477
0.292622 0.528954 0.293721
0.529076 0.528862 0.293629
0.765789 0.529 0.293782
1 0.529 0.293767
0.0564431 0.765286 0.293614
0.29276 0.765545 0.293873
0.529229 0.765454 0.293782
0.765805 0.765469 0.293797
1 0.765576 0.293904
0.0565957 1 0.293767
0.292714 1 0.293828
0.529366 1 0.293919
0.765835 1 0.293828
1 1 0.294057
0.0558938 0.0558938 0.530739
0.291966 0.0559091 0.530739
0.528435 0.0558175 0.530648
0.765148 0.0559548 0.5308
1 0.0559396 0.530785
0.0561379 0.292088 0.530983
0.292454 0.292348 0.531228
0.528923 0.292256 0.531136
0.765621 0.292393 0.531289
1 0.292378 0.531273
0.0562905 0.528679 0.531121
0.292576 0.528923 0.53135
0.529061 0.528847 0.531273
0.765545 0.528771 0.531212
1 0.528969 0.531411
0.0564279 0.76527 0.531258
0.2925 0.765286 0.531273
0.529198 0.765423 0.531426
0.765667 0.765332 0.531334
1 0.76556 0.531548
0.0565652 1 0.531411
0.292653 1 0.531411
0.529351 1 0.531563
0.76582 1 0.531472
1 1 0.531456
0.0556344 0.0556344 0.768139
0.291951 0.0558785 0.768383
0.52842 0.0558022 0.768307
0.765072 0.0558938 0.768399
1 0.0559243 0.768429
0.0561227 0.292073 0.768627
0.292332 0.29221 0.768765
0.528908 0.292226 0.76878
0.765362 0.292134 0.768688
1 0.292363 0.768917
0.05626 0.528664 0.768765
0.292332 0.528679 0.76878
0.529046 0.528817 0.768917
0.765515 0.528725 0.768826
1 0.528954 0.769055
0.0563973 0.765255 0.768902
0.292485 0.765255 0.768917
0.529168 0.765393 0.769055
0.765652 0.765316 0.768978
1 0.765301 0.768963
0.0564736 1 0.768978
0.292622 1 0.76907
0.529091 1 0.768978
0.765789 1 0.769116
1 1 0.7691
0.0556649 0.0556649 1
0.291768 0.0556954 1
0.528435 0.0558175 1
0.764904 0.0557259 1
1 0.0559548 1
0.0561379 0.292088 1
0.29221 0.292103 1
0.528923 0.292256 1
0.765393 0.292165 1
1 0.292332 1
0.0562753 0.528679 1
0.292363 0.528695 1
0.528954 0.528725 1
0.76553 0.528756 1
1 0.52874 1
0.05626 0.765103 1
0.2925 0.765286 1
0.528969 0.765194 1
0.765667 0.765332 1
1 0.765316 1
0.0563363 1 1
0.292653 1 1
0.529107 1 1
0.765805 1 1
1 1 1
