assets/lut/TH1_EerieOliveHorrorNarrative.cube
# LUT by SparkleStock. Enhanced with VOXCOLOR algorithms.
LUT_3D_SIZE 5
DOMAIN_MIN 0.000000 0.000000 0.000000
DOMAIN_MAX 0.903226 0.903226 0.903226
0.074237 0.058608 0.039072
0.120446 0.101233 0.077246
0.201126 0.173500 0.155674
0.325889 0.299563 0.291323
0.439631 0.429690 0.422159
0.125377 0.127055 0.102210
0.196955 0.200021 0.143161
0.336876 0.293503 0.204385
0.486523 0.405231 0.322201
0.552586 0.526206 0.475914
0.206436 0.276443 0.257300
0.295596 0.373122 0.316675
0.421603 0.465508 0.338041
0.561587 0.546606 0.413851
0.626104 0.630960 0.552672
0.349994 0.525598 0.508401
0.464768 0.609256 0.574484
0.559687 0.668672 0.595170
0.619242 0.691683 0.588812
0.675090 0.728657 0.656247
0.570011 0.754579 0.735122
0.666107 0.794619 0.768133
0.707359 0.804991 0.767247
0.706219 0.791053 0.736769
0.721805 0.793049 0.734974
0.093308 0.079625 0.053748
0.116323 0.088621 0.076201
0.199856 0.128375 0.142852
0.302115 0.226339 0.247886
0.416552 0.414417 0.418757
0.137816 0.149773 0.123658
0.202291 0.209600 0.191503
0.349187 0.269634 0.254371
0.515050 0.350795 0.335960
0.609758 0.511297 0.487916
0.196805 0.264274 0.240942
0.290076 0.394270 0.354836
0.434433 0.477716 0.379274
0.605327 0.526192 0.409276
0.710571 0.610146 0.515975
0.292643 0.456374 0.436605
0.453325 0.626284 0.599599
0.574002 0.701726 0.617333
0.662698 0.718296 0.572425
0.754546 0.731438 0.582661
0.471543 0.691222 0.672921
0.662843 0.807063 0.789816
0.749019 0.844216 0.813293
0.768052 0.843214 0.778423
0.782957 0.830858 0.725527
0.112781 0.103730 0.075647
0.121123 0.106731 0.088469
0.165176 0.125292 0.139654
0.245692 0.199931 0.228634
0.331108 0.355211 0.363512
0.165411 0.201161 0.178649
0.197854 0.224365 0.226761
0.313371 0.283956 0.337313
0.467566 0.361162 0.424710
0.578314 0.507112 0.532182
0.235523 0.343139 0.326119
0.273410 0.389080 0.377567
0.416921 0.489307 0.483060
0.609703 0.537743 0.527082
0.760574 0.600894 0.582158
0.321402 0.512860 0.497677
0.396933 0.587005 0.569303
0.558898 0.708511 0.668153
0.686551 0.737792 0.638214
0.820746 0.735240 0.613908
0.446604 0.688174 0.671695
0.585644 0.770882 0.755088
0.746828 0.855618 0.835012
0.803307 0.874418 0.811911
0.842075 0.866132 0.741909
0.135287 0.133294 0.108267
0.139923 0.139436 0.118054
0.148348 0.145827 0.133390
0.192564 0.203812 0.213783
0.270821 0.330312 0.339727
0.194722 0.258881 0.240645
0.208805 0.273858 0.266320
0.245041 0.292648 0.314429
0.370038 0.416085 0.475213
0.501687 0.542660 0.581992
0.275450 0.429422 0.419917
0.297572 0.451579 0.448039
0.356521 0.487692 0.502658
0.546537 0.602199 0.655772
0.727993 0.652392 0.708855
0.374335 0.596706 0.586346
0.408071 0.621423 0.612932
0.490626 0.673465 0.667814
0.681254 0.762872 0.760434
0.841211 0.761676 0.753155
0.474250 0.723754 0.709499
0.543816 0.759527 0.745999
0.672606 0.823369 0.810331
0.820216 0.893794 0.873345
0.872287 0.889976 0.826860
0.157336 0.171846 0.150183
0.163486 0.184152 0.165728
0.170181 0.192862 0.181319
0.182000 0.209464 0.206377
0.250250 0.325879 0.340188
0.226207 0.323913 0.312925
0.240196 0.345376 0.338177
0.252961 0.359181 0.359321
0.289996 0.398104 0.409601
0.436290 0.567433 0.588635
0.318948 0.512200 0.508207
0.343014 0.536361 0.535620
0.370463 0.555752 0.559495
0.441609 0.598629 0.615443
0.640764 0.725820 0.757382
0.417999 0.668508 0.662248
0.459129 0.694725 0.689300
0.507827 0.719185 0.716077
0.603035 0.761689 0.764451
0.788818 0.828261 0.848364
0.501397 0.748297 0.737581
0.554264 0.775039 0.764606
0.628008 0.808551 0.798972
0.743748 0.860722 0.852853
0.868590 0.909789 0.900461
