assets/lut/TH1_AmberFadedClassicRetro.cube
TITLE "25x25x25 Adobe/IRIDAS cube 3D LUT"
LUT_3D_SIZE 25
0.064319901 0.047370173 0.057044394
0.109619074 0.0503604 0.058624905
0.157068431 0.054569941 0.057359599
0.20654881 0.057791103 0.054357834
0.258173496 0.059521966 0.055368584
0.30647549 0.059417233 0.057379071
0.352431148 0.058834907 0.058434445
0.396637768 0.061547026 0.058593597
0.437790453 0.066284843 0.05845793
0.475979269 0.070962206 0.058317333
0.511242807 0.074987441 0.058584996
0.544697821 0.078624651 0.058667272
0.576501012 0.08163169 0.058534849
0.607444823 0.085079394 0.058631506
0.63800168 0.089271419 0.05913952
0.668142438 0.093921289 0.059971724
0.698379874 0.098484173 0.061036028
0.728078187 0.103200853 0.062256537
0.757236242 0.107793398 0.063606247
0.785990357 0.112250149 0.065126665
0.814845264 0.116860382 0.06676802
0.843779325 0.121358581 0.068451352
0.872589111 0.125768855 0.070155129
0.90161711 0.129945531 0.071865276
0.931445777 0.134117618 0.073580667
0.072200418 0.085855007 0.061067916
0.119218029 0.088450447 0.062837794
0.170777589 0.09011475 0.063038155
0.22307387 0.090734221 0.060760278
0.273905545 0.091517262 0.061268177
0.321694016 0.091823608 0.062958948
0.367526382 0.092388779 0.063816682
0.410134465 0.096234664 0.064013302
0.449542969 0.101479501 0.06388779
0.486229122 0.106500894 0.063517451
0.520619512 0.110625081 0.06332314
0.552945673 0.113783449 0.063281424
0.583836913 0.11678344 0.063082106
0.614295959 0.120203644 0.063271075
0.644424677 0.124393672 0.063870765
0.674230933 0.129004538 0.064792268
0.703944564 0.13346307 0.065945476
0.733123064 0.13810949 0.06726066
0.761941075 0.142769724 0.068711266
0.790437639 0.147294909 0.070319369
0.81920594 0.151716575 0.072007857
0.848029494 0.156267896 0.073744856
0.876841009 0.160702318 0.075509451
0.905926168 0.164873853 0.077286378
0.935853243 0.169106901 0.079074182
0.083539799 0.119028986 0.068162635
0.128010198 0.126633421 0.069019668
0.180167004 0.128895 0.067755468
0.233807936 0.128194898 0.065277122
0.285840064 0.126127809 0.065758213
0.335494101 0.124418758 0.068349719
0.381363779 0.126252949 0.069093637
0.422309548 0.131144568 0.069295436
0.460151225 0.136548564 0.06911765
0.495545328 0.141688049 0.068607233
0.529143274 0.145925984 0.068103842
0.560482979 0.148803413 0.068000697
0.590738773 0.151556507 0.067823581
0.62082696 0.154900819 0.068105057
0.650589883 0.159031987 0.068788923
0.679932773 0.163498625 0.069796368
0.709187686 0.16815722 0.071037717
0.73797369 0.172694072 0.072451442
0.766582191 0.177303493 0.074013509
0.795011938 0.181883559 0.075710081
0.823794901 0.186206743 0.077457428
0.85258311 0.190647215 0.079258643
0.881456673 0.195144102 0.081092596
0.910530984 0.199355394 0.082924105
0.940306067 0.20350951 0.084738441
0.095956258 0.150825709 0.077917486
0.141523376 0.158191323 0.080243558
0.191226855 0.16373162 0.076542072
0.242402077 0.166035295 0.070990838
0.29358685 0.164632156 0.068678066
0.345388889 0.162341744 0.070641793
0.392620116 0.162819684 0.073304228
0.432985663 0.166795343 0.074249566
0.469620347 0.172136486 0.073981941
0.504107058 0.177174851 0.073330589
0.536782205 0.181176916 0.072822303
0.567389488 0.183844879 0.072676219
0.597239733 0.186449155 0.072620653
0.627032936 0.189636484 0.073016316
0.656267107 0.193556353 0.073794357
0.685220599 0.197786987 0.074892946
0.714135349 0.20226638 0.076234668
0.742670834 0.206709072 0.077764995
0.771214366 0.211404204 0.079453506
0.799785435 0.216239095 0.08123339
0.828659773 0.220615074 0.083047301
0.857337832 0.224889725 0.084875591
0.886011839 0.229136035 0.086702801
0.914845109 0.23313725 0.088513516
0.944419086 0.237117887 0.090309918
0.104728527 0.190877557 0.084134735
0.153719366 0.199214265 0.089849919
0.202879146 0.201440603 0.0864866
0.254196227 0.200102404 0.081301041
0.304779679 0.198729932 0.076414645
0.354675472 0.200054139 0.073929615
0.400013864 0.203607127 0.075098954
0.440575004 0.206036806 0.077009171
0.477618575 0.208907157 0.077987485
0.511590064 0.213370189 0.077371076
0.54330498 0.216998905 0.076900043
0.573396206 0.219220594 0.076926298
0.603072047 0.221914098 0.07708393
0.632562578 0.224895969 0.077657677
0.661371529 0.228725597 0.078588113
0.690172791 0.232797161 0.079815134
0.71894449 0.237116963 0.081285998
0.74751091 0.24160926 0.082949407
0.776148796 0.246367633 0.084733501
0.804761589 0.250856966 0.086539723
0.833475173 0.255263478 0.088347383
0.861851692 0.259157032 0.090145923
0.890296519 0.263007045 0.091948181
0.918930113 0.266876221 0.093741566
0.948336959 0.27076444 0.095528282
0.11339502 0.231642753 0.090387188
0.163907528 0.24122563 0.096799858
0.216608465 0.246507376 0.096462011
0.264029175 0.243094876 0.089869559
0.316390038 0.239451289 0.085100383
0.366491884 0.238226369 0.082403071
0.410968602 0.240349457 0.081654772
0.450121671 0.244383171 0.081473887
0.485271245 0.248716563 0.080955774
0.518900037 0.251231343 0.080779649
0.550225437 0.253669411 0.080597669
0.579523742 0.256417692 0.080549933
0.608709931 0.259109706 0.080734685
0.637570441 0.262013495 0.081368789
0.666033447 0.265613645 0.082453579
0.694723248 0.269423664 0.083838105
0.723344505 0.27347666 0.085467033
0.751800179 0.277766943 0.087284178
0.78034091 0.282084793 0.089161314
0.808948815 0.286212206 0.091061965
0.837615609 0.290219665 0.092962511
0.865901172 0.294134766 0.094840594
0.894241512 0.297907203 0.096707545
0.922776282 0.301621407 0.098569028
0.952093661 0.305402428 0.100428425
0.122555412 0.27374211 0.097030357
0.175154939 0.284876019 0.103577018
0.230135143 0.292014599 0.105125509
0.278115511 0.290014923 0.099324435
0.32779932 0.28760618 0.093192436
0.376515359 0.287421972 0.090231657
0.420761675 0.287147611 0.088272445
0.460865438 0.286531568 0.088027522
0.496693552 0.286735088 0.087310694
0.528733015 0.288135856 0.086191513
0.558130741 0.2908898 0.084896848
0.587054908 0.293138504 0.085097767
0.614907682 0.296309471 0.084604427
0.642370284 0.299823314 0.08463712
0.669922054 0.303783774 0.08540497
0.698073983 0.307476103 0.086704858
0.726348221 0.311441272 0.08838959
0.754670441 0.315592349 0.090343997
0.783219337 0.319719106 0.092390992
0.811922133 0.323580563 0.094479851
0.840640426 0.327260196 0.096569777
0.869022369 0.330647528 0.09863656
0.897400618 0.334120542 0.100674413
0.925971031 0.337650627 0.102710746
0.955333829 0.341325998 0.104752772
0.133811474 0.318535179 0.103772983
0.188776895 0.331191689 0.110203542
0.245681033 0.339755833 0.11324688
0.295562208 0.340667009 0.10905017
0.340019584 0.338439256 0.101996779
0.385538548 0.337691903 0.097991772
0.428537607 0.337435216 0.095327035
0.46797964 0.336913198 0.09292727
0.50368017 0.335040629 0.09188237
0.536563814 0.332110554 0.091272041
0.567448914 0.329223007 0.091331556
0.596010268 0.328052789 0.091913089
0.622781873 0.330782324 0.090974316
0.64855969 0.335157245 0.089968957
0.67449379 0.340562493 0.089529902
0.701520383 0.345489174 0.089891642
0.729017079 0.350233346 0.091005489
0.756887913 0.354983151 0.092643395
0.785163999 0.359074712 0.094530873
0.813766122 0.363048732 0.096594311
0.842461884 0.366779953 0.098771505
0.870932341 0.37000981 0.101017162
0.899438739 0.37316829 0.103301398
0.928120017 0.376386672 0.105612971
0.957579494 0.379736036 0.107919306
0.149615303 0.365684807 0.111126557
0.204760432 0.379183263 0.117048942
0.260826886 0.387509376 0.119795345
0.311240613 0.391382545 0.117656484
0.354244679 0.390969783 0.111629866
0.394101679 0.389046371 0.105949908
0.435226768 0.388379216 0.102696396
0.474000394 0.387560725 0.09940102
0.509072304 0.385263801 0.096644446
0.541578472 0.382181346 0.095336393
0.572522163 0.37854287 0.095270678
0.601766646 0.373760283 0.097058848
0.63018173 0.368786097 0.098871782
0.656978071 0.367854536 0.098481797
0.682511389 0.371793061 0.097556837
0.707302451 0.37975958 0.095974647
0.732898474 0.387132496 0.095366701
0.75968653 0.393278211 0.095978461
0.787315488 0.398542017 0.096790083
0.815538883 0.40307945 0.098304592
0.843975425 0.40712887 0.100212269
0.872314513 0.410949439 0.102384351
0.900749207 0.414365232 0.104665704
0.929304659 0.417470068 0.106990114
0.958654821 0.420320362 0.109372027
0.167143568 0.408933163 0.118573695
0.221249387 0.42162025 0.123732813
0.276234448 0.429844081 0.126009583
0.325471729 0.435809731 0.125408784
0.367280424 0.437455982 0.120781086
0.406012774 0.437301636 0.115286253
0.442498565 0.436060786 0.110331669
0.479356587 0.435603857 0.106166907
0.513838351 0.434269905 0.102764457
0.545897901 0.431551129 0.100401975
0.576208711 0.428362042 0.099351466
0.60507822 0.424131125 0.100359254
0.633133948 0.419192463 0.102049351
0.660906374 0.413387239 0.103947856
0.688968897 0.408706367 0.105961934
0.715986073 0.40991044 0.106516227
0.741423309 0.415960312 0.104833461
0.765767992 0.426066786 0.10285493
0.791309416 0.43476969 0.101894721
0.818331003 0.441718608 0.101767071
0.846032202 0.447345257 0.102647297
0.873939753 0.45181191 0.103445992
0.902039289 0.455734462 0.105505116
0.930329859 0.459231228 0.107720934
0.959450543 0.462506592 0.110076316
0.184401453 0.447951496 0.126450583
0.238377303 0.459526002 0.130886227
0.291764468 0.467283905 0.132650718
0.338552982 0.474137694 0.132650629
0.379573792 0.478582382 0.129700571
0.417226702 0.479631752 0.124268837
0.452885807 0.479791522 0.119262666
0.485816121 0.478505433 0.114028439
0.518732846 0.477416843 0.109840758
0.550167859 0.475652248 0.106852293
0.579775929 0.473365963 0.105309777
0.608145893 0.47021544 0.10509292
0.635767043 0.466942489 0.105645888
0.662819266 0.463128448 0.106738769
0.690589726 0.458290339 0.108767025
0.719284117 0.453437686 0.111581206
0.747645676 0.451267123 0.113784723
0.774798512 0.454191804 0.114252418
0.800535023 0.461753994 0.112859443
0.825532734 0.471946895 0.11008282
0.850656271 0.4821935 0.108604215
0.876938879 0.489828289 0.10874486
0.904091895 0.49563694 0.109122179
0.931832433 0.500183046 0.110188469
0.96057117 0.503878593 0.111986257
0.201778948 0.483976066 0.13447009
0.255583674 0.494025022 0.138474569
0.306530088 0.501545191 0.140037879
0.351547569 0.509058714 0.140434206
0.391363949 0.515269876 0.138646573
0.428221285 0.518013895 0.133770645
0.462937534 0.518951595 0.128544778
0.495042831 0.518718719 0.123260938
0.524695396 0.516995192 0.118175671
0.554396391 0.515369296 0.114680447
0.583394468 0.51342541 0.112778649
0.611340523 0.511083245 0.111635417
0.638638496 0.508899391 0.111302622
0.665419698 0.506818235 0.11161723
0.692411125 0.504059553 0.112652287
0.720288992 0.500946045 0.114749186
0.749073744 0.49719584 0.117624626
0.778471231 0.494159549 0.120710842
0.807459891 0.494229853 0.122698493
0.83489269 0.498978227 0.122850046
0.860285342 0.507259548 0.121157825
0.8850407 0.517173707 0.119158655
0.909666836 0.527996838 0.117457904
0.935499907 0.536569238 0.116825908
0.963134587 0.543284476 0.117803544
0.220198706 0.517545998 0.142541915
0.272520453 0.526325762 0.14632076
0.321264654 0.533982337 0.147883117
0.364842683 0.542108536 0.148975164
0.40383938 0.549928248 0.148572549
0.439359546 0.553543627 0.143948212
0.473130614 0.555227757 0.138641655
0.504194975 0.555462599 0.133315191
0.533022344 0.554591954 0.128419295
0.559870243 0.552308738 0.124062121
0.587032914 0.549928546 0.121440932
0.614614844 0.548202515 0.119843714
0.641646862 0.546801925 0.118684746
0.668297768 0.545871913 0.118423872
0.695127487 0.544648528 0.118838452
0.722157359 0.543311715 0.119947962
0.750064731 0.541892469 0.122161619
0.779218853 0.539222836 0.125386119
0.809349179 0.536320031 0.128844216
0.839467764 0.53457278 0.131711677
0.867962658 0.536596358 0.133224949
0.894529879 0.542936921 0.132951483
0.919957459 0.55223918 0.132036433
0.945046246 0.562417567 0.130669713
0.970749974 0.573403299 0.129253328
0.238797531 0.549317598 0.150755614
0.288887829 0.557275891 0.154195935
0.335785568 0.565313458 0.156105086
0.37799558 0.573959649 0.157657996
0.415746212 0.582137346 0.157543138
0.450787544 0.58688575 0.154177248
0.483651221 0.589084923 0.149072766
0.513555765 0.589845002 0.14402546
0.541435361 0.589677989 0.139329463
0.56761682 0.58809191 0.135221243
0.592272162 0.584962785 0.131627083
0.618022978 0.582910776 0.129115239
0.644823551 0.581955731 0.127659202
0.671383858 0.581833482 0.12683633
0.698207557 0.581642985 0.126682863
0.724922538 0.581220448 0.127148494
0.751930416 0.581184506 0.128364936
0.78010565 0.58061558 0.130664662
0.809790015 0.579097271 0.133844256
0.840474844 0.576896131 0.137933359
0.870864928 0.57520926 0.141682163
0.900712311 0.575178146 0.14490062
0.928824365 0.579566538 0.14655149
0.955178559 0.587832093 0.146403328
0.981607378 0.597806215 0.145655394
0.257180989 0.580328286 0.159468144
0.305294752 0.587846518 0.162770689
0.350388795 0.596336246 0.165224165
0.391387522 0.605416059 0.167113483
0.42857939 0.614136636 0.167594761
0.462490648 0.619336486 0.164807975
0.494278818 0.62148416 0.160121948
0.523353934 0.622563779 0.155407771
0.550295293 0.622903943 0.150874138
0.575604379 0.621877611 0.147027627
0.599746644 0.619702578 0.143562049
0.623434901 0.617072046 0.140055075
0.648289502 0.61561656 0.137603
0.674714446 0.615527213 0.136451781
0.701402247 0.615848184 0.135674968
0.727954388 0.616077006 0.135469571
0.754667401 0.616655648 0.136041045
0.782003105 0.617688894 0.137713864
0.810745656 0.61816144 0.140306488
0.840823889 0.617751956 0.143951058
0.871670425 0.616601646 0.148659065
0.902481794 0.615228951 0.153243721
0.932834625 0.614530504 0.15698348
0.961955249 0.616425574 0.159363255
0.989832461 0.622756243 0.15997456
0.275557011 0.611346006 0.168939754
0.322111964 0.618935347 0.172562614
0.365608424 0.627769768 0.175273955
0.405445397 0.637131751 0.177873299
0.441879421 0.645967484 0.178827152
0.474320829 0.651297331 0.176361412
0.50490582 0.653285205 0.172044575
0.5331797 0.65439254 0.167499095
0.559471488 0.655010164 0.163222015
0.584046543 0.65448457 0.15974699
0.607576609 0.653272808 0.156315982
0.630719662 0.651395619 0.152902305
0.654004335 0.649203002 0.149423391
0.678379953 0.648022115 0.146884412
0.7048226 0.648388505 0.145673737
0.731205523 0.648928463 0.145093635
0.757801354 0.649935782 0.145179883
0.784891725 0.651841342 0.146039948
0.812871099 0.653719902 0.148091495
0.841879427 0.655073285 0.150921911
0.871597588 0.655390143 0.154527098
0.902272463 0.654435933 0.158962682
0.933018565 0.652988017 0.163457945
0.963504434 0.651997566 0.167443797
0.993925035 0.652105391 0.170773551
0.294404119 0.64317733 0.179768249
0.339613199 0.651039839 0.184075549
0.381539971 0.659993112 0.187403262
0.420319706 0.669571698 0.190174639
0.455972582 0.678467989 0.191848129
0.486964464 0.683669865 0.189552575
0.516429245 0.685572088 0.185330749
0.54392451 0.686627626 0.181090325
0.569557786 0.687067568 0.177108705
0.593663573 0.686715662 0.173590451
0.61662215 0.685625792 0.169864595
0.639050782 0.684093118 0.166189879
0.661822319 0.682574391 0.162787646
0.684885979 0.680831432 0.159472793
0.708866358 0.679834545 0.156969011
0.735007465 0.680721521 0.156045154
0.761427164 0.681885719 0.155728057
0.788348079 0.683665395 0.156082377
0.81586659 0.686160505 0.157002956
0.843654931 0.68848747 0.158661157
0.871989548 0.690149009 0.161027953
0.901284575 0.690832734 0.164072305
0.931620955 0.690272391 0.168071121
0.96235019 0.688859165 0.172691911
0.993451118 0.687788546 0.176840514
0.314526737 0.676366627 0.192632869
0.358259708 0.684672177 0.197595119
0.398520261 0.693740427 0.201372191
0.435981482 0.70329231 0.204118639
0.470160484 0.711596251 0.205576003
0.50056541 0.716851294 0.204343483
0.528892875 0.718808711 0.200487271
0.55557698 0.719707727 0.196348026
0.580369234 0.719558358 0.192644
0.603864729 0.718860984 0.188721046
0.626386285 0.717726409 0.184657261
0.648347795 0.716309547 0.18093282
0.670452833 0.715231359 0.177464396
0.692982316 0.713952661 0.173917398
0.715879083 0.712474644 0.170645729
0.739550233 0.711631894 0.168316439
0.765614927 0.712838292 0.167227462
0.792078853 0.714497924 0.166564107
0.819178462 0.716921628 0.166745335
0.846252978 0.719456732 0.167232215
0.873319507 0.721922934 0.168496639
0.90111196 0.723772764 0.170172974
0.929894626 0.724741399 0.172642589
0.959933281 0.724624693 0.176422894
0.991184235 0.723495781 0.18126218
0.334113866 0.710279286 0.205813855
0.376638144 0.718621075 0.210991219
0.415332556 0.727369249 0.214977026
0.45113945 0.736334503 0.217901945
0.484519154 0.74456954 0.219688416
0.513476431 0.749506295 0.218648508
0.540650129 0.75144726 0.215480968
0.566650689 0.751974225 0.211539418
0.590867519 0.751419306 0.207876146
0.613952398 0.750531256 0.204064116
0.636249185 0.749384224 0.199949682
0.658079624 0.748285711 0.196354285
0.679705262 0.747210264 0.19288604
0.701536238 0.746198893 0.188969493
0.723831594 0.74470973 0.185112119
0.746532738 0.743311286 0.181829751
0.769940853 0.742608964 0.179086551
0.795940459 0.744075358 0.177486107
0.822637618 0.74623549 0.176700205
0.849266648 0.748829663 0.176495209
0.875685155 0.751535475 0.176734582
0.902256548 0.75413698 0.177222535
0.929603875 0.756165683 0.178465918
0.957997918 0.757483125 0.180889636
0.988093317 0.757964969 0.184560567
0.352911979 0.743844569 0.218942001
0.394227266 0.752033532 0.223962918
0.431580901 0.760322392 0.227988988
0.465611458 0.768613219 0.231167957
0.497473717 0.776203096 0.232912794
0.525684834 0.781359315 0.232501969
0.551661551 0.782969356 0.229746133
0.577024877 0.783060014 0.226292148
0.60083735 0.78232801 0.222461104
0.623557448 0.781284332 0.21850042
0.64569205 0.780460417 0.214722872
0.667424083 0.779452205 0.21119839
0.688759387 0.778142691 0.207598165
0.710195124 0.77704525 0.203564823
0.731918693 0.775719166 0.199459419
0.754081368 0.77421397 0.195538938
0.776673973 0.773280501 0.191936702
0.799983561 0.772752345 0.188871145
0.826226532 0.774578393 0.1871676
0.852423847 0.776989043 0.18603076
0.878475189 0.779548824 0.185384139
0.904449642 0.782379687 0.185023054
0.930693448 0.785298288 0.185438335
0.957775176 0.787685871 0.186792716
0.986394763 0.789457142 0.189163208
0.371004492 0.777300179 0.231780365
0.411075294 0.784944773 0.236641422
0.44679451 0.792395651 0.240544677
0.47925058 0.799786568 0.243451133
0.509371877 0.80674994 0.245204031
0.53670615 0.811828017 0.245323464
0.562343478 0.813463986 0.24347879
0.587095141 0.81332469 0.240340844
0.61059612 0.812486231 0.236555174
0.633057356 0.811545074 0.232669711
0.655066252 0.810796142 0.229062468
0.676669359 0.809916258 0.225505576
0.697838962 0.808434904 0.221875608
0.718990862 0.807161987 0.218009323
0.740401924 0.805842459 0.213780358
0.762138247 0.804280758 0.209525317
0.78421849 0.803230345 0.2053608
0.806737721 0.802430034 0.201475933
0.829976559 0.802303195 0.197812542
0.855708957 0.80431819 0.195985332
0.881405413 0.806677282 0.194558367
0.907091022 0.809503853 0.193617687
0.932793498 0.812695801 0.193261966
0.958850205 0.816020668 0.19359827
0.986327827 0.818782032 0.194970995
0.388016492 0.810245216 0.24419035
0.426647216 0.81702137 0.248563305
0.460895449 0.823605955 0.252030998
0.491916686 0.830112457 0.254706949
0.520746589 0.836493611 0.256646812
0.547559142 0.841644645 0.257738918
0.572302639 0.843375802 0.256612599
0.596603096 0.842923343 0.253639638
0.619794786 0.842054069 0.250040948
0.642096341 0.841204524 0.246362597
0.663934767 0.840497851 0.242888123
0.685382366 0.839547455 0.239297435
0.706442475 0.838242531 0.235613644
0.727385461 0.836721539 0.231795505
0.748518288 0.835395396 0.227666825
0.769979835 0.83381933 0.223369032
0.791751325 0.832552612 0.218866035
0.813775957 0.831554294 0.214416131
0.836224139 0.831072569 0.210021764
0.859159648 0.831149459 0.206303701
0.884474814 0.833370388 0.204121619
0.909876883 0.835976601 0.202551171
0.935325921 0.839165866 0.201656893
0.960865915 0.842730045 0.201428771
0.987439513 0.846378326 0.201888561
0.404039413 0.842304707 0.255961806
0.441139042 0.84805131 0.259697855
0.474144638 0.853630662 0.262604743
0.504007101 0.859171033 0.265007406
0.531734586 0.865012944 0.267260641
0.557516217 0.869986653 0.268898606
0.581851363 0.872741818 0.269189745
0.605479419 0.872410476 0.266615421
0.628404319 0.871189952 0.262976885
0.65061295 0.870449483 0.259561807
0.672287464 0.869695902 0.256152213
0.693591774 0.868715167 0.252583116
0.714581966 0.867409706 0.248885632
0.735359609 0.865809441 0.245067447
0.756308734 0.864315093 0.241016135
0.777514637 0.862880409 0.236724377
0.79907316 0.861438394 0.232083842
0.820878446 0.860167503 0.227359056
0.842842638 0.859450817 0.22265096
0.865083218 0.859232247 0.218217477
0.887726605 0.85954535 0.214276955
0.912800312 0.862060666 0.212115481
0.937975824 0.865127027 0.210498735
0.963284194 0.868645668 0.209711343
0.989386737 0.87247628 0.209545836
0.418871939 0.873252749 0.267066479
0.454901874 0.878098428 0.270082086
0.486645132 0.882716358 0.272482753
0.515460849 0.887544692 0.274715453
0.542222559 0.892819583 0.277068824
0.567158878 0.897830188 0.279390901
0.5906322 0.900977969 0.280243039
0.614040971 0.901573896 0.278852612
0.636695683 0.900213003 0.275387049
0.658783019 0.899519444 0.272200048
0.680326581 0.898721039 0.268861264
0.701493204 0.897715211 0.265361458
0.722407639 0.89642483 0.261698127
0.743075728 0.894788563 0.257904947
0.763861239 0.892918468 0.253875375
0.784884691 0.891378164 0.249708802
0.806208789 0.889876246 0.24527961
0.827855766 0.888491929 0.240384355
0.849634886 0.887505352 0.235456541
0.871433794 0.887089133 0.230586603
0.893508494 0.887269676 0.226093948
0.915900946 0.887918293 0.222196981
0.940736413 0.890996814 0.21989724
0.965762675 0.894261718 0.218466029
0.991661489 0.89802444 0.217718825
0.432822257 0.904058874 0.277410448
0.467605561 0.90808326 0.279906601
0.498432934 0.911894083 0.281893969
0.526275218 0.916112959 0.283972234
0.552252233 0.92082715 0.286367834
0.576551378 0.925733507 0.28893894
0.599939585 0.929917693 0.290805042
0.62263155 0.931129754 0.29021427
0.644830406 0.929801762 0.287277669
0.666695714 0.928991556 0.284252316
0.688113332 0.928149045 0.281041741
0.709179461 0.927117646 0.277757108
0.730010927 0.92584151 0.274271339
0.750611186 0.924225688 0.270530015
0.771238625 0.922263205 0.266555876
0.792115867 0.920580208 0.262305021
0.813254654 0.919013739 0.257930219
0.834707975 0.91747582 0.25295797
0.856354356 0.916291833 0.247900575
0.877992153 0.915559769 0.242953748
0.899746418 0.915581107 0.238388896
0.921675384 0.916216493 0.234037355
0.943837941 0.917228341 0.23018533
0.968305588 0.920382559 0.227952853
0.993939221 0.924221575 0.22636494
0.06196126 0.048978534 0.08861208
0.106690064 0.05549131 0.090371251
0.154388458 0.061457232 0.091227733
0.20571813 0.066084273 0.087309673
0.257501185 0.068458132 0.085262835
0.305853039 0.068387121 0.086218528
0.350730717 0.067613035 0.08674901
0.39587301 0.068130471 0.087006874
0.437762827 0.072111808 0.086980999
0.475792825 0.076990217 0.087034382
0.51087749 0.080995388 0.087654702
0.54467386 0.085337885 0.088090084
0.577150881 0.089433201 0.088208616
0.608241975 0.092976205 0.088200048
0.638751328 0.097082004 0.088524349
0.668638945 0.101755373 0.089200243
0.698297501 0.106151253 0.09014757
0.727498531 0.1107722 0.091285698
0.756302297 0.115410894 0.09258537
0.784889162 0.12000341 0.094095729
0.81365031 0.12456429 0.095739923
0.842566252 0.129183218 0.09744066
0.871381879 0.133797199 0.099175647
0.900454879 0.138183653 0.100929752
0.930350244 0.14255701 0.102722377
0.069336787 0.086524844 0.093883306
0.117878065 0.092140265 0.096212626
0.169562012 0.096349463 0.095902495
0.223455936 0.100523807 0.093058228
0.274090916 0.102327257 0.091053329
0.321790904 0.102922626 0.09155266
0.366981059 0.102868252 0.09252017
0.411248028 0.104756184 0.093036696
0.450881928 0.109459266 0.09286879
0.487377882 0.114231989 0.092606336
0.521555543 0.118383013 0.092713945
0.554357529 0.122086234 0.092785954
0.585755467 0.125692889 0.092709467
0.616169512 0.129195169 0.092707708
0.64608413 0.133150637 0.093125798
0.675311387 0.13758333 0.093898728
0.704446614 0.141844958 0.09493985
0.733149767 0.146251559 0.096178733
0.761627614 0.150902987 0.097582176
0.789957345 0.155580387 0.09918046
0.818668544 0.160416409 0.100884818
