assets/lut/TH1_BrightDaylightEditorial.cube
TITLE "Generated by Resolve"
LUT_3D_SIZE 33
0.0563821 0.0563821 0.0563821
0.0850233 0.0559701 0.0559701
0.114519 0.0559396 0.0559396
0.144259 0.0561379 0.0561379
0.173877 0.0560769 0.0560769
0.203464 0.0560159 0.0560159
0.232975 0.0559854 0.0559854
0.26247 0.0559548 0.0559548
0.291997 0.0559243 0.0559243
0.321721 0.0561227 0.0561227
0.351232 0.0560769 0.0560769
0.380728 0.0560464 0.0560464
0.410346 0.0559854 0.0559854
0.439933 0.0559243 0.0559243
0.469505 0.0559548 0.0559548
0.499184 0.0560922 0.0560922
0.528679 0.0560616 0.0560616
0.55819 0.0560311 0.0560311
0.587701 0.0559854 0.0559854
0.617197 0.0559548 0.0559548
0.647059 0.0561227 0.0561227
0.676631 0.0560769 0.0560769
0.706142 0.0560311 0.0560311
0.735653 0.0560006 0.0560006
0.765148 0.0559701 0.0559701
0.794751 0.0560311 0.0560311
0.824399 0.0561379 0.0561379
0.85391 0.0561074 0.0561074
0.883528 0.0560311 0.0560311
0.9131 0.0559854 0.0559854
0.942611 0.0559548 0.0559548
0.972259 0.0560616 0.0560616
1 0.056199 0.056199
0.0562295 0.0852522 0.0562295
0.0853437 0.0853285 0.0562905
0.115084 0.0855268 0.0564889
0.144579 0.0854963 0.0564584
0.174197 0.0854353 0.0563973
0.203784 0.0853742 0.0563363
0.233295 0.0853437 0.0563058
0.263035 0.0855421 0.0565042
0.292531 0.0855116 0.0564736
0.322042 0.0854658 0.0564431
0.351553 0.0854353 0.0563973
0.381048 0.0854047 0.0563668
0.410666 0.0853437 0.0563058
0.440497 0.0855268 0.0564889
0.469993 0.085481 0.0564431
0.499504 0.0854505 0.0564126
0.529 0.08542 0.0563821
0.558511 0.0853742 0.0563516
0.588052 0.0853895 0.0563516
0.617761 0.0855573 0.0565194
0.647379 0.085481 0.0564431
0.676951 0.0854353 0.0563973
0.706462 0.0853895 0.0563668
0.735973 0.085359 0.0563211
0.76556 0.0854047 0.0563668
0.795209 0.0855268 0.0564889
0.82472 0.0854963 0.0564584
0.854231 0.0854658 0.0564279
0.883848 0.0853895 0.0563516
0.91342 0.0853437 0.0563058
0.943053 0.0854353 0.0563973
0.972671 0.0855116 0.0564736
1 0.0855421 0.0565194
0.0563821 0.114946 0.0563821
0.0855573 0.115068 0.0565042
0.115068 0.115038 0.0564736
0.144564 0.114992 0.0564431
0.174166 0.114931 0.0563821
0.203769 0.114885 0.0563211
0.233494 0.115068 0.0565042
0.26302 0.115053 0.0564889
0.292515 0.115007 0.0564431
0.322026 0.114977 0.0564126
0.351522 0.114946 0.0563821
0.381033 0.1149 0.0563516
0.41088 0.115084 0.0565194
0.440467 0.115023 0.0564584
0.469978 0.114992 0.0564279
0.499474 0.114961 0.0563973
0.528984 0.114916 0.0563668
0.558511 0.1149 0.0563516
0.588235 0.115084 0.0565347
0.617731 0.115053 0.0564889
0.647349 0.114992 0.0564279
0.676936 0.114931 0.0563668
0.706447 0.1149 0.0563363
0.736187 0.115099 0.0565347
0.765682 0.115068 0.0565042
0.795193 0.115038 0.0564736
0.824704 0.114992 0.0564431
0.8542 0.114961 0.0563973
0.883879 0.114961 0.0563973
0.913634 0.115084 0.0565194
0.943145 0.115053 0.0564889
0.972641 0.115007 0.0564431
1 0.115053 0.0564889
0.0564279 0.144503 0.0564279
0.0855421 0.144579 0.0564889
0.115038 0.144533 0.0564584
0.144549 0.144503 0.0564126
0.174151 0.144442 0.0563516
0.203983 0.144625 0.0565347
0.233494 0.144579 0.0565042
0.262989 0.144549 0.0564736
0.2925 0.144518 0.0564279
0.321996 0.144488 0.0563973
0.351705 0.14464 0.0565652
0.381247 0.144656 0.0565652
0.410864 0.144594 0.0565042
0.440452 0.144533 0.0564431
0.469947 0.144488 0.0564126
0.499458 0.144457 0.0563821
0.529198 0.144671 0.0565805
0.558709 0.144625 0.0565499
0.588205 0.144594 0.0565042
0.617716 0.144564 0.0564736
0.647334 0.144488 0.0564126
0.676921 0.144442 0.0563516
0.706661 0.14464 0.0565652
0.736156 0.14461 0.0565194
0.765667 0.144579 0.0564889
0.795178 0.144533 0.0564431
0.824674 0.144503 0.0564126
0.854215 0.144503 0.0564279
0.884047 0.14464 0.0565499
0.913619 0.144579 0.0565042
0.94313 0.144549 0.0564736
0.972625 0.144518 0.0564279
1 0.144564 0.0564736
0.0563058 0.174044 0.0563058
0.08542 0.174121 0.0563668
0.114916 0.17409 0.0563363
0.144564 0.174182 0.0564279
0.174273 0.174228 0.0564736
0.203861 0.174166 0.0564126
0.233371 0.174136 0.0563821
0.262867 0.17409 0.0563516
0.292378 0.17406 0.0563058
0.322057 0.174197 0.0564584
0.351629 0.174228 0.0564736
0.381125 0.174197 0.0564431
0.410742 0.174136 0.0563821
0.44033 0.174075 0.0563211
0.469841 0.174044 0.0562905
0.499565 0.174228 0.0564736
0.529076 0.174212 0.0564584
0.558587 0.174166 0.0564279
0.588098 0.174136 0.0563821
0.617594 0.174105 0.0563516
0.647211 0.174044 0.0562905
0.677028 0.174228 0.0564736
0.706538 0.174197 0.0564431
0.736049 0.174151 0.0563973
0.765545 0.174121 0.0563668
0.795056 0.174075 0.0563363
0.824796 0.174289 0.0565347
0.854307 0.174258 0.0565042
0.883925 0.174182 0.0564279
0.913497 0.174136 0.0563821
0.943008 0.174105 0.0563516
0.972519 0.174075 0.0563211
1 0.174334 0.0565957
0.0562142 0.203586 0.0562142
0.0853285 0.203647 0.0562753
0.114946 0.203738 0.0563516
0.144564 0.203815 0.0564431
0.174182 0.203754 0.0563821
0.203769 0.203708 0.0563211
0.23328 0.203662 0.0562905
0.262776 0.203632 0.05626
0.292531 0.20383 0.0564584
0.322026 0.2038 0.0564279
0.351537 0.203769 0.0563821
0.381033 0.203723 0.0563516
0.410651 0.203662 0.0562905
0.440391 0.203769 0.0563821
0.469978 0.203815 0.0564279
0.499489 0.203784 0.0563973
0.528984 0.203738 0.0563668
0.558495 0.203708 0.0563363
0.588006 0.203677 0.0562905
0.6177 0.20383 0.0564584
0.647349 0.203815 0.0564279
0.676936 0.203754 0.0563821
0.706447 0.203723 0.0563516
0.735958 0.203693 0.0563058
0.765454 0.203647 0.0562753
0.795193 0.203861 0.0564736
0.824704 0.203815 0.0564431
0.854215 0.203784 0.0564126
0.883833 0.203723 0.0563363
0.913405 0.203662 0.0562905
0.942916 0.203632 0.05626
0.972656 0.20383 0.0564584
1 0.203876 0.0565042
0.0562295 0.233143 0.0562295
0.0855421 0.233402 0.0564889
0.115053 0.233356 0.0564584
0.144549 0.233326 0.0564279
0.174151 0.233265 0.0563668
0.203754 0.233204 0.0563058
0.233341 0.233265 0.0563516
0.263005 0.233371 0.0564736
0.2925 0.233341 0.0564431
0.322011 0.23331 0.0563973
0.351507 0.233265 0.0563668
0.381018 0.233234 0.0563363
0.410758 0.23331 0.0563973
0.440452 0.233356 0.0564584
0.469963 0.23331 0.0564126
0.499458 0.23328 0.0563821
0.528969 0.233249 0.0563516
0.55848 0.233219 0.0563058
0.588159 0.233356 0.0564584
0.617731 0.233387 0.0564889
0.647334 0.23331 0.0564126
0.676921 0.233265 0.0563668
0.706432 0.233234 0.0563211
0.735927 0.233188 0.0562905
0.765682 0.233402 0.0564889
0.795178 0.233356 0.0564584
0.824689 0.233326 0.0564279
0.854185 0.233295 0.0563973
0.883803 0.233219 0.0563211
0.913603 0.233387 0.0564889
0.94313 0.233371 0.0564736
0.972641 0.233341 0.0564431
1 0.233387 0.0564736
0.0564126 0.262837 0.0564126
0.0855268 0.262898 0.0564736
0.115023 0.262867 0.0564431
0.144533 0.262837 0.0563973
0.174136 0.262776 0.0563363
0.2038 0.262776 0.0563516
0.233478 0.262913 0.0564889
0.262974 0.262882 0.0564584
0.292485 0.262852 0.0564126
0.321996 0.262806 0.0563821
0.351492 0.262776 0.0563516
0.381231 0.262974 0.0565499
0.410849 0.262913 0.0564889
0.440436 0.262852 0.0564279
0.469947 0.262821 0.0563973
0.499443 0.262791 0.0563668
0.529061 0.262867 0.0564431
0.558694 0.262959 0.0565347
0.588205 0.262928 0.0564889
0.6177 0.262882 0.0564584
0.647318 0.262821 0.0563973
0.676905 0.26276 0.0563363
0.706554 0.262882 0.0564584
0.736156 0.262928 0.0565042
0.765652 0.262898 0.0564736
0.795163 0.262867 0.0564431
0.824659 0.262837 0.0563973
0.85417 0.262791 0.0563668
0.883986 0.262928 0.0565042
0.913603 0.262913 0.0564889
0.943114 0.262882 0.0564584
0.97261 0.262837 0.0564126
1 0.262882 0.0564584
0.0563821 0.292332 0.0563821
0.0854963 0.292409 0.0564584
0.115007 0.292378 0.0564126
0.144518 0.292332 0.0563821
0.17435 0.292515 0.0565652
0.203952 0.292454 0.0565042
0.233448 0.292424 0.0564584
0.262959 0.292393 0.0564279
0.29247 0.292348 0.0563973
0.322011 0.292363 0.0564126
0.351705 0.292515 0.0565652
0.381216 0.292485 0.0565347
0.410819 0.292424 0.0564736
0.440406 0.292363 0.0564126
0.469917 0.292332 0.0563668
0.499519 0.292378 0.0564279
0.529168 0.2925 0.0565499
0.558663 0.292454 0.0565042
0.588174 0.292424 0.0564736
0.617685 0.292393 0.0564431
0.647288 0.292332 0.0563668
0.677012 0.292409 0.0564431
0.70663 0.292485 0.0565194
0.736126 0.292439 0.0564889
0.765637 0.292409 0.0564584
0.795132 0.292363 0.0564126
0.824643 0.292332 0.0563821
0.854383 0.292546 0.0565805
0.884001 0.29247 0.0565194
0.913588 0.292424 0.0564584
0.943084 0.292393 0.0564279
0.972595 0.292348 0.0563973
1 0.292561 0.056611
0.0563668 0.321843 0.0563668
0.085481 0.32192 0.0564279
0.114992 0.321874 0.0563973
0.144732 0.322087 0.0565957
0.174334 0.322026 0.0565347
0.203937 0.321965 0.0564889
0.233433 0.32192 0.0564431
0.262943 0.321889 0.0564126
0.29247 0.321889 0.0563973
0.322179 0.322057 0.0565805
0.35169 0.322026 0.0565499
0.381201 0.321981 0.0565042
0.410803 0.32192 0.0564431
0.440391 0.321874 0.0563973
0.47013 0.322072 0.0565957
0.499641 0.322042 0.0565652
0.529152 0.322011 0.0565194
0.558648 0.321965 0.0564889
0.588159 0.321935 0.0564584
0.617731 0.321965 0.0564889
0.647517 0.322072 0.0565957
0.677104 0.322011 0.0565347
0.7066 0.321981 0.0565042
0.73611 0.32195 0.0564736
0.765621 0.32192 0.0564279
0.795224 0.321981 0.0565042
0.824857 0.322087 0.0565957
0.854368 0.322042 0.0565652
0.883986 0.321981 0.0565042
0.913558 0.32192 0.0564431
0.943069 0.321889 0.0564126
0.972717 0.322011 0.0565194
1 0.322133 0.0566567
0.0563363 0.351354 0.0563363
0.0856641 0.351614 0.056611
0.115206 0.351629 0.056611
0.144701 0.351583 0.0565805
0.174304 0.351522 0.0565194
0.203906 0.351461 0.0564584
0.233417 0.351431 0.0564279
0.263157 0.351629 0.0566262
0.292668 0.351598 0.0565957
0.322164 0.351568 0.0565499
0.351675 0.351537 0.0565194
0.38117 0.351492 0.0564889
0.410788 0.351431 0.0564279
0.440604 0.351614 0.056611
0.470115 0.351583 0.0565652
0.499626 0.351537 0.0565347
0.529122 0.351507 0.0565042
0.558633 0.351476 0.0564584
0.588174 0.351492 0.0564736
0.617884 0.351644 0.0566415
0.647486 0.351583 0.0565652
0.677073 0.351522 0.0565194
0.706584 0.351492 0.0564889
0.73608 0.351446 0.0564431
0.765682 0.351507 0.0565042
0.795331 0.351629 0.056611
0.824842 0.351583 0.0565805
0.854353 0.351553 0.0565499
0.883955 0.351492 0.0564736
0.913542 0.351431 0.0564279
0.943282 0.351629 0.0566262
0.972793 0.351598 0.0565957
1 0.351644 0.0566262
0.0565042 0.381033 0.0565042
0.0856794 0.381155 0.0566262
0.11519 0.381125 0.0565957
0.144686 0.381094 0.0565652
0.174289 0.381033 0.0565042
0.203891 0.380972 0.0564431
0.233616 0.381155 0.0566262
0.263142 0.38114 0.056611
0.292638 0.381109 0.0565805
0.322148 0.381064 0.0565347
0.351644 0.381033 0.0565042
0.381155 0.381003 0.0564736
0.411002 0.38117 0.0566415
0.440589 0.381125 0.0565805
0.4701 0.381079 0.0565499
0.499596 0.381048 0.0565194
0.529107 0.381018 0.0564889
0.558846 0.381216 0.0566873
0.588357 0.381186 0.0566567
0.617853 0.381155 0.056611
0.647471 0.381079 0.0565499
0.677058 0.381033 0.0564889
0.706584 0.381018 0.0564889
0.736309 0.381201 0.0566567
0.765805 0.381155 0.0566262
0.795316 0.381125 0.0565957
0.824826 0.381094 0.0565652
0.854322 0.381064 0.0565194
0.884001 0.381048 0.0565194
0.913756 0.38117 0.0566415
0.943267 0.38114 0.056611
0.972763 0.381109 0.0565652
1 0.38114 0.056611
0.0564126 0.410651 0.0564126
0.0855268 0.410712 0.0564889
0.115038 0.410681 0.0564584
0.144549 0.410651 0.0564126
0.174304 0.410742 0.0565042
0.203983 0.410773 0.0565347
0.233478 0.410727 0.0565042
0.262989 0.410697 0.0564584
0.2925 0.410666 0.0564279
0.321996 0.41062 0.0563973
0.351705 0.410788 0.0565652
0.381247 0.410788 0.0565652
0.410849 0.410727 0.0565042
0.440452 0.410681 0.0564431
0.469947 0.410636 0.0564126
0.499458 0.410605 0.0563668
0.529198 0.410803 0.0565805
0.558709 0.410773 0.0565347
0.588205 0.410742 0.0565042
0.617716 0.410697 0.0564736
0.647334 0.410636 0.0564126
0.676905 0.41059 0.0563516
0.706661 0.410788 0.0565499
0.736156 0.410742 0.0565194
0.765667 0.410712 0.0564889
0.795178 0.410681 0.0564584
0.824674 0.410651 0.0564126
0.854231 0.410651 0.0564279
0.884031 0.410788 0.0565499
0.913619 0.410727 0.0565042
0.943114 0.410697 0.0564584
0.972625 0.410666 0.0564279
1 0.410697 0.0564736
0.0563516 0.440177 0.0563516
0.0854658 0.440238 0.0564126
0.114977 0.440208 0.0563821
0.14461 0.440314 0.0564889
0.174319 0.440345 0.0565194
0.203922 0.440284 0.0564736
0.233417 0.440253 0.0564279
0.262928 0.440223 0.0563973
0.292424 0.440192 0.0563668
0.322118 0.44033 0.0565042
0.351675 0.44036 0.0565347
0.38117 0.440314 0.0564889
0.410788 0.440253 0.0564279
0.440375 0.440192 0.0563821
0.469886 0.440162 0.0563363
0.499626 0.44036 0.0565499
0.529137 0.44033 0.0565042
0.558633 0.440299 0.0564736
0.588144 0.440269 0.0564431
0.617655 0.440223 0.0564126
0.647486 0.440375 0.0565652
0.677089 0.440345 0.0565194
0.706584 0.440314 0.0564889
0.736095 0.440269 0.0564584
0.765606 0.440238 0.0564126
0.795102 0.440208 0.0563821
0.824842 0.440406 0.0565805
0.854353 0.440375 0.0565499
0.88397 0.440299 0.0564889
0.913542 0.440253 0.0564279
0.943053 0.440223 0.0563973
0.97258 0.440208 0.0563821
1 0.440467 0.0566415
0.0563363 0.469673 0.0563363
0.0854505 0.469749 0.0563973
0.11519 0.469947 0.0565957
0.144686 0.469917 0.0565652
0.174304 0.469856 0.0565042
0.203891 0.469795 0.0564431
0.233402 0.469764 0.0564126
0.26302 0.469841 0.0564889
0.292653 0.469932 0.0565805
0.322148 0.469886 0.0565499
0.351659 0.469856 0.0565042
0.381155 0.469825 0.0564736
0.410773 0.469764 0.0564126
0.440513 0.469856 0.0565194
0.4701 0.469902 0.0565499
0.499611 0.469871 0.0565194
0.529107 0.469841 0.0564889
0.558618 0.469795 0.0564584
0.588129 0.469764 0.0564126
0.617823 0.469932 0.0565805
0.647486 0.469902 0.0565499
0.677058 0.469856 0.0565042
0.706569 0.46981 0.0564736
0.73608 0.46978 0.0564279
0.765576 0.469749 0.0563973
0.795331 0.469947 0.0565957
0.824826 0.469917 0.0565652
0.854337 0.469886 0.0565347
0.883955 0.46981 0.0564584
0.913527 0.469764 0.0564126
0.943038 0.469718 0.0563821
0.972778 0.469932 0.0565805
1 0.469963 0.0566262
0.0563668 0.499229 0.0563668
0.0856641 0.499489 0.056611
0.115175 0.499458 0.0565805
0.144671 0.499413 0.0565499
0.174273 0.499352 0.0564889
0.203876 0.499306 0.0564279
0.233478 0.499352 0.0564889
0.263127 0.499474 0.0565957
0.292622 0.499428 0.0565652
0.322133 0.499397 0.0565194
0.351644 0.499367 0.0564889
0.38114 0.499336 0.0564584
0.41088 0.499397 0.0565347
0.440574 0.499443 0.0565805
0.470085 0.499413 0.0565347
0.499596 0.499382 0.0565042
0.529091 0.499336 0.0564736
0.558602 0.499306 0.0564279
0.588342 0.499504 0.0566415
0.617853 0.499474 0.056611
0.647456 0.499413 0.0565347
0.677043 0.499352 0.0564889
0.706554 0.499321 0.0564431
0.736233 0.499458 0.0565805
0.765805 0.499489 0.056611
0.7953 0.499458 0.0565805
0.824811 0.499413 0.0565499
0.854307 0.499382 0.0565194
0.88394 0.499321 0.0564431
0.913725 0.499489 0.056611
0.943252 0.499474 0.0565957
0.972763 0.499428 0.0565652
1 0.499474 0.0565957
0.0565194 0.528923 0.0565194
0.0856489 0.529 0.0565957
0.115145 0.528954 0.0565652
0.144656 0.528923 0.0565194
0.174258 0.528862 0.0564584
0.204089 0.529046 0.0566415
0.2336 0.529 0.056611
0.263096 0.528969 0.0565805
0.292607 0.528939 0.0565347
0.322103 0.528908 0.0565042
0.35169 0.528939 0.0565347
0.381353 0.529076 0.056672
0.410971 0.529015 0.056611
0.440558 0.528954 0.0565499
0.470054 0.528908 0.0565194
0.499565 0.528878 0.0564736
0.529183 0.528954 0.0565652
0.558816 0.529046 0.0566415
0.588312 0.529015 0.056611
0.617823 0.528984 0.0565805
0.64744 0.528923 0.0565194
0.677028 0.528862 0.0564584
0.706676 0.528984 0.0565805
0.736263 0.52903 0.0566262
0.765774 0.529 0.0565957
0.795285 0.528954 0.0565652
0.824781 0.528923 0.0565194
0.854292 0.528893 0.0564889
0.884108 0.52903 0.0566262
0.913725 0.529015 0.056611
0.943236 0.528969 0.0565805
0.972732 0.528939 0.0565347
1 0.528984 0.0565805
0.0565042 0.558434 0.0565042
0.0856184 0.558495 0.0565805
0.115129 0.558465 0.0565347
0.14464 0.558434 0.0565042
0.174472 0.558602 0.0566873
0.204074 0.558556 0.0566262
0.23357 0.558511 0.0565805
0.263081 0.55848 0.0565499
0.292592 0.55845 0.0565194
0.322133 0.558465 0.0565347
0.351827 0.558618 0.0566873
0.381338 0.558587 0.0566567
0.410941 0.558511 0.0565957
0.440528 0.558465 0.0565347
0.470039 0.558419 0.0564889
0.499641 0.55848 0.0565499
0.52929 0.558587 0.056672
0.558785 0.558556 0.0566262
0.588296 0.558526 0.0565957
0.617807 0.55848 0.0565652
0.64741 0.558419 0.0564889
0.677241 0.558602 0.056672
0.706752 0.558572 0.0566415
0.736248 0.558526 0.056611
0.765759 0.558495 0.0565805
0.79527 0.558465 0.0565347
0.824903 0.558556 0.0566415
0.854505 0.558633 0.0567025
0.884123 0.558572 0.0566415
0.91371 0.558511 0.0565805
0.943206 0.55848 0.0565499
0.972717 0.55845 0.0565194
1 0.558663 0.056733
0.0564889 0.58793 0.0564889
0.0856031 0.588006 0.0565499
0.115114 0.587976 0.0565194
0.144854 0.588174 0.0567178
0.174456 0.588113 0.0566567
0.204059 0.588052 0.056611
0.233555 0.588022 0.0565652
0.263066 0.587991 0.0565347
0.292805 0.58819 0.056733
0.322301 0.588159 0.0567025
0.351812 0.588113 0.056672
0.381323 0.588083 0.0566415
0.410925 0.588022 0.0565652
0.440543 0.587991 0.0565347
0.470253 0.588159 0.0567178
0.499763 0.588129 0.0566873
0.529274 0.588098 0.0566415
0.55877 0.588052 0.056611
0.588281 0.588022 0.0565805
0.617853 0.588067 0.056611
0.647639 0.588159 0.0567178
0.677226 0.588113 0.0566567
0.706722 0.588083 0.0566262
0.736233 0.588037 0.0565957
0.765743 0.588006 0.0565499
0.795361 0.588083 0.0566262
0.824979 0.588174 0.0567178
0.85449 0.588144 0.0566873
0.884108 0.588067 0.0566262
0.91368 0.588022 0.0565652
0.943191 0.587991 0.0565347
0.972854 0.588098 0.0566567
1 0.58822 0.0567788
0.0564584 0.617441 0.0564584
0.0857862 0.617716 0.056733
0.115328 0.617716 0.056733
0.144823 0.617685 0.0567025
0.174426 0.617624 0.0566415
0.204028 0.617563 0.0565805
0.233539 0.617517 0.0565499
0.263279 0.617731 0.0567483
0.29279 0.6177 0.0567178
0.322286 0.617655 0.056672
0.351797 0.617624 0.0566415
0.381292 0.617594 0.056611
0.41091 0.617533 0.0565499
0.440726 0.6177 0.056733
0.470237 0.61767 0.0566873
0.499748 0.617639 0.0566567
0.529244 0.617609 0.0566262
0.558755 0.617563 0.0565805
0.588312 0.617578 0.056611
0.618006 0.617731 0.0567636
0.647608 0.61767 0.0566873
0.677195 0.617609 0.0566415
0.706706 0.617578 0.056611
0.736202 0.617548 0.0565652
0.765957 0.617746 0.0567788
0.795453 0.617716 0.056733
0.824964 0.617685 0.0567025
0.854475 0.617639 0.056672
0.884092 0.617578 0.0565957
0.913756 0.617609 0.0566415
0.943404 0.617731 0.0567483
0.972915 0.617685 0.0567178
1 0.617731 0.0567483
0.0564889 0.647196 0.0564889
0.0856489 0.647318 0.0565957
0.11516 0.647288 0.0565652
0.144656 0.647242 0.0565347
0.174258 0.647181 0.0564736
0.203861 0.64712 0.0564126
0.2336 0.647334 0.056611
0.263111 0.647288 0.0565805
0.292607 0.647257 0.0565499
0.322118 0.647227 0.0565042
0.351629 0.647196 0.0564736
0.381353 0.647379 0.056672
0.410971 0.647334 0.056611
0.440558 0.647272 0.0565652
0.470069 0.647242 0.0565194
0.49958 0.647196 0.0564889
0.529076 0.647166 0.0564584
0.558816 0.647364 0.0566567
0.588327 0.647334 0.0566262
0.617838 0.647303 0.0565957
0.64744 0.647242 0.0565194
0.677028 0.647181 0.0564736
0.706554 0.647166 0.0564584
0.736278 0.647349 0.0566415
0.765789 0.647318 0.0565957
0.795285 0.647288 0.0565652
0.824796 0.647242 0.0565347
0.854292 0.647211 0.0565042
0.883986 0.647211 0.0565042
0.913725 0.647334 0.056611
0.943236 0.647288 0.0565805
0.972747 0.647257 0.0565499
1 0.647303 0.0565805
0.0564889 0.676768 0.0564889
0.0856031 0.676829 0.0565652
0.115114 0.676799 0.0565194
0.14461 0.676753 0.0564889
0.17438 0.67686 0.0565957
0.204059 0.676875 0.056611
0.233555 0.676844 0.0565652
0.263066 0.676814 0.0565347
0.292576 0.676768 0.0565042
0.322072 0.676738 0.0564736
0.351781 0.676905 0.0566415
0.381323 0.676905 0.0566415
0.410925 0.676844 0.0565805
0.440513 0.676783 0.0565194
0.470024 0.676753 0.0564889
0.499535 0.676722 0.0564431
0.529274 0.676921 0.0566567
0.55877 0.67689 0.056611
0.588281 0.676844 0.0565805
0.617792 0.676814 0.0565499
0.647395 0.676753 0.0564736
0.676997 0.676707 0.0564279
0.706737 0.676905 0.0566262
0.736233 0.67686 0.0565957
0.765743 0.676829 0.0565652
0.795239 0.676799 0.0565194
0.82475 0.676753 0.0564889
0.85449 0.676966 0.0566873
0.884108 0.676905 0.0566262
0.913695 0.676844 0.0565652
0.943191 0.676814 0.0565347
0.972702 0.676768 0.0565042
1 0.67686 0.0565805
0.0564736 0.706264 0.0564736
0.0855879 0.70634 0.0565347
0.115099 0.706294 0.0565042
0.144732 0.706401 0.056611
0.174441 0.706447 0.0566415
0.204044 0.706386 0.0565957
0.233539 0.70634 0.0565499
0.26305 0.70631 0.0565194
0.292546 0.706279 0.0564889
0.322286 0.706477 0.0566873
0.351797 0.706447 0.0566567
0.381308 0.706416 0.0566262
0.41091 0.70634 0.0565499
0.440497 0.706294 0.0565042
0.470192 0.706432 0.0566415
0.499748 0.706462 0.056672
0.529259 0.706432 0.0566262
0.558755 0.706386 0.0565957
0.588266 0.706355 0.0565652
0.617777 0.706325 0.0565347
0.647608 0.706477 0.0566873
0.677211 0.706432 0.0566415
0.706706 0.706401 0.056611
0.736217 0.706371 0.0565805
0.765728 0.70634 0.0565347
0.795224 0.706294 0.0565042
0.824964 0.706508 0.0567025
0.854475 0.706462 0.056672
0.884092 0.706401 0.056611
0.913664 0.70634 0.0565499
0.943175 0.70631 0.0565194
0.972702 0.706294 0.0565042
1 0.706554 0.0567636
0.0564584 0.735775 0.0564584
0.0856489 0.735912 0.0565957
0.115312 0.736049 0.0567178
0.144808 0.736004 0.0566873
0.174426 0.735943 0.0566262
0.204013 0.735882 0.0565652
0.233524 0.735851 0.0565347
0.263142 0.735943 0.056611
0.292775 0.736019 0.0567025
0.322271 0.735988 0.056672
0.351781 0.735958 0.0566262
0.381277 0.735912 0.0565957
0.410895 0.735851 0.0565347
0.440635 0.735958 0.0566415
0.470222 0.736004 0.0566873
0.499733 0.735958 0.0566415
0.529229 0.735927 0.056611
0.55874 0.735897 0.0565805
0.588251 0.735866 0.0565347
0.61796 0.736034 0.0567178
0.647608 0.736004 0.056672
0.67718 0.735943 0.0566262
0.706691 0.735912 0.0565957
0.736202 0.735866 0.0565499
0.765698 0.735836 0.0565194
0.795453 0.736049 0.0567178
0.824948 0.736004 0.0566873
0.854459 0.735973 0.0566567
0.884077 0.735912 0.0565957
0.913649 0.735851 0.0565347
0.943389 0.736049 0.056733
0.9729 0.736019 0.0567025
1 0.736065 0.0567483
0.0564889 0.765332 0.0564889
0.0857862 0.765576 0.056733
0.115297 0.765545 0.0567025
0.144793 0.765515 0.056672
0.174395 0.765454 0.056611
0.203998 0.765393 0.0565499
0.2336 0.765454 0.056611
0.263249 0.76556 0.0567178
0.292744 0.76553 0.0566873
0.322255 0.765484 0.0566415
0.351751 0.765454 0.056611
0.381262 0.765423 0.0565805
0.411109 0.765591 0.0567483
0.440696 0.765545 0.0566873
0.470207 0.765499 0.0566567
0.499702 0.765469 0.0566262
0.529213 0.765438 0.0565957
0.558846 0.76553 0.0566873
0.588464 0.765606 0.0567636
0.61796 0.765576 0.0567178
0.647578 0.765499 0.0566567
0.677165 0.765454 0.0565957
0.706676 0.765423 0.0565652
0.736355 0.76556 0.0567178
0.765911 0.765576 0.056733
0.795422 0.765545 0.0567025
0.824933 0.765515 0.056672
0.854429 0.765484 0.0566262
0.884047 0.765408 0.0565652
0.913848 0.765576 0.056733
0.943374 0.76556 0.0567178
0.972885 0.76553 0.0566873
1 0.76556 0.0567178
0.0566567 0.795026 0.0566567
0.085771 0.795087 0.0567178
0.115267 0.795056 0.0566873
0.144778 0.79501 0.0566415
0.174411 0.794995 0.056611
0.204211 0.795132 0.0567636
0.233722 0.795102 0.056733
0.263218 0.795071 0.0567025
0.292729 0.795041 0.0566567
0.322225 0.794995 0.0566262
0.351812 0.795041 0.056672
0.381476 0.795163 0.0567941
0.411093 0.795102 0.056733
0.440681 0.795041 0.056672
0.470192 0.79501 0.0566415
0.499687 0.79498 0.056611
0.529305 0.795056 0.0566873
0.558938 0.795148 0.0567636
0.588434 0.795102 0.056733
0.617945 0.795071 0.0567025
0.647562 0.79501 0.0566415
0.67715 0.794949 0.0565805
0.706813 0.795087 0.0567025
0.736385 0.795117 0.0567483
0.765896 0.795087 0.0567178
0.795407 0.795056 0.0566873
0.824903 0.79501 0.0566415
0.854414 0.79498 0.056611
0.884276 0.795163 0.0567788
0.913848 0.795102 0.056733
0.943358 0.795071 0.0567025
0.972854 0.795041 0.0566567
1 0.795071 0.0567025
0.0566262 0.824521 0.0566262
0.0857404 0.824598 0.0567025
0.115251 0.824567 0.0566567
0.144762 0.824537 0.0566415
0.174594 0.824704 0.0568093
0.204196 0.824643 0.0567483
0.233692 0.824598 0.0567025
0.263203 0.824567 0.056672
0.292714 0.824537 0.0566415
