assets/lut/TH1_EerieOliveHorrorNarrative.cube
# LUT by SparkleStock. Enhanced with VOXCOLOR algorithms.
LUT_3D_SIZE 8
DOMAIN_MIN 0.000000 0.000000 0.000000
DOMAIN_MAX 0.903226 0.903226 0.903226
0.074237 0.058608 0.039072
0.097869 0.080539 0.057222
0.129001 0.109031 0.085281
0.172673 0.148261 0.127504
0.231896 0.202119 0.187199
0.307330 0.279633 0.270385
0.379771 0.362661 0.354988
0.439631 0.429690 0.422159
0.101083 0.090937 0.066485
0.129838 0.121943 0.085660
0.179467 0.160962 0.113292
0.247632 0.208266 0.152478
0.329761 0.264795 0.206447
0.412221 0.337040 0.284802
0.471318 0.415286 0.373479
0.508766 0.483895 0.452451
0.134357 0.141613 0.117334
0.167510 0.183144 0.142821
0.223821 0.232379 0.164078
0.301781 0.286764 0.193626
0.395633 0.344590 0.240455
0.482008 0.407108 0.309937
0.536747 0.475424 0.397435
0.565489 0.540661 0.483892
0.178550 0.221427 0.200205
0.218545 0.271826 0.234973
0.277344 0.328545 0.254505
0.353301 0.385079 0.272678
0.442012 0.437577 0.301831
0.527728 0.489141 0.359676
0.581310 0.544136 0.440346
0.609463 0.600104 0.525310
0.238245 0.336634 0.319122
0.289071 0.391516 0.362838
0.351405 0.450359 0.390124
0.417701 0.501756 0.400146
0.484319 0.540562 0.401214
0.560814 0.580179 0.442502
0.611426 0.619872 0.509191
0.641903 0.660988 0.580848
0.325401 0.488070 0.471125
0.388083 0.538853 0.513669
0.454704 0.587792 0.545487
0.514060 0.627382 0.560315
0.560058 0.653344 0.558017
0.599669 0.668079 0.559054
0.639498 0.691062 0.595859
0.668456 0.716071 0.642084
0.440600 0.636197 0.615881
0.508429 0.674954 0.647862
0.568656 0.707615 0.671796
0.613986 0.730174 0.681936
0.640844 0.740457 0.676195
0.653694 0.739212 0.661985
0.674670 0.746969 0.671651
0.694959 0.759307 0.691860
0.570011 0.754579 0.735122
0.630863 0.780754 0.757357
0.675650 0.798018 0.770474
0.702208 0.805513 0.771986
0.710687 0.803304 0.761141
0.706412 0.792937 0.740729
0.710898 0.789649 0.731747
0.721805 0.793049 0.734974
0.085580 0.070519 0.047012
0.096040 0.077227 0.057112
0.127476 0.095059 0.082409
0.175601 0.123616 0.120753
0.235720 0.164704 0.171574
0.300908 0.233289 0.243197
0.368226 0.331296 0.336485
0.437308 0.429422 0.429471
0.108914 0.102701 0.076768
0.132995 0.127663 0.103529
0.184283 0.155970 0.132960
0.256211 0.189174 0.167984
0.341446 0.230411 0.212343
0.427372 0.293387 0.278002
0.496190 0.383723 0.367998
0.538780 0.478862 0.460552
0.136705 0.146802 0.120524
0.170552 0.195483 0.166908
0.230045 0.239899 0.193504
0.311735 0.280789 0.217088
0.409547 0.321003 0.250972
0.506197 0.373832 0.306625
0.575455 0.448123 0.389347
0.609366 0.531213 0.481722
0.171494 0.210626 0.185891
0.219048 0.287220 0.258111
0.281259 0.346249 0.283583
0.360768 0.392003 0.292524
0.456316 0.429673 0.308817
0.553771 0.469962 0.349953
0.622234 0.524442 0.420181
0.657801 0.588798 0.505208
0.216753 0.301097 0.279213
0.286782 0.405843 0.381924
0.351540 0.472464 0.413117
0.420521 0.516421 0.409824
0.499501 0.549669 0.403336
0.585822 0.576226 0.423835
0.650772 0.610493 0.474563
0.691462 0.652110 0.540029
0.284735 0.432920 0.412920
0.384410 0.548412 0.529757
0.457280 0.610903 0.569703
0.517677 0.646367 0.569696
0.574820 0.672225 0.557646
0.623236 0.681832 0.542539
0.673457 0.696178 0.559814
0.714172 0.715942 0.591506
0.382346 0.580339 0.559505
0.502221 0.679858 0.660303
0.577205 0.728439 0.698351
0.627003 0.751579 0.702870
0.664884 0.766325 0.694471
0.685048 0.766092 0.671031
0.706959 0.765872 0.655929
0.733318 0.770996 0.655615
0.505584 0.712022 0.693004
0.623289 0.783029 0.765217
0.689366 0.815368 0.793974
0.724426 0.827325 0.798447
0.743322 0.831540 0.791864
0.744712 0.825261 0.770508
0.745500 0.817437 0.744996
0.754815 0.813860 0.730257
0.095719 0.082697 0.056158
0.100781 0.084759 0.062873
0.123774 0.092591 0.084491
0.166372 0.110942 0.120192
0.225573 0.144080 0.168451
0.281241 0.200938 0.226748
0.336473 0.295658 0.311407
0.405600 0.406275 0.411750
0.120827 0.120643 0.094269
0.137574 0.136170 0.118434
0.183053 0.157061 0.157152
0.252089 0.183293 0.200707
0.336890 0.216648 0.243884
0.417134 0.269162 0.295727
0.482784 0.359007 0.374584
0.533594 0.469052 0.469438
0.149304 0.170615 0.145244
0.171889 0.202264 0.182318
0.228583 0.243670 0.227148
0.311234 0.282577 0.267930
0.410472 0.313961 0.300018
0.509064 0.356546 0.342216
0.586799 0.429142 0.411518
0.633061 0.520910 0.497262
0.182473 0.235183 0.211442
0.212988 0.286482 0.263702
0.276054 0.349266 0.312933
0.361793 0.400757 0.345675
0.461386 0.429948 0.359073
0.567130 0.460052 0.386423
0.651690 0.509750 0.440398
0.701355 0.574758 0.511615
0.222382 0.317507 0.295794
0.269015 0.391299 0.369057
0.339462 0.470637 0.426910
0.421185 0.530300 0.451713
0.506599 0.557810 0.441393
0.603431 0.575427 0.446925
0.684615 0.601950 0.478103
0.740041 0.639084 0.527518
0.277099 0.429612 0.409961
0.353029 0.521932 0.504301
0.439900 0.605687 0.572750
0.519350 0.662881 0.599029
0.581769 0.685655 0.580059
0.641844 0.693211 0.553107
0.706518 0.700039 0.550620
0.761855 0.713214 0.565774
0.356810 0.561274 0.541667
0.460755 0.651960 0.634637
0.559145 0.723915 0.699890
0.634350 0.768509 0.727314
0.678317 0.783788 0.714943
0.708406 0.786397 0.682904
0.739200 0.783060 0.649650
0.776607 0.782761 0.632432
0.463224 0.686646 0.668668
0.578792 0.760073 0.743929
0.674426 0.813378 0.795971
0.737586 0.843378 0.819502
0.764184 0.851056 0.813766
0.772652 0.849675 0.788873
0.777995 0.842793 0.751754
0.793055 0.836819 0.723697
0.106542 0.096168 0.068085
0.109714 0.097997 0.073336
0.122393 0.099922 0.089343
0.152717 0.110729 0.120129
0.202279 0.137071 0.166146
0.251959 0.185500 0.217344
0.295265 0.266649 0.287047
0.357802 0.372702 0.380905
0.134383 0.142005 0.116111
0.144660 0.150114 0.134337
0.178181 0.163589 0.174353
0.235755 0.186099 0.225723
0.313087 0.220024 0.279320
0.386785 0.266980 0.325159
0.444258 0.348548 0.388731
0.500098 0.458627 0.475413
0.165947 0.202798 0.179889
0.177661 0.216699 0.202133
0.222593 0.248653 0.253308
0.296923 0.286814 0.312088
0.393305 0.323377 0.362855
0.489971 0.360794 0.399743
0.569255 0.426805 0.453689
0.628704 0.517157 0.526151
0.202276 0.276557 0.256311
0.214961 0.296815 0.280066
0.267005 0.348854 0.337355
0.349668 0.403520 0.395350
0.453373 0.441607 0.432804
0.563151 0.466150 0.454874
0.658341 0.508926 0.493415
0.724739 0.569304 0.547259
0.244128 0.361908 0.343382
0.262373 0.390673 0.371952
0.322663 0.460094 0.436142
0.408339 0.528804 0.490154
0.506352 0.569106 0.506957
0.611597 0.581560 0.506758
0.707485 0.600458 0.522604
0.778666 0.631109 0.554580
0.292953 0.461694 0.444632
0.330599 0.506494 0.489576
0.411116 0.586601 0.563766
0.502790 0.659702 0.618573
0.583738 0.698020 0.624084
0.653274 0.703991 0.592476
0.732151 0.705303 0.577088
0.801775 0.712544 0.579166
0.358866 0.574115 0.556478
0.423467 0.629542 0.612717
0.522763 0.704253 0.685065
0.618312 0.766715 0.736393
0.684659 0.797179 0.742957
0.723314 0.801515 0.707173
0.765372 0.797498 0.664869
0.814920 0.793894 0.637779
0.445082 0.681517 0.664630
0.532065 0.736755 0.720618
0.637240 0.797328 0.781710
0.726056 0.843983 0.824552
0.776507 0.865346 0.833803
0.792108 0.867590 0.807348
0.804840 0.863491 0.764621
0.828189 0.857729 0.729646
0.119091 0.111552 0.083753
0.121036 0.113418 0.087833
0.126529 0.115030 0.096721
0.141737 0.121903 0.118373
0.171000 0.140241 0.157263
0.217734 0.186237 0.211133
0.254649 0.251993 0.269602
0.307280 0.340933 0.349366
0.148029 0.165037 0.140434
0.154885 0.170945 0.154216
0.173033 0.176210 0.180429
0.210825 0.194586 0.228382
0.271098 0.233476 0.297618
0.341794 0.284883 0.352956
0.393196 0.356479 0.406138
0.448512 0.452570 0.477980
0.182544 0.236329 0.216338
0.191110 0.246021 0.233677
0.216288 0.260287 0.267644
0.269925 0.291399 0.328018
0.355159 0.342521 0.410975
0.449699 0.387088 0.460327
0.525597 0.446044 0.504866
0.595046 0.525882 0.563356
0.223945 0.321189 0.305250
0.232533 0.333178 0.322256
0.260253 0.356183 0.356804
0.323735 0.399359 0.418705
0.427315 0.460185 0.501920
0.538330 0.491357 0.537071
0.636132 0.528512 0.568039
0.718381 0.580985 0.608792
0.272113 0.415302 0.401552
0.281229 0.428156 0.416842
0.310344 0.457157 0.448796
0.379883 0.510632 0.505881
0.494198 0.581343 0.579764
0.606500 0.598020 0.592182
0.713211 0.612326 0.603542
0.798720 0.636438 0.623205
0.322677 0.513075 0.499673
0.339494 0.530306 0.516876
0.383236 0.570246 0.555695
0.463935 0.633227 0.614343
0.576117 0.706265 0.676593
0.655161 0.715553 0.656966
0.745599 0.714883 0.641235
0.826833 0.718148 0.637404
0.381606 0.610798 0.595202
0.416051 0.636762 0.621266
0.481081 0.682205 0.666117
0.573886 0.742420 0.722688
0.679879 0.804406 0.773871
0.729407 0.812628 0.748309
0.781706 0.809379 0.708408
0.841228 0.804570 0.680348
0.450186 0.696011 0.680009
0.506953 0.729729 0.713727
0.588719 0.774908 0.759472
0.684603 0.825975 0.809905
0.776647 0.872993 0.851455
0.804329 0.880216 0.833408
0.824128 0.878670 0.792644
0.854328 0.874009 0.757969
0.132136 0.128757 0.103226
0.134521 0.131940 0.108184
0.137756 0.134972 0.114633
0.143804 0.138979 0.124856
0.156290 0.148992 0.144773
0.189704 0.190890 0.201570
0.229279 0.255597 0.266991
0.276824 0.331651 0.340559
0.162684 0.191170 0.168689
0.168279 0.197942 0.180177
0.177254 0.202730 0.195399
0.194129 0.211025 0.219552
0.224876 0.232709 0.261275
0.288938 0.305741 0.353535
0.346097 0.381047 0.420941
0.405704 0.463836 0.488390
0.200572 0.272427 0.255034
0.207943 0.282128 0.269152
0.221127 0.291458 0.289579
0.247281 0.305735 0.322332
0.295037 0.335225 0.376397
0.390352 0.421200 0.484305
0.471813 0.486766 0.545202
0.549749 0.554322 0.599411
0.244973 0.366520 0.354216
0.254104 0.378160 0.368852
0.270444 0.392043 0.390829
0.304013 0.412837 0.426293
0.365909 0.448643 0.483293
0.486348 0.530864 0.588493
0.589108 0.575244 0.635428
0.682187 0.617426 0.672013
0.295263 0.466945 0.457891
0.307104 0.479492 0.472313
0.326378 0.496294 0.493007
0.365862 0.523231 0.526357
0.438067 0.565349 0.578692
0.571268 0.631574 0.665181
0.684271 0.651982 0.692140
0.782386 0.668676 0.709197
0.352560 0.561938 0.551475
0.368136 0.575236 0.565543
0.392934 0.594614 0.586501
0.439867 0.626694 0.620159
0.518636 0.674100 0.668651
0.640561 0.728856 0.724342
0.742939 0.735875 0.728006
0.831855 0.737019 0.726427
0.410782 0.650171 0.636856
0.434542 0.665365 0.652608
0.474476 0.689510 0.677720
0.537052 0.726077 0.714213
0.623936 0.774469 0.760043
0.724353 0.820019 0.797447
0.788446 0.823400 0.777606
0.852146 0.818538 0.756589
0.469714 0.718765 0.704129
0.505994 0.738469 0.723980
0.563230 0.767635 0.753958
0.639098 0.805806 0.792401
0.727681 0.850144 0.835091
0.807229 0.887584 0.865430
0.837376 0.891031 0.840702
0.869043 0.886610 0.812877
0.144078 0.148324 0.124432
0.146902 0.153191 0.130756
0.150300 0.158183 0.138536
0.154212 0.162423 0.146926
0.159967 0.167863 0.158101
0.175915 0.189562 0.188674
0.215018 0.255517 0.263914
0.262478 0.332192 0.345444
0.177944 0.220764 0.200750
0.183695 0.229616 0.212792
0.189338 0.235850 0.224026
0.197278 0.241918 0.237603
0.211309 0.253523 0.259492
0.245043 0.294967 0.313347
0.309360 0.387407 0.411629
0.378093 0.479618 0.501172
0.219961 0.311615 0.297018
0.227232 0.322656 0.310985
0.235617 0.331611 0.325251
0.248602 0.340836 0.343421
0.271893 0.356855 0.372346
0.326748 0.409366 0.439513
0.419316 0.505379 0.542604
0.510735 0.589550 0.625182
0.268644 0.413305 0.403411
0.278137 0.425618 0.417927
0.289747 0.437088 0.433706
0.308148 0.449723 0.454093
0.340832 0.469373 0.485750
0.415501 0.523334 0.556239
0.531270 0.605330 0.649431
0.639513 0.667529 0.715518
0.322535 0.517786 0.510236
0.336082 0.530990 0.525343
0.351545 0.543805 0.540796
0.375542 0.559448 0.560624
0.417115 0.582682 0.591175
0.505819 0.629756 0.655311
0.633295 0.686949 0.728014
0.747171 0.722531 0.773136
0.380467 0.609875 0.601356
0.398314 0.623037 0.615542
0.419279 0.636980 0.630974
0.450610 0.655741 0.651695
0.500220 0.682796 0.681639
0.588774 0.723860 0.729348
0.709225 0.760689 0.777972
0.813553 0.778542 0.803753
0.432187 0.680264 0.669514
0.457401 0.695724 0.685259
0.487814 0.712365 0.702814
0.530727 0.734795 0.726155
0.591912 0.765951 0.757825
0.679476 0.806210 0.798409
0.770365 0.833244 0.823114
0.849974 0.843077 0.830298
0.485781 0.734526 0.721648
0.516250 0.751088 0.738333
0.556910 0.770786 0.758749
0.611915 0.796776 0.785447
0.682868 0.830477 0.819365
0.765989 0.869161 0.857296
0.831434 0.893891 0.873020
0.879409 0.901364 0.870349
0.157336 0.171846 0.150183
0.160519 0.178945 0.158526
0.164597 0.185862 0.168329
0.168550 0.191221 0.177544
0.172172 0.195136 0.185769
0.178307 0.203485 0.198716
0.206032 0.250758 0.255899
0.250250 0.325879 0.340188
0.193592 0.251995 0.236028
0.200194 0.263706 0.249564
0.205634 0.272213 0.261050
0.210758 0.278891 0.271762
0.217120 0.286243 0.284118
0.230531 0.303322 0.307278
0.279751 0.376032 0.389078
0.350498 0.473491 0.490995
0.238229 0.350390 0.341213
0.247260 0.364374 0.356960
0.255030 0.374768 0.369903
0.263069 0.383251 0.382282
0.274152 0.393044 0.397583
0.298825 0.416254 0.427578
0.371811 0.498338 0.518310
0.467137 0.595191 0.617901
0.290220 0.457639 0.453121
0.302218 0.472480 0.469699
0.313272 0.484175 0.483367
0.325660 0.494429 0.496740
0.343220 0.506417 0.513695
0.380117 0.531961 0.546877
0.473243 0.609097 0.633615
0.585318 0.689895 0.718550
0.347632 0.563890 0.560051
0.364076 0.578980 0.577057
0.379500 0.591096 0.590653
0.397464 0.602807 0.604131
0.422772 0.617104 0.621600
0.470493 0.641454 0.654380
0.575371 0.702699 0.727518
0.692254 0.759666 0.792264
0.404740 0.650040 0.644285
0.426713 0.665536 0.660390
0.448666 0.678867 0.674622
0.473765 0.692127 0.689241
0.506518 0.707886 0.707121
0.561934 0.733101 0.736482
0.664534 0.777386 0.792179
0.771497 0.814892 0.838324
0.451668 0.705498 0.697559
0.480236 0.722954 0.714603
0.508589 0.737812 0.729836
0.541661 0.753523 0.746403
0.584510 0.773231 0.767280
0.648681 0.802055 0.797964
0.737962 0.837898 0.838626
0.825846 0.865738 0.869633
0.501397 0.748297 0.737581
0.530456 0.763610 0.752982
0.562626 0.778837 0.768497
0.602989 0.797178 0.787301
0.655519 0.821029 0.811812
0.725498 0.852612 0.844507
0.803029 0.886335 0.878931
0.868590 0.909789 0.900461
