assets/lut/TH1_BrightDaylightEditorial.cube
TITLE "Generated by Resolve"
LUT_3D_SIZE 9
0.0563821 0.0563821 0.0563821
0.173877 0.0560769 0.0560769
0.291997 0.0559243 0.0559243
0.410346 0.0559854 0.0559854
0.528679 0.0560616 0.0560616
0.647059 0.0561227 0.0561227
0.765148 0.0559701 0.0559701
0.883528 0.0560311 0.0560311
1 0.056199 0.056199
0.0563058 0.174044 0.0563058
0.174273 0.174228 0.0564736
0.292378 0.17406 0.0563058
0.410742 0.174136 0.0563821
0.529076 0.174212 0.0564584
0.647211 0.174044 0.0562905
0.765545 0.174121 0.0563668
0.883925 0.174182 0.0564279
1 0.174334 0.0565957
0.0563821 0.292332 0.0563821
0.17435 0.292515 0.0565652
0.29247 0.292348 0.0563973
0.410819 0.292424 0.0564736
0.529168 0.2925 0.0565499
0.647288 0.292332 0.0563668
0.765637 0.292409 0.0564584
0.884001 0.29247 0.0565194
1 0.292561 0.056611
0.0564126 0.410651 0.0564126
0.174304 0.410742 0.0565042
0.2925 0.410666 0.0564279
0.410849 0.410727 0.0565042
0.529198 0.410803 0.0565805
0.647334 0.410636 0.0564126
0.765667 0.410712 0.0564889
0.884031 0.410788 0.0565499
1 0.410697 0.0564736
0.0565194 0.528923 0.0565194
0.174258 0.528862 0.0564584
0.292607 0.528939 0.0565347
0.410971 0.529015 0.056611
0.529183 0.528954 0.0565652
0.64744 0.528923 0.0565194
0.765774 0.529 0.0565957
0.884108 0.52903 0.0566262
1 0.528984 0.0565805
0.0564889 0.647196 0.0564889
0.174258 0.647181 0.0564736
0.292607 0.647257 0.0565499
0.410971 0.647334 0.056611
0.529076 0.647166 0.0564584
0.64744 0.647242 0.0565194
0.765789 0.647318 0.0565957
0.883986 0.647211 0.0565042
1 0.647303 0.0565805
0.0564889 0.765332 0.0564889
0.174395 0.765454 0.056611
0.292744 0.76553 0.0566873
0.411109 0.765591 0.0567483
0.529213 0.765438 0.0565957
0.647578 0.765499 0.0566567
0.765911 0.765576 0.056733
0.884047 0.765408 0.0565652
1 0.76556 0.0567178
0.0564126 0.883604 0.0564126
0.17438 0.883772 0.0565957
0.292729 0.883848 0.056672
0.410864 0.883696 0.0565042
0.529198 0.883757 0.0565805
0.647562 0.883833 0.0566415
0.765911 0.883909 0.0567178
0.884047 0.883741 0.0565499
1 0.883894 0.0567025
0.0565805 1 0.0565805
0.174548 1 0.0567483
0.292897 1 0.0568246
0.411017 1 0.0566567
0.529351 1 0.056733
0.64773 1 0.0567941
0.766033 1 0.0568399
0.884199 1 0.0567178
1 1 0.0568704
0.0559396 0.0559396 0.174151
0.173907 0.0561074 0.174334
0.292012 0.0559396 0.174166
0.410376 0.0560159 0.174243
0.52871 0.0560922 0.174319
0.646891 0.0559701 0.174197
0.765179 0.0560006 0.174228
0.883558 0.0560769 0.174289
1 0.0561227 0.174334
0.0563363 0.17409 0.174563
0.174182 0.174151 0.174609
0.292409 0.17409 0.174563
0.410773 0.174166 0.17464
0.529107 0.174243 0.174716
0.647242 0.174075 0.174548
0.765576 0.174151 0.174624
0.883955 0.174212 0.174685
1 0.174136 0.174609
0.0564126 0.292378 0.17464
0.174151 0.292317 0.174578
0.2925 0.292378 0.174655
0.410864 0.292454 0.174716
0.529198 0.292531 0.174792
0.647334 0.292363 0.174624
0.765667 0.292439 0.174701
0.884031 0.2925 0.174777
1 0.292424 0.174685
0.0564584 0.410681 0.17467
0.174182 0.41062 0.174609
0.292531 0.410697 0.174685
0.410895 0.410758 0.174762
0.529 0.410605 0.174594
0.647364 0.410666 0.174655
0.765698 0.410742 0.174731
0.884077 0.410819 0.174807
1 0.410727 0.174731
0.0565652 0.528969 0.174777
0.174289 0.528893 0.174716
0.292638 0.528969 0.174792
0.411002 0.529046 0.174868
0.529107 0.528878 0.174701
0.647471 0.528954 0.174777
0.765805 0.52903 0.174853
0.884077 0.529 0.174823
1 0.529015 0.174838
0.0564584 0.647166 0.174685
0.174304 0.647211 0.174731
0.292638 0.647288 0.174792
0.410986 0.647334 0.174853
0.529107 0.647196 0.174701
0.647471 0.647272 0.174777
0.76582 0.647349 0.174853
0.883955 0.647181 0.174685
1 0.647334 0.174838
0.0564584 0.765316 0.174685
0.174426 0.765484 0.174853
0.292775 0.76556 0.174929
0.410986 0.765469 0.174853
0.529244 0.765469 0.174838
0.647608 0.765545 0.174914
0.765881 0.765545 0.174929
0.884077 0.765438 0.174823
1 0.765606 0.174975
0.0564584 0.883635 0.17467
0.174426 0.883818 0.174853
0.29276 0.883879 0.174914
0.410895 0.883726 0.174762
0.529229 0.883787 0.174823
0.647593 0.883864 0.174899
0.765743 0.883741 0.174777
0.884077 0.883772 0.174807
1 0.883925 0.17496
0.056611 1 0.174823
0.174578 1 0.175006
0.292927 1 0.175082
0.411048 1 0.174914
0.529381 1 0.17499
0.647761 1 0.175051
0.76585 1 0.174899
0.88423 1 0.17496
1 1 0.175113
0.0559091 0.0559091 0.293095
0.173831 0.0560464 0.293217
0.291997 0.0559243 0.293111
0.410361 0.0560006 0.293172
0.528695 0.0560769 0.293248
0.64683 0.0559091 0.29308
0.765164 0.0559854 0.293156
0.883543 0.0560464 0.293233
1 0.0560464 0.293217
0.0563211 0.17406 0.293492
0.174105 0.17406 0.293492
0.292393 0.174075 0.293507
0.410758 0.174151 0.293568
0.529015 0.174136 0.293553
0.647227 0.17406 0.293477
0.76556 0.174136 0.293553
0.88394 0.174197 0.293629
1 0.174121 0.293538
0.0563973 0.292348 0.293584
0.174121 0.292287 0.293507
0.29247 0.292363 0.293584
0.410834 0.292439 0.29366
0.528969 0.292287 0.293507
0.647303 0.292348 0.293568
0.765652 0.292424 0.293645
0.883894 0.292363 0.293584
1 0.292409 0.293629
0.0562905 0.410513 0.293462
0.174151 0.41059 0.293538
0.292515 0.410666 0.293614
0.410864 0.410742 0.29369
0.528969 0.410574 0.293523
0.647349 0.410651 0.293599
0.765682 0.410727 0.293675
0.883818 0.410559 0.293507
1 0.410712 0.29366
0.0563058 0.52871 0.293477
0.174273 0.528878 0.293645
0.292622 0.528954 0.293721
0.410986 0.52903 0.293797
0.529076 0.528862 0.293629
0.647456 0.528939 0.293706
0.765789 0.529 0.293782
0.883925 0.528832 0.293614
1 0.529 0.293767
0.0563058 0.647028 0.293492
0.174273 0.647196 0.29366
0.292622 0.647272 0.293736
0.410758 0.647105 0.293568
0.529091 0.647181 0.293645
0.647456 0.647257 0.293721
0.765789 0.647318 0.293782
0.883925 0.64715 0.293614
1 0.647318 0.293782
0.0564431 0.765286 0.293614
0.174411 0.765469 0.293797
0.29276 0.765545 0.293873
0.41088 0.765377 0.293706
0.529229 0.765454 0.293782
0.647593 0.765515 0.293843
0.765805 0.765469 0.293797
0.884062 0.765423 0.293751
1 0.765576 0.293904
0.0564279 0.883619 0.293614
0.174395 0.883787 0.293782
0.292699 0.883818 0.293797
0.410864 0.883696 0.29369
0.529213 0.883772 0.293767
0.647578 0.883848 0.293828
0.765682 0.88368 0.293675
0.884047 0.883757 0.293736
1 0.883909 0.293904
0.0565957 1 0.293767
0.174563 1 0.293935
0.292714 1 0.293828
0.411032 1 0.293843
0.529366 1 0.293919
0.647639 1 0.293889
0.765835 1 0.293828
0.884215 1 0.293904
1 1 0.294057
0.0559091 0.0559091 0.411795
0.173648 0.055848 0.411734
0.291997 0.0559243 0.41181
0.410346 0.0560006 0.411887
0.528679 0.0560616 0.411948
0.64683 0.0559091 0.411795
0.765164 0.0559854 0.411872
0.883543 0.0560464 0.411933
1 0.0559701 0.411856
0.0563211 0.17406 0.412207
0.174044 0.173999 0.412131
0.292393 0.174075 0.412207
0.410742 0.174136 0.412284
0.528862 0.173983 0.412116
0.647227 0.17406 0.412192
0.76556 0.174136 0.412268
0.883879 0.174136 0.412284
1 0.174105 0.412253
0.0563211 0.292287 0.412207
0.174121 0.292287 0.412222
0.29247 0.292363 0.412299
0.410834 0.292424 0.41236
0.528939 0.292271 0.412207
0.647303 0.292348 0.412268
0.765652 0.292424 0.412345
0.883833 0.292302 0.412238
1 0.292409 0.412329
0.0562295 0.410452 0.412116
0.174151 0.41059 0.412253
0.2925 0.410666 0.412329
0.410758 0.41062 0.412284
0.528969 0.410574 0.412238
0.647334 0.410651 0.412314
0.765682 0.410727 0.41239
0.883818 0.410559 0.412207
1 0.410712 0.41236
0.0563058 0.52871 0.412192
0.174273 0.528878 0.41236
0.292622 0.528954 0.412436
0.410742 0.528786 0.412268
0.529076 0.528862 0.412345
0.647456 0.528923 0.412421
0.765621 0.528847 0.412329
0.883925 0.528832 0.412329
1 0.528984 0.412482
0.0563058 0.647028 0.412192
0.174273 0.647196 0.412375
0.292622 0.647272 0.412451
0.410742 0.647105 0.412284
0.529091 0.647181 0.41236
0.647456 0.647242 0.412421
0.76556 0.647089 0.412268
0.883925 0.64715 0.412329
1 0.647318 0.412482
0.0564431 0.765286 0.412329
0.174411 0.765469 0.412497
0.29276 0.765545 0.412573
0.41088 0.765377 0.412421
0.529229 0.765454 0.412482
0.647593 0.765515 0.412558
0.765682 0.765362 0.41239
0.884062 0.765423 0.412467
1 0.765576 0.412619
0.0564279 0.883619 0.412314
0.174395 0.883787 0.412497
0.2925 0.883635 0.412329
0.410864 0.883696 0.412406
0.529213 0.883772 0.412482
0.647547 0.883818 0.412528
0.765682 0.88368 0.41239
0.884047 0.883757 0.412451
1 0.883909 0.412604
0.0565957 1 0.412482
0.174563 1 0.41265
0.292668 1 0.412482
0.411032 1 0.412558
0.529366 1 0.412634
0.647578 1 0.412543
0.765835 1 0.412543
0.884215 1 0.412604
1 1 0.412695
0.0558938 0.0558938 0.530739
0.173617 0.0558328 0.530663
0.291966 0.0559091 0.530739
0.41033 0.0559701 0.530816
0.528435 0.0558175 0.530648
0.646799 0.0558785 0.530724
0.765148 0.0559548 0.5308
0.883284 0.0558022 0.530632
1 0.0559396 0.530785
0.0560464 0.1738 0.530892
0.174014 0.173983 0.53106
0.292378 0.17406 0.531136
0.410727 0.174121 0.531212
0.528832 0.173968 0.531044
0.647196 0.174029 0.531121
0.765545 0.174105 0.531197
0.88368 0.173938 0.531029
1 0.17409 0.531182
0.0561379 0.292088 0.530983
0.174105 0.292271 0.531151
0.292454 0.292348 0.531228
0.410773 0.292363 0.531258
0.528923 0.292256 0.531136
0.647288 0.292317 0.531212
0.765621 0.292393 0.531289
0.883757 0.292226 0.531121
1 0.292378 0.531273
0.0561685 0.410407 0.531014
0.174136 0.410574 0.531182
0.292485 0.410651 0.531258
0.410605 0.410483 0.53109
0.528954 0.410559 0.531167
0.647318 0.410636 0.531243
0.765576 0.41062 0.531228
0.883787 0.410544 0.531151
1 0.410697 0.531304
0.0562905 0.528679 0.531121
0.174243 0.528862 0.531289
0.292576 0.528923 0.53135
0.410712 0.528756 0.531197
0.529061 0.528847 0.531273
0.647425 0.528908 0.53135
0.765545 0.528771 0.531212
0.883909 0.528817 0.531258
1 0.528969 0.531411
0.0562905 0.646998 0.531136
0.174258 0.647181 0.531304
0.292454 0.647105 0.531228
0.410727 0.647074 0.531212
0.529076 0.647166 0.531289
0.64744 0.647227 0.53135
0.76553 0.647074 0.531197
0.883909 0.647135 0.531258
1 0.647288 0.531411
0.0564279 0.76527 0.531258
0.174395 0.765438 0.531441
0.2925 0.765286 0.531273
0.410864 0.765347 0.53135
0.529198 0.765423 0.531426
0.647379 0.765301 0.531304
0.765667 0.765332 0.531334
0.884047 0.765408 0.531395
1 0.76556 0.531548
0.0564126 0.883604 0.531258
0.17438 0.883772 0.531426
0.292485 0.883604 0.531258
0.410849 0.88368 0.531334
0.529198 0.883757 0.531411
0.647318 0.883589 0.531243
0.765652 0.883665 0.531319
0.884031 0.883726 0.53138
1 0.883879 0.531533
0.0565652 1 0.531411
0.174517 1 0.531563
0.292653 1 0.531411
0.411002 1 0.531487
0.529351 1 0.531563
0.647486 1 0.531395
0.76582 1 0.531472
0.884184 1 0.531548
1 1 0.531456
0.0557259 0.0557259 0.649271
0.173617 0.0558328 0.649378
0.291966 0.0559091 0.649454
0.410254 0.0558938 0.649439
0.528435 0.0558175 0.649363
0.646799 0.0558785 0.649439
0.765148 0.0559548 0.649516
0.883268 0.055787 0.649332
1 0.0559396 0.6495
0.0560464 0.1738 0.649607
0.174014 0.173983 0.649775
0.292363 0.17406 0.649851
0.410513 0.173907 0.649714
0.528832 0.173968 0.64976
0.647196 0.174029 0.649836
0.765545 0.174105 0.649912
0.88368 0.173938 0.649744
1 0.17409 0.649897
0.0561379 0.292088 0.649683
0.174105 0.292271 0.649866
0.292454 0.292348 0.649943
0.410574 0.29218 0.649775
0.528923 0.292256 0.649851
0.647288 0.292317 0.649912
0.765393 0.292165 0.64976
0.883757 0.292226 0.649821
1 0.292378 0.649973
0.0561685 0.410407 0.649714
0.174136 0.410574 0.649897
0.292485 0.410651 0.649973
0.410605 0.410483 0.649805
0.528954 0.410559 0.649882
0.647318 0.41062 0.649943
0.765423 0.410468 0.64979
0.883787 0.410544 0.649851
1 0.410697 0.650004
0.0562753 0.528679 0.649836
0.174243 0.528847 0.650004
0.292515 0.528862 0.650004
0.410712 0.528756 0.649912
0.529061 0.528832 0.649989
0.647425 0.528908 0.65005
0.76553 0.52874 0.649897
0.883894 0.528817 0.649973
1 0.528969 0.650126
0.0562905 0.646998 0.649836
0.174258 0.647166 0.650019
0.292363 0.647013 0.649851
0.410727 0.647074 0.649912
0.529076 0.64715 0.650004
0.647318 0.647105 0.649943
0.76553 0.647059 0.649912
0.883909 0.647135 0.649973
1 0.647257 0.650095
0.0564279 0.76527 0.649973
0.17435 0.765393 0.650095
0.2925 0.765286 0.649989
0.410864 0.765347 0.65005
0.529198 0.765423 0.650126
0.647334 0.765255 0.649958
0.765667 0.765332 0.650034
0.884047 0.765408 0.650111
1 0.765393 0.650095
0.0564126 0.883604 0.649958
0.174197 0.883589 0.649958
0.292485 0.883604 0.649973
0.410849 0.88368 0.650034
0.529198 0.883757 0.650111
0.647318 0.883589 0.649958
0.765652 0.883665 0.650019
0.884031 0.883726 0.650095
1 0.88365 0.650004
0.0565652 1 0.650126
0.174289 1 0.65005
0.292638 1 0.650126
0.411002 1 0.650202
0.529122 1 0.65005
0.647471 1 0.650111
0.76582 1 0.650187
0.884184 1 0.650248
1 1 0.650172
0.0556344 0.0556344 0.768139
0.173602 0.0558175 0.768322
0.291951 0.0558785 0.768383
0.410178 0.0558175 0.768322
0.52842 0.0558022 0.768307
0.646784 0.0558633 0.768368
0.765072 0.0558938 0.768399
0.883253 0.0557717 0.768277
1 0.0559243 0.768429
0.0560311 0.173785 0.768536
0.173999 0.173953 0.768719
0.292348 0.174029 0.768795
0.410468 0.173861 0.768627
0.528817 0.173938 0.768704
0.647181 0.174014 0.768765
0.765332 0.173907 0.768658
0.88365 0.173922 0.768673
1 0.174075 0.768826
0.0561227 0.292073 0.768627
0.17409 0.292241 0.768795
0.292332 0.29221 0.768765
0.410559 0.292149 0.768704
0.528908 0.292226 0.76878
0.647272 0.292302 0.768856
0.765362 0.292134 0.768688
0.883741 0.29221 0.768765
1 0.292363 0.768917
0.0561532 0.410376 0.768658
0.174121 0.410559 0.768826
0.292226 0.410391 0.768673
0.41059 0.410468 0.768734
0.528939 0.410544 0.768811
0.647303 0.410605 0.768887
0.765393 0.410452 0.768719
0.883772 0.410513 0.768795
1 0.410666 0.768948
0.05626 0.528664 0.768765
0.174228 0.528832 0.768948
0.292332 0.528679 0.76878
0.410697 0.52874 0.768841
0.529046 0.528817 0.768917
0.647166 0.528649 0.76875
0.765515 0.528725 0.768826
0.883879 0.528801 0.768902
1 0.528954 0.769055
0.05626 0.646983 0.76878
0.174228 0.64715 0.768948
0.292348 0.646998 0.76878
0.410712 0.647059 0.768856
0.529046 0.647135 0.768933
0.647181 0.646967 0.768765
0.765515 0.647044 0.768841
0.883894 0.64712 0.768917
1 0.647181 0.768978
0.0563973 0.765255 0.768902
0.174273 0.765316 0.768978
0.292485 0.765255 0.768917
0.410834 0.765332 0.768994
0.529168 0.765393 0.769055
0.647318 0.76524 0.768902
0.765652 0.765316 0.768978
0.884031 0.765393 0.769039
1 0.765301 0.768963
0.0563821 0.883574 0.768902
0.174121 0.883513 0.768826
0.29247 0.883589 0.768902
0.410834 0.88365 0.768978
0.52903 0.883589 0.768902
0.647303 0.883558 0.768887
0.765637 0.88365 0.768963
0.883955 0.88365 0.768963
1 0.883619 0.768948
0.0564736 1 0.768978
0.174273 1 0.768994
0.292622 1 0.76907
0.410986 1 0.769131
0.529091 1 0.768978
0.647456 1 0.769039
0.765789 1 0.769116
0.88397 1 0.768994
1 1 0.7691
0.0556344 0.0556344 0.886854
0.173602 0.0558022 0.887022
0.291951 0.0558785 0.887098
0.410071 0.0557107 0.886931
0.52842 0.055787 0.887007
0.646784 0.0558633 0.887083
0.764889 0.0556954 0.886915
0.883253 0.0557717 0.886992
1 0.0559243 0.887144
0.0560311 0.173785 0.887251
0.173999 0.173953 0.887419
0.292317 0.173999 0.887465
0.410468 0.173861 0.887327
0.528817 0.173938 0.887404
0.647181 0.174014 0.88748
0.765286 0.173846 0.887312
0.88365 0.173922 0.887388
1 0.174075 0.887541
0.0561227 0.292073 0.887343
0.17409 0.292241 0.88751
0.292271 0.292149 0.887419
0.410559 0.292149 0.887419
0.528893 0.292226 0.887495
0.647181 0.29221 0.88748
0.765362 0.292134 0.887404
0.883741 0.29221 0.887465
1 0.292363 0.887617
0.0561532 0.410376 0.887373
0.174121 0.410559 0.887541
0.292226 0.410391 0.887373
0.41059 0.410468 0.887449
0.528939 0.410544 0.887526
0.647089 0.410391 0.887388
0.765393 0.410452 0.887434
0.883772 0.410513 0.887495
1 0.410544 0.887526
0.05626 0.528664 0.88748
0.17409 0.528695 0.88751
0.292332 0.528664 0.88748
0.410697 0.52874 0.887556
0.529046 0.528817 0.887633
0.647166 0.528649 0.887465
0.765515 0.528725 0.887541
0.883879 0.528786 0.887617
1 0.52871 0.887526
0.05626 0.646983 0.88748
0.173999 0.646922 0.887419
0.292348 0.646998 0.887495
0.410712 0.647059 0.887572
0.529046 0.647135 0.887648
0.647181 0.646967 0.88748
0.765515 0.647044 0.887556
0.883879 0.647105 0.887617
1 0.647028 0.887541
0.0563973 0.76524 0.887617
0.174136 0.765179 0.887556
0.292485 0.765255 0.887633
0.410834 0.765332 0.887694
0.528939 0.765164 0.887541
0.647303 0.76524 0.887602
0.765652 0.765316 0.887678
0.884016 0.765377 0.887755
1 0.765301 0.887663
0.0563821 0.883574 0.887602
0.174121 0.883513 0.887541
0.29247 0.883589 0.887617
0.410819 0.88365 0.887694
0.528939 0.883497 0.887526
0.647303 0.883558 0.887587
0.765637 0.883635 0.887678
0.883894 0.883589 0.887617
1 0.883619 0.887663
0.0564126 1 0.887633
0.174273 1 0.887694
0.292622 1 0.88777
0.410941 1 0.8878
0.529091 1 0.887678
0.647456 1 0.887755
0.765789 1 0.887831
0.883925 1 0.887663
1 1 0.887816
0.0556649 0.0556649 1
0.173632 0.0558328 1
0.291768 0.0556954 1
0.410101 0.0557412 1
0.528435 0.0558175 1
0.646799 0.0558785 1
0.764904 0.0557259 1
0.883284 0.055787 1
1 0.0559548 1
0.0560616 0.1738 1
0.174029 0.173983 1
0.292134 0.173816 1
0.410498 0.173892 1
0.528832 0.173968 1
0.647196 0.174029 1
0.765301 0.173877 1
0.88368 0.173938 1
1 0.17409 1
0.0561379 0.292088 1
0.174105 0.292271 1
0.29221 0.292103 1
0.410574 0.29218 1
0.528923 0.292256 1
0.647044 0.292088 1
0.765393 0.292165 1
0.883757 0.292226 1
1 0.292332 1
0.0561685 0.410407 1
0.174075 0.410513 1
0.292241 0.410407 1
0.410605 0.410483 1
0.528954 0.410559 1
0.647089 0.410391 1
0.765423 0.410468 1
0.883787 0.410544 1
1 0.410513 1
0.0562753 0.528679 1
0.17406 0.528664 1
0.292363 0.528695 1
0.410727 0.528771 1
0.528954 0.528725 1
0.647196 0.528664 1
0.76553 0.528756 1
0.883894 0.528817 1
1 0.52874 1
0.0562905 0.646998 1
0.174014 0.646937 1
0.292363 0.647013 1
0.410727 0.647089 1
0.528832 0.646922 1
0.647196 0.646998 1
0.765545 0.647074 1
0.883757 0.646983 1
1 0.647059 1
0.05626 0.765103 1
0.174151 0.765209 1
0.2925 0.765286 1
0.410864 0.765347 1
0.528969 0.765194 1
0.647334 0.765255 1
0.765667 0.765332 1
0.883803 0.765164 1
1 0.765316 1
0.0561685 0.88336 1
0.174136 0.883528 1
0.292485 0.883604 1
0.410849 0.88368 1
0.528954 0.883513 1
0.647318 0.883589 1
0.765667 0.883665 1
0.883787 0.883497 1
1 0.88365 1
0.0563363 1 1
0.174304 1 1
0.292653 1 1
0.410773 1 1
0.529107 1 1
0.647471 1 1
0.765805 1 1
0.883955 1 1
1 1 1
