assets/lut/TH1_EerieOliveHorrorNarrative.cube
# LUT by SparkleStock. Enhanced with VOXCOLOR algorithms.
LUT_3D_SIZE 32
0.074237 0.058608 0.039072
0.080145 0.064091 0.043609
0.086053 0.069573 0.048147
0.091961 0.075056 0.052684
0.097869 0.080539 0.057222
0.103777 0.086022 0.061759
0.111891 0.093434 0.069211
0.120446 0.101233 0.077246
0.129001 0.109031 0.085281
0.137556 0.116830 0.093316
0.146111 0.124629 0.101351
0.158447 0.135641 0.113419
0.172673 0.148261 0.127504
0.186900 0.160881 0.141589
0.201126 0.173500 0.155674
0.215353 0.186120 0.169759
0.231896 0.202119 0.187199
0.250754 0.221497 0.207996
0.269613 0.240876 0.228792
0.288471 0.260254 0.249588
0.307330 0.279633 0.270385
0.325889 0.299563 0.291323
0.343850 0.320596 0.312545
0.361810 0.341628 0.333767
0.379771 0.362661 0.354988
0.397731 0.383694 0.376210
0.414770 0.403411 0.396069
0.427201 0.416550 0.409114
0.439631 0.429690 0.422159
0.452062 0.442830 0.435204
0.464492 0.455969 0.448249
0.476923 0.469109 0.461294
0.080948 0.066690 0.045925
0.087177 0.072740 0.050527
0.093405 0.078790 0.055128
0.099633 0.084840 0.059730
0.105861 0.090890 0.064331
0.112090 0.096940 0.068933
0.121507 0.105026 0.076342
0.131562 0.113520 0.084313
0.141617 0.122014 0.092284
0.151672 0.130508 0.100255
0.161728 0.139002 0.108226
0.175613 0.150405 0.120029
0.191413 0.163262 0.133748
0.207213 0.176120 0.147466
0.223013 0.188977 0.161185
0.238813 0.201835 0.174904
0.256362 0.217788 0.192011
0.275660 0.236837 0.212506
0.294957 0.255886 0.233000
0.314255 0.274935 0.253495
0.333553 0.293985 0.273989
0.352042 0.313597 0.294848
0.368914 0.334337 0.316436
0.385786 0.355077 0.338023
0.402657 0.375817 0.359611
0.419529 0.396557 0.381199
0.435384 0.416102 0.401538
0.446149 0.429672 0.415635
0.456915 0.443241 0.429732
0.467681 0.456811 0.443829
0.478446 0.470380 0.457926
0.489212 0.483950 0.472023
0.087660 0.074773 0.052779
0.094208 0.081390 0.057444
0.100757 0.088007 0.062110
0.107305 0.094624 0.066775
0.113854 0.101241 0.071441
0.120402 0.107858 0.076106
0.131123 0.116618 0.083473
0.142679 0.125807 0.091380
0.154234 0.134996 0.099287
0.165789 0.144186 0.107193
0.177345 0.153375 0.115100
0.192779 0.165168 0.126638
0.210152 0.178263 0.139991
0.227526 0.191359 0.153344
0.244900 0.204454 0.166697
0.262273 0.217549 0.180050
0.280828 0.233457 0.196823
0.300565 0.252177 0.217015
0.320302 0.270897 0.237208
0.340039 0.289616 0.257401
0.359775 0.308336 0.277593
0.378194 0.327632 0.298373
0.393978 0.348079 0.320327
0.409761 0.368526 0.342280
0.425544 0.388974 0.364234
0.441328 0.409421 0.386188
0.455997 0.428794 0.407007
0.465098 0.442793 0.422156
0.474199 0.456792 0.437305
0.483299 0.470792 0.452454
0.492400 0.484791 0.467603
0.501501 0.498791 0.482752
0.094372 0.082855 0.059632
0.101240 0.090039 0.064362
0.108109 0.097223 0.069091
0.114977 0.104407 0.073821
0.121846 0.111592 0.078550
0.128715 0.118776 0.083280
0.140739 0.128210 0.090604
0.153795 0.138095 0.098446
0.166851 0.147979 0.106289
0.179906 0.157863 0.114132
0.192962 0.167748 0.121975
0.209945 0.179931 0.133247
0.228892 0.193265 0.146235
0.247839 0.206598 0.159222
0.266786 0.219931 0.172209
0.285733 0.233264 0.185196
0.305295 0.249126 0.201635
0.325470 0.267516 0.221525
0.345646 0.285907 0.241416
0.365822 0.304297 0.261307
0.385998 0.322688 0.281198
0.404347 0.341666 0.301898
0.419042 0.361821 0.324218
0.433736 0.381975 0.346537
0.448431 0.402130 0.368857
0.463126 0.422284 0.391176
0.476611 0.441485 0.412476
0.484046 0.455914 0.428677
0.491482 0.470344 0.444878
0.498918 0.484773 0.461079
0.506354 0.499202 0.477280
0.513789 0.513632 0.493481
0.101083 0.090937 0.066485
0.108272 0.098688 0.071279
0.115461 0.106440 0.076073
0.122650 0.114191 0.080866
0.129838 0.121943 0.085660
0.137027 0.129694 0.090453
0.150355 0.139802 0.097734
0.164911 0.150382 0.105513
0.179467 0.160962 0.113292
0.194023 0.171541 0.121071
0.208579 0.182121 0.128850
0.227111 0.194695 0.139857
0.247632 0.208266 0.152478
0.268152 0.221837 0.165099
0.288673 0.235408 0.177720
0.309193 0.248979 0.190342
0.329761 0.264795 0.206447
0.350376 0.282856 0.226035
0.370991 0.300917 0.245624
0.391606 0.318978 0.265213
0.412221 0.337040 0.284802
0.430499 0.355701 0.305423
0.444105 0.375563 0.328109
0.457712 0.395424 0.350794
0.471318 0.415286 0.373479
0.484924 0.435148 0.396165
0.497224 0.454176 0.417945
0.502995 0.469035 0.435198
0.508766 0.483895 0.452451
0.514537 0.498754 0.469704
0.520307 0.513614 0.486957
0.526078 0.528473 0.504210
0.107795 0.099019 0.073339
0.115304 0.107338 0.078196
0.122813 0.115656 0.083054
0.130322 0.123975 0.087912
0.137831 0.132294 0.092769
0.145340 0.140612 0.097627
0.159971 0.151394 0.104865
0.176027 0.162669 0.112580
0.192084 0.173944 0.120295
0.208140 0.185219 0.128010
0.224196 0.196494 0.135725
0.244277 0.209458 0.146466
0.266371 0.223267 0.158722
0.288465 0.237076 0.170977
0.310559 0.250885 0.183232
0.332653 0.264693 0.195487
0.354227 0.280464 0.211258
0.375281 0.298196 0.230545
0.396335 0.315928 0.249832
0.417389 0.333659 0.269119
0.438443 0.351391 0.288406
0.456652 0.369735 0.308948
0.469169 0.389304 0.332000
0.481687 0.408874 0.355051
0.494204 0.428443 0.378102
0.506722 0.448012 0.401154
0.517837 0.466867 0.423414
0.521943 0.482157 0.441719
0.526049 0.497446 0.460024
0.530155 0.512735 0.478329
0.534261 0.528025 0.496634
0.538367 0.543314 0.514940
0.116397 0.112498 0.087085
0.124173 0.121490 0.092395
0.131948 0.130482 0.097706
0.139724 0.139475 0.103016
0.147500 0.148467 0.108327
0.155276 0.157460 0.113637
0.170198 0.168870 0.120250
0.186550 0.180764 0.127123
0.202902 0.192658 0.133996
0.219254 0.204552 0.140869
0.235606 0.216446 0.147742
0.256231 0.229729 0.157909
0.278991 0.243707 0.169722
0.301751 0.257685 0.181535
0.324511 0.271663 0.193348
0.347271 0.285642 0.205161
0.369284 0.301168 0.220412
0.390548 0.318243 0.239099
0.411813 0.335317 0.257787
0.433077 0.352392 0.276475
0.454342 0.369467 0.295163
0.472607 0.387146 0.315293
0.484874 0.406033 0.338306
0.497142 0.424921 0.361319
0.509409 0.443808 0.384332
0.521677 0.462696 0.407346
0.532498 0.480998 0.429709
0.536090 0.496374 0.448822
0.539683 0.511751 0.467935
0.543275 0.527127 0.487048
0.546867 0.542503 0.506162
0.550459 0.557879 0.525275
0.125377 0.127055 0.102210
0.133409 0.136743 0.108051
0.141441 0.146430 0.113892
0.149473 0.156118 0.119733
0.157505 0.165806 0.125574
0.165537 0.175494 0.131415
0.180548 0.187523 0.137285
0.196955 0.200021 0.143161
0.213362 0.212518 0.149037
0.229769 0.225016 0.154913
0.246175 0.237514 0.160789
0.267141 0.251102 0.170318
0.290386 0.265236 0.181674
0.313631 0.279369 0.193029
0.336876 0.293503 0.204385
0.360121 0.307636 0.215741
0.382458 0.322879 0.230433
0.403887 0.339231 0.248462
0.425317 0.355583 0.266492
0.446746 0.371935 0.284521
0.468175 0.388287 0.302550
0.486523 0.405231 0.322201
0.498708 0.423360 0.345095
0.510893 0.441488 0.367989
0.523078 0.459616 0.390884
0.535263 0.477744 0.413778
0.545969 0.495417 0.436169
0.549277 0.510812 0.456041
0.552586 0.526206 0.475914
0.555894 0.541601 0.495786
0.559203 0.556995 0.515659
0.562511 0.572390 0.535531
0.134357 0.141613 0.117334
0.142645 0.151995 0.123706
0.150934 0.162378 0.130077
0.159222 0.172761 0.136449
0.167510 0.183144 0.142821
0.175798 0.193527 0.149192
0.190897 0.206176 0.154320
0.207359 0.219277 0.159199
0.223821 0.232379 0.164078
0.240283 0.245480 0.168957
0.256744 0.258581 0.173836
0.278052 0.272475 0.182727
0.301781 0.286764 0.193626
0.325511 0.301053 0.204524
0.349241 0.315342 0.215422
0.372971 0.329631 0.226321
0.395633 0.344590 0.240455
0.417227 0.360220 0.257825
0.438820 0.375849 0.275196
0.460414 0.391478 0.292566
0.482008 0.407108 0.309937
0.500438 0.423317 0.329109
0.512541 0.440686 0.351884
0.524644 0.458055 0.374660
0.536747 0.475424 0.397435
0.548849 0.492793 0.420211
0.559439 0.509836 0.442629
0.562464 0.525249 0.463261
0.565489 0.540661 0.483892
0.568514 0.556074 0.504524
0.571539 0.571487 0.525156
0.574564 0.586900 0.545788
0.143338 0.156170 0.132459
0.151882 0.167248 0.139361
0.160426 0.178326 0.146263
0.168970 0.189405 0.153165
0.177515 0.200483 0.160068
0.186059 0.211561 0.166970
0.201247 0.224828 0.171355
0.217763 0.238534 0.175237
0.234280 0.252239 0.179118
0.250797 0.265944 0.183000
0.267313 0.279649 0.186882
0.288962 0.293847 0.195137
0.313177 0.308292 0.205577
0.337391 0.322737 0.216018
0.361606 0.337181 0.226459
0.385821 0.351626 0.236900
0.408807 0.366302 0.250477
0.430566 0.381208 0.267188
0.452324 0.396115 0.283900
0.474083 0.411022 0.300612
0.495841 0.425928 0.317324
0.514354 0.441402 0.336017
0.526374 0.458012 0.358674
0.538395 0.474622 0.381330
0.550415 0.491232 0.403987
0.562436 0.507841 0.426643
0.572910 0.524254 0.449089
0.575651 0.539686 0.470480
0.578392 0.555117 0.491871
0.581134 0.570548 0.513262
0.583875 0.585979 0.534653
0.586616 0.601410 0.556044
0.152318 0.170727 0.147584
0.161118 0.182501 0.155016
0.169919 0.194274 0.162449
0.178719 0.206048 0.169882
0.187519 0.217821 0.177315
0.196320 0.229595 0.184747
0.211596 0.243481 0.188390
0.228168 0.257790 0.191275
0.244739 0.272099 0.194159
0.261311 0.286408 0.197044
0.277882 0.300717 0.199929
0.299873 0.315220 0.207546
0.324572 0.329820 0.217529
0.349272 0.344420 0.227513
0.373971 0.359021 0.237496
0.398671 0.373621 0.247480
0.421982 0.388013 0.260498
0.443905 0.402197 0.276551
0.465828 0.416381 0.292604
0.487751 0.430565 0.308658
0.509675 0.444749 0.324711
0.528269 0.459488 0.342925
0.540208 0.475338 0.365463
0.552146 0.491189 0.388001
0.564084 0.507039 0.410538
0.576022 0.522890 0.433076
0.586380 0.538673 0.455549
0.588838 0.554123 0.477699
0.591295 0.569572 0.499849
0.593753 0.585021 0.522000
0.596211 0.600471 0.544150
0.598669 0.615920 0.566300
0.164607 0.193919 0.171657
0.173938 0.206162 0.179700
0.183269 0.218405 0.187742
0.192600 0.230648 0.195785
0.201930 0.242891 0.203827
0.211261 0.255134 0.211870
0.226657 0.269373 0.215591
0.243265 0.284011 0.218449
0.259873 0.298650 0.221306
0.276481 0.313288 0.224163
0.293089 0.327926 0.227020
0.314512 0.342175 0.233575
0.338343 0.356229 0.241979
0.362173 0.370284 0.250383
0.386004 0.384338 0.258787
0.409834 0.398392 0.267191
0.432629 0.412181 0.279035
0.454387 0.425703 0.294320
0.476146 0.439225 0.309605
0.497904 0.452748 0.324890
0.519663 0.466270 0.340174
0.538122 0.480260 0.357705
0.549984 0.495187 0.379727
0.561846 0.510113 0.401750
0.573708 0.525039 0.423772
0.585570 0.539966 0.445794
0.595892 0.554887 0.467798
0.598518 0.569781 0.489714
0.601143 0.584676 0.511629
0.603769 0.599570 0.533545
0.606394 0.614465 0.555461
0.609020 0.629359 0.577376
0.178550 0.221427 0.200205
0.188549 0.234026 0.208897
0.198547 0.246626 0.217589
0.208546 0.259226 0.226281
0.218545 0.271826 0.234973
0.228543 0.284426 0.243665
0.244073 0.298884 0.247876
0.260709 0.313715 0.251191
0.277344 0.328545 0.254505
0.293980 0.343376 0.257820
0.310615 0.358206 0.261135
0.331017 0.371921 0.266415
0.353301 0.385079 0.272678
0.375586 0.398237 0.278942
0.397870 0.411395 0.285205
0.420155 0.424553 0.291468
0.442012 0.437577 0.301831
0.463441 0.450468 0.316292
0.484870 0.463359 0.330754
0.506299 0.476250 0.345215
0.527728 0.489141 0.359676
0.545944 0.502375 0.376420
0.557733 0.516295 0.397729
0.569521 0.530216 0.419038
0.581310 0.544136 0.440346
0.593099 0.558056 0.461655
0.603426 0.571998 0.482943
0.606444 0.586051 0.504127
0.609463 0.600104 0.525310
0.612482 0.614157 0.546494
0.615501 0.628210 0.567678
0.618520 0.642262 0.588861
0.192493 0.248935 0.228753
0.203159 0.261891 0.238094
0.213826 0.274848 0.247436
0.224492 0.287804 0.256777
0.235159 0.300761 0.266119
0.245826 0.313718 0.275461
0.261489 0.328396 0.280161
0.278152 0.343418 0.283933
0.294815 0.358441 0.287705
0.311478 0.373463 0.291477
0.328141 0.388486 0.295249
0.347521 0.401667 0.299255
0.368260 0.413929 0.303378
0.388998 0.426190 0.307500
0.409737 0.438452 0.311623
0.430475 0.450713 0.315746
0.451394 0.462973 0.324626
0.472494 0.475233 0.338264
0.493594 0.487493 0.351902
0.514694 0.499753 0.365540
0.535794 0.512013 0.379178
0.553765 0.524491 0.395136
0.565481 0.537404 0.415731
0.577196 0.550318 0.436326
0.588912 0.563232 0.456921
0.600627 0.576146 0.477516
0.610959 0.589110 0.498087
0.614371 0.602321 0.518539
0.617783 0.615532 0.538991
0.621196 0.628743 0.559443
0.624608 0.641954 0.579895
0.628020 0.655166 0.600347
0.206436 0.276443 0.257300
0.217770 0.289756 0.267292
0.229105 0.303069 0.277283
0.240439 0.316383 0.287274
0.251773 0.329696 0.297265
0.263108 0.343009 0.307256
0.278905 0.357907 0.312446
0.295596 0.373122 0.316675
0.312286 0.388336 0.320905
0.328977 0.403551 0.325134
0.345667 0.418766 0.329363
0.364026 0.431414 0.332095
0.383218 0.442778 0.334077
0.402411 0.454143 0.336059
0.421603 0.465508 0.338041
0.440796 0.476873 0.340023
0.460777 0.488370 0.347421
0.481548 0.499998 0.360236
0.502318 0.511627 0.373051
0.523089 0.523256 0.385866
0.543859 0.534884 0.398680
0.561587 0.546606 0.413851
0.573229 0.558513 0.433732
0.584872 0.570421 0.453614
0.596514 0.582329 0.473496
0.608156 0.594236 0.493377
0.618492 0.606221 0.513232
0.622298 0.618590 0.532952
0.626104 0.630960 0.552672
0.629909 0.643330 0.572392
0.633715 0.655699 0.592112
0.637520 0.668069 0.611832
0.220379 0.303951 0.285848
0.232381 0.317621 0.296489
0.244383 0.331291 0.307129
0.256385 0.344961 0.317770
0.268388 0.358631 0.328411
0.280390 0.372301 0.339051
0.296322 0.387418 0.344730
0.313040 0.402825 0.349417
0.329757 0.418232 0.354104
0.346475 0.433639 0.358791
0.363193 0.449045 0.363478
0.380530 0.461160 0.364934
0.398177 0.471628 0.364776
0.415823 0.482097 0.364617
0.433470 0.492565 0.364459
0.451116 0.503033 0.364300
0.470160 0.513766 0.370216
0.490601 0.524763 0.382208
0.511042 0.535761 0.394199
0.531483 0.546758 0.406191
0.551925 0.557756 0.418182
0.569408 0.568721 0.432566
0.580978 0.579622 0.451734
0.592547 0.590524 0.470902
0.604116 0.601425 0.490070
0.615685 0.612326 0.509238
0.626026 0.623332 0.528376
0.630225 0.634860 0.547365
0.634424 0.646388 0.566353
0.638623 0.657916 0.585341
0.642821 0.669444 0.604329
0.647020 0.680972 0.623317
0.238245 0.336634 0.319122
0.250951 0.350354 0.330051
0.263658 0.364075 0.340980
0.276365 0.377795 0.351909
0.289071 0.391516 0.362838
0.301778 0.405236 0.373766
0.317869 0.420122 0.379863
0.334637 0.435240 0.384994
0.351405 0.450359 0.390124
0.368174 0.465477 0.395255
0.384942 0.480596 0.400385
0.401399 0.492084 0.401316
0.417701 0.501756 0.400146
0.434003 0.511429 0.398977
0.450304 0.521101 0.397808
0.466606 0.530774 0.396638
0.484319 0.540562 0.401214
0.503443 0.550466 0.411536
0.522566 0.560370 0.421858
0.541690 0.570275 0.432180
0.560814 0.580179 0.442502
0.577350 0.590091 0.455364
0.588708 0.600018 0.473307
0.600067 0.609945 0.491249
0.611426 0.619872 0.509191
0.622785 0.629799 0.527133
0.632993 0.639834 0.545067
0.637448 0.650411 0.562957
0.641903 0.660988 0.580848
0.646358 0.671564 0.598738
0.650813 0.682141 0.616628
0.655268 0.692717 0.634519
0.260034 0.374493 0.357123
0.273481 0.387957 0.367979
0.286929 0.401421 0.378834
0.300376 0.414886 0.389690
0.313824 0.428350 0.400546
0.327272 0.441814 0.411401
0.343547 0.456017 0.417844
0.360389 0.470367 0.423405
0.377230 0.484717 0.428965
0.394072 0.499067 0.434525
0.410913 0.513417 0.440086
0.426632 0.524186 0.441239
0.441791 0.533163 0.440189
0.456949 0.542140 0.439138
0.472107 0.551117 0.438088
0.487265 0.560094 0.437037
0.503254 0.568758 0.440415
0.520072 0.577107 0.448221
0.536891 0.585456 0.456028
0.553709 0.593805 0.463834
0.570528 0.602154 0.471640
0.585410 0.610715 0.482246
0.596422 0.619700 0.498450
0.607433 0.628685 0.514654
0.618444 0.637669 0.530858
0.629455 0.646654 0.547062
0.639393 0.655727 0.563303
0.643967 0.665243 0.579730
0.648541 0.674758 0.596157
0.653115 0.684274 0.612584
0.657689 0.693789 0.629010
0.662263 0.703305 0.645437
0.281823 0.412352 0.395124
0.296011 0.425560 0.405906
0.310200 0.438768 0.416689
0.324388 0.451976 0.427471
0.338577 0.465184 0.438254
0.352765 0.478393 0.449036
0.369226 0.491912 0.455825
0.386140 0.505494 0.461815
0.403055 0.519075 0.467806
0.419970 0.532657 0.473796
0.436884 0.546239 0.479787
0.451865 0.556287 0.481162
0.465880 0.564569 0.480231
0.479895 0.572851 0.479299
0.493910 0.581133 0.478368
0.507924 0.589415 0.477436
0.522188 0.596953 0.479616
0.536702 0.603747 0.484906
0.551215 0.610541 0.490197
0.565728 0.617335 0.495487
0.580241 0.624129 0.500778
0.593471 0.631339 0.509127
0.604135 0.639382 0.523593
0.614798 0.647424 0.538059
0.625462 0.655467 0.552525
0.636125 0.663509 0.566991
0.645794 0.671621 0.581540
0.650487 0.680075 0.596503
0.655180 0.688529 0.611466
0.659873 0.696983 0.626429
0.664565 0.705438 0.641392
0.669258 0.713892 0.656355
0.303612 0.450211 0.433125
0.318541 0.463163 0.443834
0.333471 0.476115 0.454543
0.348400 0.489067 0.465252
0.363330 0.502019 0.475962
0.378259 0.514971 0.486671
0.394904 0.527807 0.493806
0.411892 0.540620 0.500226
0.428880 0.553434 0.506647
0.445867 0.566247 0.513067
0.462855 0.579060 0.519487
0.477099 0.588389 0.521086
0.489970 0.595976 0.520273
0.502841 0.603563 0.519460
0.515712 0.611149 0.518648
0.528583 0.618736 0.517835
0.541123 0.625149 0.518816
0.553331 0.630388 0.521591
0.565539 0.635626 0.524366
0.577747 0.640865 0.527141
0.589955 0.646104 0.529916
0.601532 0.651963 0.536008
0.611848 0.659063 0.548736
0.622164 0.666164 0.561464
0.632480 0.673264 0.574192
0.642796 0.680364 0.586920
0.652194 0.687514 0.599776
0.657006 0.694907 0.613276
0.661818 0.702300 0.626775
0.666630 0.709693 0.640274
0.671442 0.717086 0.653774
0.676253 0.724479 0.667273
0.325401 0.488070 0.471125
0.341071 0.500766 0.481761
0.356742 0.513461 0.492397
0.372412 0.526157 0.503033
0.388083 0.538853 0.513669
0.403753 0.551549 0.524306
0.420582 0.563702 0.531787
0.437643 0.575747 0.538637
0.454704 0.587792 0.545487
0.471765 0.599837 0.552338
0.488826 0.611882 0.559188
0.502332 0.620491 0.561009
0.514060 0.627382 0.560315
0.525787 0.634274 0.559622
0.537515 0.641165 0.558928
0.549243 0.648057 0.558234
0.560058 0.653344 0.558017
0.569961 0.657028 0.558276
0.579863 0.660712 0.558535
0.589766 0.664395 0.558794
0.599669 0.668079 0.559054
0.609593 0.672587 0.562890
0.619561 0.678745 0.573879
0.629530 0.684903 0.584869
0.639498 0.691062 0.595859
0.649466 0.697220 0.606849
0.658595 0.703407 0.618013
0.663526 0.709739 0.630049
0.668456 0.716071 0.642084
0.673387 0.722403 0.654120
0.678318 0.728734 0.666156
0.683249 0.735066 0.678191
0.349994 0.525598 0.508401
0.366238 0.537839 0.518729
0.382482 0.550081 0.529057
0.398725 0.562322 0.539385
0.414969 0.574564 0.549714
0.431213 0.586805 0.560042
0.447942 0.598123 0.567545
0.464768 0.609256 0.574484
0.481594 0.620389 0.581423
0.498421 0.631522 0.588361
0.515247 0.642656 0.595300
0.527916 0.650422 0.597169
0.538506 0.656506 0.596503
0.549096 0.662589 0.595836
0.559687 0.668672 0.595170
0.570277 0.674756 0.594504
0.579497 0.678973 0.593355
0.587348 0.681324 0.591724
0.595198 0.683675 0.590092
0.603049 0.686026 0.588461
0.610899 0.688377 0.586829
0.619242 0.691683 0.588812
0.628570 0.696899 0.598020
0.637898 0.702115 0.607229
0.647226 0.707331 0.616438
0.656554 0.712547 0.625647
0.665155 0.717798 0.635085
0.670122 0.723227 0.645666
0.675090 0.728657 0.656247
0.680057 0.734086 0.666829
0.685024 0.739515 0.677410
0.689992 0.744945 0.687991
0.380196 0.562464 0.544228
0.396678 0.573855 0.553778
0.413159 0.585246 0.563329
0.429641 0.596636 0.572879
0.446123 0.608027 0.582430
0.462604 0.619418 0.591980
0.478664 0.629595 0.598859
0.494639 0.639530 0.605203
0.510615 0.649465 0.611547
0.526590 0.659399 0.617891
0.542566 0.669334 0.624235
0.554201 0.676012 0.625802
0.563666 0.681062 0.624980
0.573131 0.686111 0.624159
0.582596 0.691161 0.623337
0.592061 0.696211 0.622515
0.599946 0.699468 0.620968
0.606251 0.700931 0.618696
0.612555 0.702395 0.616425
0.618860 0.703859 0.614153
0.625164 0.705322 0.611881
0.632068 0.707723 0.612814
0.640170 0.711996 0.620157
0.648272 0.716270 0.627500
0.656374 0.720543 0.634843
0.664476 0.724817 0.642185
0.672034 0.729186 0.649829
0.676874 0.734030 0.658973
0.681713 0.738873 0.668118
0.686552 0.743717 0.677263
0.691391 0.748561 0.686408
0.696231 0.753405 0.695553
0.410398 0.599330 0.580054
0.427118 0.609870 0.588827
0.443837 0.620410 0.597600
0.460557 0.630950 0.606373
0.477276 0.641490 0.615146
0.493995 0.652030 0.623919
0.509386 0.661067 0.630172
0.524511 0.669804 0.635922
0.539635 0.678540 0.641671
0.554760 0.687276 0.647421
0.569885 0.696013 0.653170
0.580486 0.701602 0.654435
0.588826 0.705618 0.653458
0.597166 0.709634 0.652481
0.605506 0.713650 0.651503
0.613846 0.717666 0.650526
0.620395 0.719962 0.648581
0.625153 0.720538 0.645669
0.629912 0.721115 0.642757
0.634670 0.721691 0.639845
0.639429 0.722267 0.636933
0.644893 0.723762 0.636817
0.651769 0.727093 0.642294
0.658646 0.730425 0.647770
0.665522 0.733756 0.653247
0.672398 0.737088 0.658723
0.678914 0.740573 0.664572
0.683625 0.744832 0.672281
0.688336 0.749090 0.679989
0.693047 0.753349 0.687698
0.697758 0.757607 0.695407
0.702470 0.761865 0.703116
0.440600 0.636197 0.615881
0.457558 0.645886 0.623876
0.474515 0.655575 0.631872
0.491472 0.665264 0.639867
0.508429 0.674954 0.647862
0.525387 0.684643 0.655858
0.540108 0.692539 0.661486
0.554382 0.700077 0.666641
0.568656 0.707615 0.671796
0.582930 0.715153 0.676951
0.597204 0.722691 0.682105
0.606771 0.727192 0.683068
0.613986 0.730174 0.681936
0.621201 0.733156 0.680803
0.628415 0.736139 0.679670
0.635630 0.739121 0.678537
0.640844 0.740457 0.676195
0.644056 0.740146 0.672642
0.647269 0.739834 0.669090
0.650481 0.739523 0.665537
0.653694 0.739212 0.661985
0.657719 0.739801 0.660820
0.663369 0.742191 0.664430
0.669019 0.744580 0.668041
0.674670 0.746969 0.671651
0.680320 0.749358 0.675261
0.685793 0.751961 0.679316
0.690376 0.755634 0.685588
0.694959 0.759307 0.691860
0.699542 0.762980 0.698133
0.704125 0.766653 0.704405
0.708708 0.770326 0.710678
0.470802 0.673063 0.651707
0.487997 0.681902 0.658925
0.505193 0.690740 0.666143
0.522388 0.699579 0.673361
0.539583 0.708417 0.680578
0.556778 0.717256 0.687796
0.570830 0.724012 0.692799
0.584253 0.730351 0.697360
0.597676 0.736691 0.701920
0.611099 0.743030 0.706480
0.624522 0.749370 0.711040
0.633056 0.752782 0.711702
0.639146 0.754730 0.710413
0.645235 0.756679 0.709125
0.651325 0.758627 0.707837
0.657415 0.760576 0.706548
0.661292 0.760951 0.703808
0.662959 0.759753 0.699615
0.664625 0.758554 0.695422
0.666292 0.757356 0.691229
0.667958 0.756158 0.687036
0.670544 0.755841 0.684823
0.674969 0.757288 0.686567
0.679393 0.758735 0.688311
0.683818 0.760182 0.690055
0.688242 0.761629 0.691799
0.692672 0.763349 0.694059
0.697127 0.766436 0.698895
0.701582 0.769524 0.703731
0.706037 0.772611 0.708568
0.710492 0.775699 0.713404
0.714947 0.778786 0.718240
0.501666 0.707692 0.685683
0.518892 0.715700 0.692175
0.536117 0.723707 0.698667
0.553343 0.731715 0.705159
0.570569 0.739722 0.711651
0.587794 0.747730 0.718143
0.601057 0.753391 0.722502
0.613527 0.758582 0.726434
0.625998 0.763774 0.730366
0.638468 0.768965 0.734298
0.650938 0.774157 0.738230
0.658397 0.776543 0.738547
0.663351 0.777526 0.737056
0.668304 0.778510 0.735564
0.673258 0.779493 0.734073
0.678212 0.780476 0.732582
0.680822 0.779974 0.729459
0.681089 0.777986 0.724703
0.681356 0.775998 0.719948
0.681622 0.774010 0.715193
0.681889 0.772021 0.710437
0.683154 0.770888 0.707282
0.686415 0.771462 0.707328
0.689677 0.772037 0.707374
0.692938 0.772612 0.707419
0.696199 0.773187 0.707465
0.699633 0.774091 0.708100
0.703933 0.776642 0.711683
0.708233 0.779192 0.715266
0.712532 0.781743 0.718849
0.716832 0.784294 0.722432
0.721131 0.786845 0.726015
0.535838 0.731136 0.710402
0.552058 0.738411 0.716428
0.568277 0.745687 0.722453
0.584496 0.752963 0.728479
0.600716 0.760238 0.734504
0.616935 0.767514 0.740529
0.628811 0.772306 0.744147
0.639817 0.776601 0.747283
0.650824 0.780896 0.750420
0.661830 0.785191 0.753556
0.672837 0.789486 0.756692
0.679015 0.791158 0.756451
0.682780 0.791520 0.754521
0.686544 0.791881 0.752590
0.690308 0.792242 0.750660
0.694073 0.792604 0.748730
0.695754 0.791639 0.745300
0.695353 0.789349 0.740371
0.694952 0.787059 0.735442
0.694551 0.784769 0.730512
0.694151 0.782479 0.725583
0.694687 0.780970 0.722026
