assets/lut/TH1_AmberFadedClassicRetro.cube
TITLE "25x25x25 Adobe/IRIDAS cube 3D LUT"
LUT_3D_SIZE 5
0.064319901 0.047370173 0.057044394
0.352431148 0.058834907 0.058434445
0.576501012 0.08163169 0.058534849
0.757236242 0.107793398 0.063606247
0.931445777 0.134117618 0.073580667
0.122555412 0.27374211 0.097030357
0.420761675 0.287147611 0.088272445
0.614907682 0.296309471 0.084604427
0.783219337 0.319719106 0.092390992
0.955333829 0.341325998 0.104752772
0.220198706 0.517545998 0.142541915
0.473130614 0.555227757 0.138641655
0.641646862 0.546801925 0.118684746
0.809349179 0.536320031 0.128844216
0.970749974 0.573403299 0.129253328
0.334113866 0.710279286 0.205813855
0.540650129 0.75144726 0.215480968
0.679705262 0.747210264 0.19288604
0.822637618 0.74623549 0.176700205
0.988093317 0.757964969 0.184560567
0.432822257 0.904058874 0.277410448
0.599939585 0.929917693 0.290805042
0.730010927 0.92584151 0.274271339
0.856354356 0.916291833 0.247900575
0.993939221 0.924221575 0.22636494
0.080199592 0.074732684 0.235645294
0.361087918 0.117142111 0.274137378
0.585272849 0.134226695 0.285292357
0.750194848 0.155616418 0.263436466
0.915990412 0.178834215 0.264202327
0.138487086 0.310558885 0.291680783
0.433946997 0.38193509 0.344335556
0.65888387 0.39732179 0.341402799
0.804412663 0.403101236 0.320481211
0.958783746 0.423728675 0.325750589
0.234147415 0.550785959 0.332403779
0.497600436 0.619387388 0.391462654
0.671449721 0.628439605 0.383064985
0.818434775 0.61574471 0.375229269
0.970753551 0.640932024 0.383655906
0.328188986 0.746387064 0.402018875
0.555912793 0.791319907 0.447290778
0.699287295 0.802771807 0.44786495
0.824329197 0.792860031 0.424630493
0.981469333 0.77950114 0.425799459
0.39638719 0.924607158 0.463261455
0.603226244 0.948887467 0.498518556
0.731743753 0.960984349 0.513306975
0.850208759 0.950009644 0.492519557
0.981268764 0.943906307 0.456065983
0.124384381 0.111114174 0.409615308
0.406229317 0.183471605 0.483154833
0.630247056 0.22193861 0.525053859
0.791043401 0.248916313 0.539470196
0.932304323 0.26871714 0.55182445
0.172079667 0.357301742 0.47698608
0.452434599 0.426626384 0.549711108
0.664421499 0.47201547 0.596408606
0.81981504 0.491305619 0.600429833
0.961799145 0.512699723 0.603098154
0.255000085 0.579935074 0.547193766
0.484106302 0.637887716 0.602754712
0.6802001 0.667327285 0.634595513
0.833387792 0.665023029 0.617683411
0.973398507 0.675265133 0.609758615
0.320310682 0.772889853 0.58935231
0.524498582 0.815735757 0.633431971
0.704361558 0.841933489 0.654004753
0.834835887 0.824714184 0.628622055
0.97044456 0.826474786 0.62461561
0.365057677 0.934023559 0.625090182
0.550977528 0.963573694 0.667559862
0.727054298 0.974925518 0.679466665
0.8501845 0.972990632 0.664925814
0.97758323 0.962513804 0.64273113
0.170136154 0.15869908 0.612701654
0.46044305 0.242225692 0.698048651
0.662054598 0.306618541 0.762844145
0.814764619 0.349049926 0.798819005
0.958487988 0.363822758 0.806364179
0.212990701 0.405382603 0.677116454
0.501883864 0.46980384 0.751202166
0.688154399 0.507720768 0.778594255
0.825667322 0.54656142 0.815618157
0.968428433 0.558714926 0.802249908
0.260451764 0.596780419 0.726809204
0.506338537 0.668763936 0.782230973
0.693991482 0.685027659 0.8019467
0.833074808 0.702606022 0.815216482
0.975093126 0.705025554 0.780585408
0.31839332 0.779457271 0.753690064
0.525755227 0.820554674 0.799472332
0.684248269 0.841527462 0.82290411
0.834026098 0.846810937 0.825228453
0.982355833 0.842895448 0.787761152
0.369758159 0.95173347 0.781110406
0.547471404 0.980160058 0.813582778
0.694438934 1 0.84212321
0.84792465 1 0.83228457
0.982589006 0.97456485 0.804362476
0.20811744 0.19762148 0.82842952
0.492501706 0.272830665 0.906698704
0.70301789 0.342103332 0.962201238
0.850328803 0.401288003 0.995635927
0.980323076 0.43980813 0.981574714
0.241181538 0.430863917 0.870796263
0.538511515 0.489946127 0.93928951
0.73508811 0.524569333 0.96194762
0.85907042 0.576186478 0.985485017
0.977671206 0.601969898 0.988490045
0.275604129 0.61398983 0.888248861
0.539952576 0.683670104 0.94238776
0.739763558 0.698616922 0.961597919
0.860949576 0.725943983 0.977247536
0.981393278 0.741865098 0.986019433
0.305634409 0.779430747 0.899060905
0.540749848 0.833396256 0.947744489
0.70889318 0.843365848 0.954688251
0.847561777 0.859994471 0.974163055
0.982819855 0.870767176 0.977937162
0.365543664 0.950570226 0.923347235
0.563441932 0.984048665 0.967433512
0.69967556 0.992715359 0.987591743
0.832846463 0.997710407 0.993914127
0.982187748 1 0.982524395
