assets/lut/Vintage-Faded.cube
LUT_3D_SIZE 9
DOMAIN_MIN 0.0 0.0 0.0
DOMAIN_MAX 1.0 1.0 1.0
0.09829 0.09129 0.11229
0.17944 0.09806 0.11906
0.26059 0.10484 0.12584
0.34174 0.11162 0.13262
0.42289 0.11839 0.13939
0.50405 0.12517 0.14617
0.58520 0.13195 0.15295
0.66635 0.13872 0.15972
0.74750 0.14550 0.16650
0.12108 0.18846 0.13508
0.20224 0.19524 0.14186
0.28339 0.20201 0.14864
0.36454 0.20879 0.15541
0.44569 0.21557 0.16219
0.52684 0.22234 0.16897
0.60799 0.22912 0.17574
0.68915 0.23590 0.18252
0.77030 0.24267 0.18930
0.14388 0.28563 0.15788
0.22503 0.29241 0.16466
0.30618 0.29918 0.17143
0.38734 0.30596 0.17821
0.46849 0.31274 0.18499
0.54964 0.31951 0.19176
0.63079 0.32629 0.19854
0.71194 0.33307 0.20532
0.79309 0.33984 0.21209
0.16668 0.38280 0.18068
0.24783 0.38958 0.18746
0.32898 0.39636 0.19423
0.41013 0.40313 0.20101
0.49129 0.40991 0.20779
0.57244 0.41669 0.21456
0.65359 0.42346 0.22134
0.73474 0.43024 0.22811
0.81589 0.43702 0.23489
0.18948 0.47998 0.20348
0.27063 0.48675 0.21025
0.35178 0.49353 0.21703
0.43293 0.50031 0.22381
0.51408 0.50708 0.23058
0.59523 0.51386 0.23736
0.67639 0.52064 0.24414
0.75754 0.52741 0.25091
0.83869 0.53419 0.25769
0.21227 0.57715 0.22627
0.29342 0.58392 0.23305
0.37458 0.59070 0.23983
0.45573 0.59748 0.24660
0.53688 0.60425 0.25338
0.61803 0.61103 0.26016
0.69918 0.61781 0.26693
0.78033 0.62458 0.27371
0.86149 0.63136 0.28049
0.23507 0.67432 0.24907
0.31622 0.68110 0.25585
0.39737 0.68787 0.26262
0.47852 0.69465 0.26940
0.55968 0.70143 0.27618
0.64083 0.70820 0.28295
0.72198 0.71498 0.28973
0.80313 0.72176 0.29651
0.88428 0.72853 0.30328
0.25787 0.77149 0.27187
0.33902 0.77827 0.27864
0.42017 0.78504 0.28542
0.50132 0.79182 0.29220
0.58247 0.79860 0.29897
0.66362 0.80537 0.30575
0.74478 0.81215 0.31253
0.82593 0.81893 0.31930
0.90708 0.82570 0.32608
0.28066 0.86866 0.29466
0.36182 0.87544 0.30144
0.44297 0.88222 0.30822
0.52412 0.88899 0.31499
0.60527 0.89577 0.32177
0.68642 0.90255 0.32855
0.76757 0.90932 0.33532
0.84872 0.91610 0.34210
0.92988 0.92288 0.34888
0.10051 0.09351 0.18626
0.18166 0.10028 0.19303
0.26281 0.10706 0.19981
0.34396 0.11384 0.20659
0.42511 0.12061 0.21336
0.50627 0.12739 0.22014
0.58742 0.13417 0.22692
0.66857 0.14094 0.23369
0.74972 0.14772 0.24047
0.12330 0.19068 0.20905
0.20446 0.19746 0.21583
0.28561 0.20423 0.22261
0.36676 0.21101 0.22938
0.44791 0.21779 0.23616
0.52906 0.22456 0.24294
0.61021 0.23134 0.24971
0.69137 0.23812 0.25649
0.77252 0.24489 0.26327
0.14610 0.28785 0.23185
0.22725 0.29463 0.23863
0.30840 0.30140 0.24540
0.38956 0.30818 0.25218
0.47071 0.31496 0.25896
0.55186 0.32173 0.26573
0.63301 0.32851 0.27251
0.71416 0.33529 0.27929
0.79531 0.34206 0.28606
0.16890 0.38502 0.25465
0.25005 0.39180 0.26143
0.33120 0.39858 0.26820
0.41235 0.40535 0.27498
0.49351 0.41213 0.28176
0.57466 0.41891 0.28853
0.65581 0.42568 0.29531
0.73696 0.43246 0.30209
0.81811 0.43924 0.30886
0.19170 0.48220 0.27745
0.27285 0.48897 0.28422
0.35400 0.49575 0.29100
0.43515 0.50253 0.29778
0.51630 0.50930 0.30455
0.59745 0.51608 0.31133
0.67861 0.52286 0.31811
0.75976 0.52963 0.32488
0.84091 0.53641 0.33166
0.21449 0.57937 0.30024
0.29564 0.58614 0.30702
0.37680 0.59292 0.31380
0.45795 0.59970 0.32057
0.53910 0.60647 0.32735
0.62025 0.61325 0.33413
0.70140 0.62003 0.34090
0.78255 0.62680 0.34768
0.86371 0.63358 0.35446
0.23729 0.67654 0.32304
0.31844 0.68332 0.32982
0.39959 0.69009 0.33659
0.48074 0.69687 0.34337
0.56190 0.70365 0.35015
0.64305 0.71042 0.35692
0.72420 0.71720 0.36370
0.80535 0.72398 0.37048
0.88650 0.73075 0.37725
0.26009 0.77371 0.34584
0.34124 0.78049 0.35261
0.42239 0.78726 0.35939
0.50354 0.79404 0.36617
0.58469 0.80082 0.37294
0.66584 0.80759 0.37972
0.74700 0.81437 0.38650
0.82815 0.82115 0.39327
0.90930 0.82792 0.40005
0.28288 0.87088 0.36863
0.36404 0.87766 0.37541
0.44519 0.88444 0.38219
0.52634 0.89121 0.38896
0.60749 0.89799 0.39574
0.68864 0.90477 0.40252
0.76979 0.91154 0.40929
0.85095 0.91832 0.41607
0.93210 0.92510 0.42285
0.10273 0.09573 0.26023
0.18388 0.10250 0.26700
0.26503 0.10928 0.27378
0.34618 0.11606 0.28056
0.42733 0.12283 0.28733
0.50849 0.12961 0.29411
0.58964 0.13639 0.30089
0.67079 0.14316 0.30766
0.75194 0.14994 0.31444
0.12552 0.19290 0.28302
0.20668 0.19968 0.28980
0.28783 0.20645 0.29658
0.36898 0.21323 0.30335
0.45013 0.22001 0.31013
0.53128 0.22678 0.31691
0.61243 0.23356 0.32368
0.69359 0.24034 0.33046
0.77474 0.24711 0.33724
0.14832 0.29007 0.30582
0.22947 0.29685 0.31260
0.31063 0.30363 0.31938
0.39178 0.31040 0.32615
0.47293 0.31718 0.33293
0.55408 0.32396 0.33971
0.63523 0.33073 0.34648
0.71638 0.33751 0.35326
0.79753 0.34428 0.36003
0.17112 0.38724 0.32862
0.25227 0.39402 0.33540
0.33342 0.40080 0.34217
0.41457 0.40757 0.34895
0.49573 0.41435 0.35573
0.57688 0.42113 0.36250
0.65803 0.42790 0.36928
0.73918 0.43468 0.37606
0.82033 0.44146 0.38283
0.19392 0.48442 0.35142
0.27507 0.49119 0.35819
0.35622 0.49797 0.36497
0.43737 0.50475 0.37175
0.51852 0.51152 0.37852
0.59967 0.51830 0.38530
0.68083 0.52508 0.39208
0.76198 0.53185 0.39885
0.84313 0.53863 0.40563
0.21671 0.58159 0.37421
0.29786 0.58836 0.38099
0.37902 0.59514 0.38777
0.46017 0.60192 0.39454
0.54132 0.60869 0.40132
0.62247 0.61547 0.40810
0.70362 0.62225 0.41487
0.78477 0.62902 0.42165
0.86593 0.63580 0.42843
0.23951 0.67876 0.39701
0.32066 0.68554 0.40379
0.40181 0.69231 0.41056
0.48296 0.69909 0.41734
0.56412 0.70587 0.42412
0.64527 0.71264 0.43089
0.72642 0.71942 0.43767
0.80757 0.72620 0.44445
0.88872 0.73297 0.45122
0.26231 0.77593 0.41981
0.34346 0.78271 0.42658
0.42461 0.78949 0.43336
0.50576 0.79626 0.44014
0.58691 0.80304 0.44691
0.66807 0.80982 0.45369
0.74922 0.81659 0.46047
0.83037 0.82337 0.46724
0.91152 0.83014 0.47402
0.28510 0.87310 0.44260
0.36626 0.87988 0.44938
0.44741 0.88666 0.45616
0.52856 0.89343 0.46293
0.60971 0.90021 0.46971
0.69086 0.90699 0.47649
0.77201 0.91376 0.48326
0.85317 0.92054 0.49004
0.93432 0.92732 0.49682
0.10495 0.09795 0.33420
0.18610 0.10472 0.34097
0.26725 0.11150 0.34775
0.34840 0.11828 0.35453
0.42955 0.12505 0.36130
0.51071 0.13183 0.36808
0.59186 0.13861 0.37486
0.67301 0.14538 0.38163
0.75416 0.15216 0.38841
0.12775 0.19512 0.35700
0.20890 0.20190 0.36377
0.29005 0.20867 0.37055
0.37120 0.21545 0.37732
0.45235 0.22223 0.38410
0.53350 0.22900 0.39088
0.61465 0.23578 0.39765
0.69581 0.24256 0.40443
0.77696 0.24933 0.41121
0.15054 0.29229 0.37979
0.23169 0.29907 0.38657
0.31285 0.30585 0.39335
0.39400 0.31262 0.40012
0.47515 0.31940 0.40690
0.55630 0.32618 0.41368
0.63745 0.33295 0.42045
0.71860 0.33973 0.42723
0.79976 0.34651 0.43401
0.17334 0.38946 0.40259
0.25449 0.39624 0.40937
0.33564 0.40302 0.41614
0.41679 0.40979 0.42292
0.49795 0.41657 0.42970
0.57910 0.42335 0.43647
0.66025 0.43012 0.44325
0.74140 0.43690 0.45003
0.82255 0.44368 0.45680
0.19614 0.48664 0.42539
0.27729 0.49341 0.43216
0.35844 0.50019 0.43894
0.43959 0.50697 0.44572
0.52074 0.51374 0.45249
0.60189 0.52052 0.45927
0.68305 0.52730 0.46605
0.76420 0.53407 0.47282
0.84535 0.54085 0.47960
0.21893 0.58381 0.44818
0.30008 0.59058 0.45496
0.38124 0.59736 0.46174
0.46239 0.60414 0.46851
0.54354 0.61091 0.47529
0.62469 0.61769 0.48207
0.70584 0.62447 0.48884
0.78699 0.63124 0.49562
0.86815 0.63802 0.50240
0.24173 0.68098 0.47098
0.32288 0.68776 0.47776
0.40403 0.69453 0.48453
0.48518 0.70131 0.49131
0.56634 0.70809 0.49809
0.64749 0.71486 0.50486
0.72864 0.72164 0.51164
0.80979 0.72842 0.51842
0.89094 0.73519 0.52519
0.26453 0.77815 0.49378
0.34568 0.78493 0.50055
0.42683 0.79171 0.50733
0.50798 0.79848 0.51411
0.58913 0.80526 0.52088
0.67029 0.81204 0.52766
0.75144 0.81881 0.53444
0.83259 0.82559 0.54121
0.91374 0.83237 0.54799
0.28732 0.87532 0.51657
0.36848 0.88210 0.52335
0.44963 0.88888 0.53013
0.53078 0.89565 0.53690
0.61193 0.90243 0.54368
0.69308 0.90921 0.55046
0.77423 0.91598 0.55723
0.85539 0.92276 0.56401
0.93654 0.92954 0.57079
0.10717 0.10017 0.40817
0.18832 0.10694 0.41494
0.26947 0.11372 0.42172
0.35062 0.12050 0.42850
0.43177 0.12727 0.43527
0.51293 0.13405 0.44205
0.59408 0.14083 0.44883
0.67523 0.14760 0.45560
0.75638 0.15438 0.46238
0.12997 0.19734 0.43097
0.21112 0.20412 0.43774
0.29227 0.21089 0.44452
0.37342 0.21767 0.45130
0.45457 0.22445 0.45807
0.53572 0.23122 0.46485
0.61687 0.23800 0.47162
0.69803 0.24478 0.47840
0.77918 0.25155 0.48518
0.15276 0.29451 0.45376
0.23391 0.30129 0.46054
0.31507 0.30807 0.46732
0.39622 0.31484 0.47409
0.47737 0.32162 0.48087
0.55852 0.32840 0.48765
0.63967 0.33517 0.49442
0.72082 0.34195 0.50120
0.80198 0.34873 0.50798
0.17556 0.39168 0.47656
0.25671 0.39846 0.48334
0.33786 0.40524 0.49011
0.41901 0.41201 0.49689
0.50017 0.41879 0.50367
0.58132 0.42557 0.51044
0.66247 0.43234 0.51722
0.74362 0.43912 0.52400
0.82477 0.44590 0.53077
0.19836 0.48886 0.49936
0.27951 0.49563 0.50613
0.36066 0.50241 0.51291
0.44181 0.50919 0.51969
0.52296 0.51596 0.52646
0.60411 0.52274 0.53324
0.68527 0.52952 0.54002
0.76642 0.53629 0.54679
0.84757 0.54307 0.55357
0.22115 0.58603 0.52215
0.30230 0.59280 0.52893
0.38346 0.59958 0.53571
0.46461 0.60636 0.54248
0.54576 0.61313 0.54926
0.62691 0.61991 0.55604
0.70806 0.62669 0.56281
0.78921 0.63346 0.56959
0.87037 0.64024 0.57637
0.24395 0.68320 0.54495
0.32510 0.68998 0.55173
0.40625 0.69675 0.55850
0.48741 0.70353 0.56528
0.56856 0.71031 0.57206
0.64971 0.71708 0.57883
0.73086 0.72386 0.58561
0.81201 0.73064 0.59239
0.89316 0.73741 0.59916
0.26675 0.78037 0.56775
0.34790 0.78715 0.57452
0.42905 0.79393 0.58130
0.51020 0.80070 0.58808
0.59135 0.80748 0.59485
0.67251 0.81426 0.60163
0.75366 0.82103 0.60841
0.83481 0.82781 0.61518
0.91596 0.83459 0.62196
0.28954 0.87754 0.59054
0.37070 0.88432 0.59732
0.45185 0.89110 0.60410
0.53300 0.89787 0.61087
0.61415 0.90465 0.61765
0.69530 0.91143 0.62443
0.77645 0.91820 0.63120
0.85761 0.92498 0.63798
0.93876 0.93176 0.64476
0.10939 0.10239 0.48214
0.19054 0.10916 0.48891
0.27169 0.11594 0.49569
0.35284 0.12272 0.50247
0.43399 0.12949 0.50924
0.51515 0.13627 0.51602
0.59630 0.14305 0.52280
0.67745 0.14982 0.52957
0.75860 0.15660 0.53635
0.13219 0.19956 0.50494
0.21334 0.20634 0.51171
0.29449 0.21311 0.51849
0.37564 0.21989 0.52527
0.45679 0.22667 0.53204
0.53794 0.23344 0.53882
0.61910 0.24022 0.54560
0.70025 0.24700 0.55237
0.78140 0.25377 0.55915
0.15498 0.29673 0.52773
0.23613 0.30351 0.53451
0.31729 0.31029 0.54129
0.39844 0.31706 0.54806
0.47959 0.32384 0.55484
0.56074 0.33062 0.56162
0.64189 0.33739 0.56839
0.72304 0.34417 0.57517
0.80420 0.35095 0.58195
0.17778 0.39390 0.55053
0.25893 0.40068 0.55731
0.34008 0.40746 0.56408
0.42123 0.41423 0.57086
0.50239 0.42101 0.57764
0.58354 0.42779 0.58441
0.66469 0.43456 0.59119
0.74584 0.44134 0.59797
0.82699 0.44812 0.60474
0.20058 0.49108 0.57333
0.28173 0.49785 0.58010
0.36288 0.50463 0.58688
0.44403 0.51141 0.59366
0.52518 0.51818 0.60043
0.60633 0.52496 0.60721
0.68749 0.53174 0.61399
0.76864 0.53851 0.62076
0.84979 0.54529 0.62754
0.22337 0.58825 0.59612
0.30452 0.59502 0.60290
0.38568 0.60180 0.60968
0.46683 0.60858 0.61645
0.54798 0.61535 0.62323
0.62913 0.62213 0.63001
0.71028 0.62891 0.63678
0.79143 0.63568 0.64356
0.87259 0.64246 0.65034
0.24617 0.68542 0.61892
0.32732 0.69220 0.62570
0.40847 0.69897 0.63247
0.48963 0.70575 0.63925
0.57078 0.71253 0.64603
0.65193 0.71930 0.65280
0.73308 0.72608 0.65958
0.81423 0.73286 0.66636
0.89538 0.73963 0.67313
0.26897 0.78259 0.64172
0.35012 0.78937 0.64849
0.43127 0.79615 0.65527
0.51242 0.80292 0.66205
0.59357 0.80970 0.66882
0.67473 0.81648 0.67560
0.75588 0.82325 0.68238
0.83703 0.83003 0.68915
0.91818 0.83681 0.69593
0.29176 0.87976 0.66451
0.37292 0.88654 0.67129
0.45407 0.89332 0.67807
0.53522 0.90009 0.68484
0.61637 0.90687 0.69162
0.69752 0.91365 0.69840
0.77867 0.92042 0.70517
0.85983 0.92720 0.71195
0.94098 0.93398 0.71873
0.11161 0.10461 0.55611
0.19276 0.11139 0.56289
0.27391 0.11816 0.56966
0.35506 0.12494 0.57644
0.43622 0.13171 0.58321
0.51737 0.13849 0.58999
0.59852 0.14527 0.59677
0.67967 0.15204 0.60354
0.76082 0.15882 0.61032
0.13441 0.20178 0.57891
0.21556 0.20856 0.58568
0.29671 0.21533 0.59246
0.37786 0.22211 0.59924
0.45901 0.22889 0.60601
0.54016 0.23566 0.61279
0.62132 0.24244 0.61957
0.70247 0.24922 0.62634
0.78362 0.25599 0.63312
0.15720 0.29895 0.60170
0.23835 0.30573 0.60848
0.31951 0.31251 0.61526
0.40066 0.31928 0.62203
0.48181 0.32606 0.62881
0.56296 0.33284 0.63559
0.64411 0.33961 0.64236
0.72526 0.34639 0.64914
0.80642 0.35317 0.65592
0.18000 0.39612 0.62450
0.26115 0.40290 0.63128
0.34230 0.40968 0.63805
0.42345 0.41645 0.64483
0.50461 0.42323 0.65161
0.58576 0.43001 0.65838
0.66691 0.43678 0.66516
0.74806 0.44356 0.67194
0.82921 0.45034 0.67871
0.20280 0.49330 0.64730
0.28395 0.50007 0.65407
0.36510 0.50685 0.66085
0.44625 0.51363 0.66763
0.52740 0.52040 0.67440
0.60855 0.52718 0.68118
0.68971 0.53396 0.68796
0.77086 0.54073 0.69473
0.85201 0.54751 0.70151
0.22559 0.59047 0.67009
0.30675 0.59725 0.67687
0.38790 0.60402 0.68365
0.46905 0.61080 0.69042
0.55020 0.61757 0.69720
0.63135 0.62435 0.70398
0.71250 0.63113 0.71075
0.79365 0.63790 0.71753
0.87481 0.64468 0.72431
0.24839 0.68764 0.69289
0.32954 0.69442 0.69967
0.41069 0.70119 0.70644
0.49185 0.70797 0.71322
0.57300 0.71475 0.72000
0.65415 0.72152 0.72677
0.73530 0.72830 0.73355
0.81645 0.73508 0.74033
0.89760 0.74185 0.74710
0.27119 0.78481 0.71569
0.35234 0.79159 0.72246
0.43349 0.79837 0.72924
0.51464 0.80514 0.73602
0.59579 0.81192 0.74279
0.67695 0.81870 0.74957
0.75810 0.82547 0.75635
0.83925 0.83225 0.76312
0.92040 0.83903 0.76990
0.29398 0.88198 0.73848
0.37514 0.88876 0.74526
0.45629 0.89554 0.75204
0.53744 0.90231 0.75881
0.61859 0.90909 0.76559
0.69974 0.91587 0.77237
0.78089 0.92264 0.77914
0.86205 0.92942 0.78592
0.94320 0.93620 0.79270
0.11383 0.10683 0.63008
0.19498 0.11361 0.63686
0.27613 0.12038 0.64363
0.35728 0.12716 0.65041
0.43844 0.13394 0.65719
0.51959 0.14071 0.66396
0.60074 0.14749 0.67074
0.68189 0.15427 0.67752
0.76304 0.16104 0.68429
0.13663 0.20400 0.65288
0.21778 0.21078 0.65965
0.29893 0.21755 0.66643
0.38008 0.22433 0.67321
0.46123 0.23111 0.67998
0.54238 0.23788 0.68676
0.62354 0.24466 0.69354
0.70469 0.25144 0.70031
0.78584 0.25821 0.70709
0.15942 0.30117 0.67567
0.24057 0.30795 0.68245
0.32173 0.31473 0.68923
0.40288 0.32150 0.69600
0.48403 0.32828 0.70278
0.56518 0.33506 0.70956
0.64633 0.34183 0.71633
0.72748 0.34861 0.72311
0.80864 0.35539 0.72989
0.18222 0.39834 0.69847
0.26337 0.40512 0.70525
0.34452 0.41190 0.71202
0.42567 0.41867 0.71880
0.50683 0.42545 0.72558
0.58798 0.43223 0.73235
0.66913 0.43900 0.73913
0.75028 0.44578 0.74591
0.83143 0.45256 0.75268
0.20502 0.49552 0.72127
0.28617 0.50229 0.72804
0.36732 0.50907 0.73482
0.44847 0.51585 0.74160
0.52962 0.52262 0.74837
0.61077 0.52940 0.75515
0.69193 0.53618 0.76193
0.77308 0.54295 0.76870
0.85423 0.54973 0.77548
0.22781 0.59269 0.74406
0.30897 0.59947 0.75084
0.39012 0.60624 0.75762
0.47127 0.61302 0.76439
0.55242 0.61980 0.77117
0.63357 0.62657 0.77795
0.71472 0.63335 0.78472
0.79588 0.64013 0.79150
0.87703 0.64690 0.79828
0.25061 0.68986 0.76686
0.33176 0.69664 0.77364
0.41291 0.70341 0.78041
0.49407 0.71019 0.78719
0.57522 0.71697 0.79397
0.65637 0.72374 0.80074
0.73752 0.73052 0.80752
0.81867 0.73730 0.81430
0.89982 0.74407 0.82107
0.27341 0.78703 0.78966
0.35456 0.79381 0.79643
0.43571 0.80059 0.80321
0.51686 0.80736 0.80999
0.59801 0.81414 0.81676
0.67917 0.82092 0.82354
0.76032 0.82769 0.83032
0.84147 0.83447 0.83709
0.92262 0.84125 0.84387
0.29620 0.88420 0.81245
0.37736 0.89098 0.81923
0.45851 0.89776 0.82601
0.53966 0.90453 0.83278
0.62081 0.91131 0.83956
0.70196 0.91809 0.84634
0.78311 0.92486 0.85311
0.86427 0.93164 0.85989
0.94542 0.93842 0.86667
0.11605 0.10905 0.70405
0.19720 0.11583 0.71083
0.27835 0.12260 0.71760
0.35950 0.12938 0.72438
0.44066 0.13616 0.73116
0.52181 0.14293 0.73793
0.60296 0.14971 0.74471
0.68411 0.15649 0.75149
0.76526 0.16326 0.75826
0.13885 0.20622 0.72685
0.22000 0.21300 0.73362
0.30115 0.21977 0.74040
0.38230 0.22655 0.74718
0.46345 0.23333 0.75395
0.54460 0.24010 0.76073
0.62576 0.24688 0.76751
0.70691 0.25366 0.77428
0.78806 0.26043 0.78106
0.16164 0.30339 0.74964
0.24279 0.31017 0.75642
0.32395 0.31695 0.76320
0.40510 0.32372 0.76997
0.48625 0.33050 0.77675
0.56740 0.33728 0.78353
0.64855 0.34405 0.79030
0.72970 0.35083 0.79708
0.81086 0.35761 0.80386
0.18444 0.40056 0.77244
0.26559 0.40734 0.77922
0.34674 0.41412 0.78599
0.42789 0.42089 0.79277
0.50905 0.42767 0.79955
0.59020 0.43445 0.80632
0.67135 0.44122 0.81310
0.75250 0.44800 0.81988
0.83365 0.45478 0.82665
0.20724 0.49774 0.79524
0.28839 0.50451 0.80201
0.36954 0.51129 0.80879
0.45069 0.51807 0.81557
0.53184 0.52484 0.82234
0.61299 0.53162 0.82912
0.69415 0.53840 0.83590
0.77530 0.54517 0.84267
0.85645 0.55195 0.84945
0.23003 0.59491 0.81803
0.31119 0.60169 0.82481
0.39234 0.60846 0.83159
0.47349 0.61524 0.83836
0.55464 0.62202 0.84514
0.63579 0.62879 0.85192
0.71694 0.63557 0.85869
0.79810 0.64235 0.86547
0.87925 0.64912 0.87225
0.25283 0.69208 0.84083
0.33398 0.69886 0.84761
0.41513 0.70563 0.85438
0.49629 0.71241 0.86116
0.57744 0.71919 0.86794
0.65859 0.72596 0.87471
0.73974 0.73274 0.88149
0.82089 0.73952 0.88827
0.90204 0.74629 0.89504
0.27563 0.78925 0.86363
0.35678 0.79603 0.87040
0.43793 0.80281 0.87718
0.51908 0.80958 0.88396
0.60023 0.81636 0.89073
0.68139 0.82314 0.89751
0.76254 0.82991 0.90429
0.84369 0.83669 0.91106
0.92484 0.84347 0.91784
0.29842 0.88642 0.88642
0.37958 0.89320 0.89320
0.46073 0.89998 0.89998
0.54188 0.90675 0.90675
0.62303 0.91353 0.91353
0.70418 0.92031 0.92031
0.78533 0.92708 0.92708
0.86649 0.93386 0.93386
0.94764 0.94064 0.94064
