assets/lut/Vintage-Faded.cube
LUT_3D_SIZE 5
DOMAIN_MIN 0.0 0.0 0.0
DOMAIN_MAX 1.0 1.0 1.0
0.09829 0.09129 0.11229
0.26059 0.10484 0.12584
0.42289 0.11839 0.13939
0.58520 0.13195 0.15295
0.74750 0.14550 0.16650
0.14388 0.28563 0.15788
0.30618 0.29918 0.17143
0.46849 0.31274 0.18499
0.63079 0.32629 0.19854
0.79309 0.33984 0.21209
0.18948 0.47998 0.20348
0.35178 0.49353 0.21703
0.51408 0.50708 0.23058
0.67639 0.52064 0.24414
0.83869 0.53419 0.25769
0.23507 0.67432 0.24907
0.39737 0.68787 0.26262
0.55968 0.70143 0.27618
0.72198 0.71498 0.28973
0.88428 0.72853 0.30328
0.28066 0.86866 0.29466
0.44297 0.88222 0.30822
0.60527 0.89577 0.32177
0.76757 0.90932 0.33532
0.92988 0.92288 0.34888
0.10273 0.09573 0.26023
0.26503 0.10928 0.27378
0.42733 0.12283 0.28733
0.58964 0.13639 0.30089
0.75194 0.14994 0.31444
0.14832 0.29007 0.30582
0.31063 0.30363 0.31938
0.47293 0.31718 0.33293
0.63523 0.33073 0.34648
0.79753 0.34428 0.36003
0.19392 0.48442 0.35142
0.35622 0.49797 0.36497
0.51852 0.51152 0.37852
0.68083 0.52508 0.39208
0.84313 0.53863 0.40563
0.23951 0.67876 0.39701
0.40181 0.69231 0.41056
0.56412 0.70587 0.42412
0.72642 0.71942 0.43767
0.88872 0.73297 0.45122
0.28510 0.87310 0.44260
0.44741 0.88666 0.45616
0.60971 0.90021 0.46971
0.77201 0.91376 0.48326
0.93432 0.92732 0.49682
0.10717 0.10017 0.40817
0.26947 0.11372 0.42172
0.43177 0.12727 0.43527
0.59408 0.14083 0.44883
0.75638 0.15438 0.46238
0.15276 0.29451 0.45376
0.31507 0.30807 0.46732
0.47737 0.32162 0.48087
0.63967 0.33517 0.49442
0.80198 0.34873 0.50798
0.19836 0.48886 0.49936
0.36066 0.50241 0.51291
0.52296 0.51596 0.52646
0.68527 0.52952 0.54002
0.84757 0.54307 0.55357
0.24395 0.68320 0.54495
0.40625 0.69675 0.55850
0.56856 0.71031 0.57206
0.73086 0.72386 0.58561
0.89316 0.73741 0.59916
0.28954 0.87754 0.59054
0.45185 0.89110 0.60410
0.61415 0.90465 0.61765
0.77645 0.91820 0.63120
0.93876 0.93176 0.64476
0.11161 0.10461 0.55611
0.27391 0.11816 0.56966
0.43622 0.13171 0.58321
0.59852 0.14527 0.59677
0.76082 0.15882 0.61032
0.15720 0.29895 0.60170
0.31951 0.31251 0.61526
0.48181 0.32606 0.62881
0.64411 0.33961 0.64236
0.80642 0.35317 0.65592
0.20280 0.49330 0.64730
0.36510 0.50685 0.66085
0.52740 0.52040 0.67440
0.68971 0.53396 0.68796
0.85201 0.54751 0.70151
0.24839 0.68764 0.69289
0.41069 0.70119 0.70644
0.57300 0.71475 0.72000
0.73530 0.72830 0.73355
0.89760 0.74185 0.74710
0.29398 0.88198 0.73848
0.45629 0.89554 0.75204
0.61859 0.90909 0.76559
0.78089 0.92264 0.77914
0.94320 0.93620 0.79270
0.11605 0.10905 0.70405
0.27835 0.12260 0.71760
0.44066 0.13616 0.73116
0.60296 0.14971 0.74471
0.76526 0.16326 0.75826
0.16164 0.30339 0.74964
0.32395 0.31695 0.76320
0.48625 0.33050 0.77675
0.64855 0.34405 0.79030
0.81086 0.35761 0.80386
0.20724 0.49774 0.79524
0.36954 0.51129 0.80879
0.53184 0.52484 0.82234
0.69415 0.53840 0.83590
0.85645 0.55195 0.84945
0.25283 0.69208 0.84083
0.41513 0.70563 0.85438
0.57744 0.71919 0.86794
0.73974 0.73274 0.88149
0.90204 0.74629 0.89504
0.29842 0.88642 0.88642
0.46073 0.89998 0.89998
0.62303 0.91353 0.91353
0.78533 0.92708 0.92708
0.94764 0.94064 0.94064
