assets/lut/Vintage-Faded.cube
LUT_3D_SIZE 33
DOMAIN_MIN 0.0 0.0 0.0
DOMAIN_MAX 1.0 1.0 1.0
0.09829 0.09129 0.11229
0.11858 0.09298 0.11398
0.13886 0.09468 0.11568
0.15915 0.09637 0.11737
0.17944 0.09806 0.11906
0.19973 0.09976 0.12076
0.22002 0.10145 0.12245
0.24030 0.10315 0.12415
0.26059 0.10484 0.12584
0.28088 0.10654 0.12754
0.30117 0.10823 0.12923
0.32145 0.10992 0.13092
0.34174 0.11162 0.13262
0.36203 0.11331 0.13431
0.38232 0.11501 0.13601
0.40261 0.11670 0.13770
0.42289 0.11839 0.13939
0.44318 0.12009 0.14109
0.46347 0.12178 0.14278
0.48376 0.12348 0.14448
0.50405 0.12517 0.14617
0.52433 0.12686 0.14786
0.54462 0.12856 0.14956
0.56491 0.13025 0.15125
0.58520 0.13195 0.15295
0.60549 0.13364 0.15464
0.62577 0.13534 0.15634
0.64606 0.13703 0.15803
0.66635 0.13872 0.15972
0.68664 0.14042 0.16142
0.70692 0.14211 0.16311
0.72721 0.14381 0.16481
0.74750 0.14550 0.16650
0.10399 0.11558 0.11799
0.12427 0.11727 0.11968
0.14456 0.11897 0.12138
0.16485 0.12066 0.12307
0.18514 0.12236 0.12476
0.20543 0.12405 0.12646
0.22571 0.12575 0.12815
0.24600 0.12744 0.12985
0.26629 0.12913 0.13154
0.28658 0.13083 0.13323
0.30687 0.13252 0.13493
0.32715 0.13422 0.13662
0.34744 0.13591 0.13832
0.36773 0.13760 0.14001
0.38802 0.13930 0.14171
0.40831 0.14099 0.14340
0.42859 0.14269 0.14509
0.44888 0.14438 0.14679
0.46917 0.14608 0.14848
0.48946 0.14777 0.15018
0.50974 0.14946 0.15187
0.53003 0.15116 0.15356
0.55032 0.15285 0.15526
0.57061 0.15455 0.15695
0.59090 0.15624 0.15865
0.61118 0.15793 0.16034
0.63147 0.15963 0.16203
0.65176 0.16132 0.16373
0.67205 0.16302 0.16542
0.69234 0.16471 0.16712
0.71262 0.16641 0.16881
0.73291 0.16810 0.17051
0.75320 0.16979 0.17220
0.10969 0.13987 0.12369
0.12997 0.14157 0.12538
0.15026 0.14326 0.12707
0.17055 0.14496 0.12877
0.19084 0.14665 0.13046
0.21113 0.14834 0.13216
0.23141 0.15004 0.13385
0.25170 0.15173 0.13555
0.27199 0.15343 0.13724
0.29228 0.15512 0.13893
0.31257 0.15682 0.14063
0.33285 0.15851 0.14232
0.35314 0.16020 0.14402
0.37343 0.16190 0.14571
0.39372 0.16359 0.14740
0.41400 0.16529 0.14910
0.43429 0.16698 0.15079
0.45458 0.16867 0.15249
0.47487 0.17037 0.15418
0.49516 0.17206 0.15588
0.51544 0.17376 0.15757
0.53573 0.17545 0.15926
0.55602 0.17715 0.16096
0.57631 0.17884 0.16265
0.59660 0.18053 0.16435
0.61688 0.18223 0.16604
0.63717 0.18392 0.16773
0.65746 0.18562 0.16943
0.67775 0.18731 0.17112
0.69804 0.18900 0.17282
0.71832 0.19070 0.17451
0.73861 0.19239 0.17620
0.75890 0.19409 0.17790
0.11539 0.16417 0.12939
0.13567 0.16586 0.13108
0.15596 0.16755 0.13277
0.17625 0.16925 0.13447
0.19654 0.17094 0.13616
0.21682 0.17264 0.13786
0.23711 0.17433 0.13955
0.25740 0.17603 0.14124
0.27769 0.17772 0.14294
0.29798 0.17941 0.14463
0.31826 0.18111 0.14633
0.33855 0.18280 0.14802
0.35884 0.18450 0.14972
0.37913 0.18619 0.15141
0.39942 0.18788 0.15310
0.41970 0.18958 0.15480
0.43999 0.19127 0.15649
0.46028 0.19297 0.15819
0.48057 0.19466 0.15988
0.50086 0.19636 0.16157
0.52114 0.19805 0.16327
0.54143 0.19974 0.16496
0.56172 0.20144 0.16666
0.58201 0.20313 0.16835
0.60230 0.20483 0.17005
0.62258 0.20652 0.17174
0.64287 0.20821 0.17343
0.66316 0.20991 0.17513
0.68345 0.21160 0.17682
0.70373 0.21330 0.17852
0.72402 0.21499 0.18021
0.74431 0.21669 0.18190
0.76460 0.21838 0.18360
0.12108 0.18846 0.13508
0.14137 0.19015 0.13678
0.16166 0.19185 0.13847
0.18195 0.19354 0.14017
0.20224 0.19524 0.14186
0.22252 0.19693 0.14356
0.24281 0.19862 0.14525
0.26310 0.20032 0.14694
0.28339 0.20201 0.14864
0.30368 0.20371 0.15033
0.32396 0.20540 0.15203
0.34425 0.20710 0.15372
0.36454 0.20879 0.15541
0.38483 0.21048 0.15711
0.40512 0.21218 0.15880
0.42540 0.21387 0.16050
0.44569 0.21557 0.16219
0.46598 0.21726 0.16389
0.48627 0.21895 0.16558
0.50655 0.22065 0.16727
0.52684 0.22234 0.16897
0.54713 0.22404 0.17066
0.56742 0.22573 0.17236
0.58771 0.22743 0.17405
0.60799 0.22912 0.17574
0.62828 0.23081 0.17744
0.64857 0.23251 0.17913
0.66886 0.23420 0.18083
0.68915 0.23590 0.18252
0.70943 0.23759 0.18422
0.72972 0.23928 0.18591
0.75001 0.24098 0.18760
0.77030 0.24267 0.18930
0.12678 0.21275 0.14078
0.14707 0.21445 0.14248
0.16736 0.21614 0.14417
0.18765 0.21784 0.14587
0.20794 0.21953 0.14756
0.22822 0.22122 0.14925
0.24851 0.22292 0.15095
0.26880 0.22461 0.15264
0.28909 0.22631 0.15434
0.30938 0.22800 0.15603
0.32966 0.22969 0.15773
0.34995 0.23139 0.15942
0.37024 0.23308 0.16111
0.39053 0.23478 0.16281
0.41081 0.23647 0.16450
0.43110 0.23816 0.16620
0.45139 0.23986 0.16789
0.47168 0.24155 0.16958
0.49197 0.24325 0.17128
0.51225 0.24494 0.17297
0.53254 0.24664 0.17467
0.55283 0.24833 0.17636
0.57312 0.25002 0.17806
0.59341 0.25172 0.17975
0.61369 0.25341 0.18144
0.63398 0.25511 0.18314
0.65427 0.25680 0.18483
0.67456 0.25849 0.18653
0.69485 0.26019 0.18822
0.71513 0.26188 0.18991
0.73542 0.26358 0.19161
0.75571 0.26527 0.19330
0.77600 0.26697 0.19500
0.13248 0.23705 0.14648
0.15277 0.23874 0.14818
0.17306 0.24043 0.14987
0.19335 0.24213 0.15157
0.21363 0.24382 0.15326
0.23392 0.24552 0.15495
0.25421 0.24721 0.15665
0.27450 0.24890 0.15834
0.29479 0.25060 0.16004
0.31507 0.25229 0.16173
0.33536 0.25399 0.16342
0.35565 0.25568 0.16512
0.37594 0.25738 0.16681
0.39623 0.25907 0.16851
0.41651 0.26076 0.17020
0.43680 0.26246 0.17190
0.45709 0.26415 0.17359
0.47738 0.26585 0.17528
0.49767 0.26754 0.17698
0.51795 0.26923 0.17867
0.53824 0.27093 0.18037
0.55853 0.27262 0.18206
0.57882 0.27432 0.18375
0.59910 0.27601 0.18545
0.61939 0.27771 0.18714
0.63968 0.27940 0.18884
0.65997 0.28109 0.19053
0.68026 0.28279 0.19223
0.70054 0.28448 0.19392
0.72083 0.28618 0.19561
0.74112 0.28787 0.19731
0.76141 0.28956 0.19900
0.78170 0.29126 0.20070
0.13818 0.26134 0.15218
0.15847 0.26303 0.15388
0.17876 0.26473 0.15557
0.19905 0.26642 0.15726
0.21933 0.26812 0.15896
0.23962 0.26981 0.16065
0.25991 0.27150 0.16235
0.28020 0.27320 0.16404
0.30049 0.27489 0.16574
0.32077 0.27659 0.16743
0.34106 0.27828 0.16912
0.36135 0.27997 0.17082
0.38164 0.28167 0.17251
0.40193 0.28336 0.17421
0.42221 0.28506 0.17590
0.44250 0.28675 0.17759
0.46279 0.28845 0.17929
0.48308 0.29014 0.18098
0.50336 0.29183 0.18268
0.52365 0.29353 0.18437
0.54394 0.29522 0.18607
0.56423 0.29692 0.18776
0.58452 0.29861 0.18945
0.60480 0.30030 0.19115
0.62509 0.30200 0.19284
0.64538 0.30369 0.19454
0.66567 0.30539 0.19623
0.68596 0.30708 0.19792
0.70624 0.30877 0.19962
0.72653 0.31047 0.20131
0.74682 0.31216 0.20301
0.76711 0.31386 0.20470
0.78740 0.31555 0.20640
0.14388 0.28563 0.15788
0.16417 0.28733 0.15958
0.18446 0.28902 0.16127
0.20475 0.29071 0.16296
0.22503 0.29241 0.16466
0.24532 0.29410 0.16635
0.26561 0.29580 0.16805
0.28590 0.29749 0.16974
0.30618 0.29918 0.17143
0.32647 0.30088 0.17313
0.34676 0.30257 0.17482
0.36705 0.30427 0.17652
0.38734 0.30596 0.17821
0.40762 0.30766 0.17991
0.42791 0.30935 0.18160
0.44820 0.31104 0.18329
0.46849 0.31274 0.18499
0.48878 0.31443 0.18668
0.50906 0.31613 0.18838
0.52935 0.31782 0.19007
0.54964 0.31951 0.19176
0.56993 0.32121 0.19346
0.59022 0.32290 0.19515
0.61050 0.32460 0.19685
0.63079 0.32629 0.19854
0.65108 0.32799 0.20024
0.67137 0.32968 0.20193
0.69166 0.33137 0.20362
0.71194 0.33307 0.20532
0.73223 0.33476 0.20701
0.75252 0.33646 0.20871
0.77281 0.33815 0.21040
0.79309 0.33984 0.21209
0.14958 0.30992 0.16358
0.16987 0.31162 0.16528
0.19016 0.31331 0.16697
0.21044 0.31501 0.16866
0.23073 0.31670 0.17036
0.25102 0.31840 0.17205
0.27131 0.32009 0.17375
0.29160 0.32178 0.17544
0.31188 0.32348 0.17713
0.33217 0.32517 0.17883
0.35246 0.32687 0.18052
0.37275 0.32856 0.18222
0.39304 0.33025 0.18391
0.41332 0.33195 0.18560
0.43361 0.33364 0.18730
0.45390 0.33534 0.18899
0.47419 0.33703 0.19069
0.49448 0.33873 0.19238
0.51476 0.34042 0.19408
0.53505 0.34211 0.19577
0.55534 0.34381 0.19746
0.57563 0.34550 0.19916
0.59591 0.34720 0.20085
0.61620 0.34889 0.20255
0.63649 0.35058 0.20424
0.65678 0.35228 0.20593
0.67707 0.35397 0.20763
0.69735 0.35567 0.20932
0.71764 0.35736 0.21102
0.73793 0.35906 0.21271
0.75822 0.36075 0.21441
0.77851 0.36244 0.21610
0.79879 0.36414 0.21779
0.15528 0.33422 0.16928
0.17557 0.33591 0.17097
0.19586 0.33761 0.17267
0.21614 0.33930 0.17436
0.23643 0.34099 0.17606
0.25672 0.34269 0.17775
0.27701 0.34438 0.17945
0.29730 0.34608 0.18114
0.31758 0.34777 0.18283
0.33787 0.34947 0.18453
0.35816 0.35116 0.18622
0.37845 0.35285 0.18792
0.39873 0.35455 0.18961
0.41902 0.35624 0.19130
0.43931 0.35794 0.19300
0.45960 0.35963 0.19469
0.47989 0.36132 0.19639
0.50017 0.36302 0.19808
0.52046 0.36471 0.19977
0.54075 0.36641 0.20147
0.56104 0.36810 0.20316
0.58133 0.36979 0.20486
0.60161 0.37149 0.20655
0.62190 0.37318 0.20825
0.64219 0.37488 0.20994
0.66248 0.37657 0.21163
0.68277 0.37827 0.21333
0.70305 0.37996 0.21502
0.72334 0.38165 0.21672
0.74363 0.38335 0.21841
0.76392 0.38504 0.22010
0.78421 0.38674 0.22180
0.80449 0.38843 0.22349
0.16098 0.35851 0.17498
0.18127 0.36020 0.17667
0.20156 0.36190 0.17837
0.22184 0.36359 0.18006
0.24213 0.36529 0.18176
0.26242 0.36698 0.18345
0.28271 0.36868 0.18514
0.30299 0.37037 0.18684
0.32328 0.37206 0.18853
0.34357 0.37376 0.19023
0.36386 0.37545 0.19192
0.38415 0.37715 0.19362
0.40443 0.37884 0.19531
0.42472 0.38053 0.19700
0.44501 0.38223 0.19870
0.46530 0.38392 0.20039
0.48559 0.38562 0.20209
0.50587 0.38731 0.20378
0.52616 0.38901 0.20547
0.54645 0.39070 0.20717
0.56674 0.39239 0.20886
0.58703 0.39409 0.21056
0.60731 0.39578 0.21225
0.62760 0.39748 0.21394
0.64789 0.39917 0.21564
0.66818 0.40086 0.21733
0.68846 0.40256 0.21903
0.70875 0.40425 0.22072
0.72904 0.40595 0.22242
0.74933 0.40764 0.22411
0.76962 0.40934 0.22580
0.78990 0.41103 0.22750
0.81019 0.41272 0.22919
0.16668 0.38280 0.18068
0.18697 0.38450 0.18237
0.20725 0.38619 0.18407
0.22754 0.38789 0.18576
0.24783 0.38958 0.18746
0.26812 0.39127 0.18915
0.28841 0.39297 0.19084
0.30869 0.39466 0.19254
0.32898 0.39636 0.19423
0.34927 0.39805 0.19593
0.36956 0.39975 0.19762
0.38985 0.40144 0.19931
0.41013 0.40313 0.20101
0.43042 0.40483 0.20270
0.45071 0.40652 0.20440
0.47100 0.40822 0.20609
0.49129 0.40991 0.20779
0.51157 0.41160 0.20948
0.53186 0.41330 0.21117
0.55215 0.41499 0.21287
0.57244 0.41669 0.21456
0.59272 0.41838 0.21626
0.61301 0.42008 0.21795
0.63330 0.42177 0.21964
0.65359 0.42346 0.22134
0.67388 0.42516 0.22303
0.69416 0.42685 0.22473
0.71445 0.42855 0.22642
0.73474 0.43024 0.22811
0.75503 0.43193 0.22981
0.77532 0.43363 0.23150
0.79560 0.43532 0.23320
0.81589 0.43702 0.23489
0.17238 0.40710 0.18638
0.19267 0.40879 0.18807
0.21295 0.41048 0.18977
0.23324 0.41218 0.19146
0.25353 0.41387 0.19315
0.27382 0.41557 0.19485
0.29411 0.41726 0.19654
0.31439 0.41896 0.19824
0.33468 0.42065 0.19993
0.35497 0.42234 0.20163
0.37526 0.42404 0.20332
0.39554 0.42573 0.20501
0.41583 0.42743 0.20671
0.43612 0.42912 0.20840
0.45641 0.43081 0.21010
0.47670 0.43251 0.21179
0.49698 0.43420 0.21348
0.51727 0.43590 0.21518
0.53756 0.43759 0.21687
0.55785 0.43929 0.21857
0.57814 0.44098 0.22026
0.59842 0.44267 0.22196
0.61871 0.44437 0.22365
0.63900 0.44606 0.22534
0.65929 0.44776 0.22704
0.67958 0.44945 0.22873
0.69986 0.45114 0.23043
0.72015 0.45284 0.23212
0.74044 0.45453 0.23381
0.76073 0.45623 0.23551
0.78102 0.45792 0.23720
0.80130 0.45962 0.23890
0.82159 0.46131 0.24059
0.17808 0.43139 0.19208
0.19837 0.43308 0.19377
0.21865 0.43478 0.19547
0.23894 0.43647 0.19716
0.25923 0.43817 0.19885
0.27952 0.43986 0.20055
0.29980 0.44155 0.20224
0.32009 0.44325 0.20394
0.34038 0.44494 0.20563
0.36067 0.44664 0.20732
0.38096 0.44833 0.20902
0.40124 0.45003 0.21071
0.42153 0.45172 0.21241
0.44182 0.45341 0.21410
0.46211 0.45511 0.21580
0.48240 0.45680 0.21749
0.50268 0.45850 0.21918
0.52297 0.46019 0.22088
0.54326 0.46188 0.22257
0.56355 0.46358 0.22427
0.58384 0.46527 0.22596
0.60412 0.46697 0.22765
0.62441 0.46866 0.22935
0.64470 0.47036 0.23104
0.66499 0.47205 0.23274
0.68527 0.47374 0.23443
0.70556 0.47544 0.23613
0.72585 0.47713 0.23782
0.74614 0.47883 0.23951
0.76643 0.48052 0.24121
0.78671 0.48221 0.24290
0.80700 0.48391 0.24460
0.82729 0.48560 0.24629
0.18378 0.45568 0.19778
0.20406 0.45738 0.19947
0.22435 0.45907 0.20116
0.24464 0.46077 0.20286
0.26493 0.46246 0.20455
0.28522 0.46415 0.20625
0.30550 0.46585 0.20794
0.32579 0.46754 0.20964
0.34608 0.46924 0.21133
0.36637 0.47093 0.21302
0.38666 0.47262 0.21472
0.40694 0.47432 0.21641
0.42723 0.47601 0.21811
0.44752 0.47771 0.21980
0.46781 0.47940 0.22149
0.48809 0.48109 0.22319
0.50838 0.48279 0.22488
0.52867 0.48448 0.22658
0.54896 0.48618 0.22827
0.56925 0.48787 0.22997
0.58953 0.48957 0.23166
0.60982 0.49126 0.23335
0.63011 0.49295 0.23505
0.65040 0.49465 0.23674
0.67069 0.49634 0.23844
0.69097 0.49804 0.24013
0.71126 0.49973 0.24182
0.73155 0.50142 0.24352
0.75184 0.50312 0.24521
0.77213 0.50481 0.24691
0.79241 0.50651 0.24860
0.81270 0.50820 0.25030
0.83299 0.50990 0.25199
0.18948 0.47998 0.20348
0.20976 0.48167 0.20517
0.23005 0.48336 0.20686
0.25034 0.48506 0.20856
0.27063 0.48675 0.21025
0.29092 0.48845 0.21195
0.31120 0.49014 0.21364
0.33149 0.49183 0.21533
0.35178 0.49353 0.21703
0.37207 0.49522 0.21872
0.39235 0.49692 0.22042
0.41264 0.49861 0.22211
0.43293 0.50031 0.22381
0.45322 0.50200 0.22550
0.47351 0.50369 0.22719
0.49379 0.50539 0.22889
0.51408 0.50708 0.23058
0.53437 0.50878 0.23228
0.55466 0.51047 0.23397
0.57495 0.51216 0.23566
0.59523 0.51386 0.23736
0.61552 0.51555 0.23905
0.63581 0.51725 0.24075
0.65610 0.51894 0.24244
0.67639 0.52064 0.24414
0.69667 0.52233 0.24583
0.71696 0.52402 0.24752
0.73725 0.52572 0.24922
0.75754 0.52741 0.25091
0.77782 0.52911 0.25261
0.79811 0.53080 0.25430
0.81840 0.53249 0.25599
0.83869 0.53419 0.25769
0.19517 0.50427 0.20917
0.21546 0.50596 0.21087
0.23575 0.50766 0.21256
0.25604 0.50935 0.21426
0.27633 0.51105 0.21595
0.29661 0.51274 0.21765
0.31690 0.51443 0.21934
0.33719 0.51613 0.22103
0.35748 0.51782 0.22273
0.37777 0.51952 0.22442
0.39805 0.52121 0.22612
0.41834 0.52290 0.22781
0.43863 0.52460 0.22950
0.45892 0.52629 0.23120
0.47921 0.52799 0.23289
0.49949 0.52968 0.23459
0.51978 0.53138 0.23628
0.54007 0.53307 0.23798
0.56036 0.53476 0.23967
0.58065 0.53646 0.24136
0.60093 0.53815 0.24306
0.62122 0.53985 0.24475
0.64151 0.54154 0.24645
0.66180 0.54323 0.24814
0.68208 0.54493 0.24983
0.70237 0.54662 0.25153
0.72266 0.54832 0.25322
0.74295 0.55001 0.25492
0.76324 0.55170 0.25661
0.78352 0.55340 0.25831
0.80381 0.55509 0.26000
0.82410 0.55679 0.26169
0.84439 0.55848 0.26339
0.20087 0.52856 0.21487
0.22116 0.53026 0.21657
0.24145 0.53195 0.21826
0.26174 0.53364 0.21996
0.28203 0.53534 0.22165
0.30231 0.53703 0.22334
0.32260 0.53873 0.22504
0.34289 0.54042 0.22673
0.36318 0.54211 0.22843
0.38347 0.54381 0.23012
0.40375 0.54550 0.23182
0.42404 0.54720 0.23351
0.44433 0.54889 0.23520
0.46462 0.55059 0.23690
0.48490 0.55228 0.23859
0.50519 0.55397 0.24029
0.52548 0.55567 0.24198
0.54577 0.55736 0.24367
0.56606 0.55906 0.24537
0.58634 0.56075 0.24706
0.60663 0.56244 0.24876
0.62692 0.56414 0.25045
0.64721 0.56583 0.25215
0.66750 0.56753 0.25384
0.68778 0.56922 0.25553
0.70807 0.57092 0.25723
0.72836 0.57261 0.25892
0.74865 0.57430 0.26062
0.76894 0.57600 0.26231
0.78922 0.57769 0.26400
0.80951 0.57939 0.26570
0.82980 0.58108 0.26739
0.85009 0.58277 0.26909
0.20657 0.55285 0.22057
0.22686 0.55455 0.22227
0.24715 0.55624 0.22396
0.26744 0.55794 0.22566
0.28772 0.55963 0.22735
0.30801 0.56133 0.22904
0.32830 0.56302 0.23074
0.34859 0.56471 0.23243
0.36888 0.56641 0.23413
0.38916 0.56810 0.23582
0.40945 0.56980 0.23751
0.42974 0.57149 0.23921
0.45003 0.57318 0.24090
0.47032 0.57488 0.24260
0.49060 0.57657 0.24429
0.51089 0.57827 0.24599
0.53118 0.57996 0.24768
0.55147 0.58166 0.24937
0.57176 0.58335 0.25107
0.59204 0.58504 0.25276
0.61233 0.58674 0.25446
0.63262 0.58843 0.25615
0.65291 0.59013 0.25784
0.67320 0.59182 0.25954
0.69348 0.59351 0.26123
0.71377 0.59521 0.26293
0.73406 0.59690 0.26462
0.75435 0.59860 0.26632
0.77463 0.60029 0.26801
0.79492 0.60199 0.26970
0.81521 0.60368 0.27140
0.83550 0.60537 0.27309
0.85579 0.60707 0.27479
0.21227 0.57715 0.22627
0.23256 0.57884 0.22797
0.25285 0.58054 0.22966
0.27314 0.58223 0.23136
0.29342 0.58392 0.23305
0.31371 0.58562 0.23474
0.33400 0.58731 0.23644
0.35429 0.58901 0.23813
0.37458 0.59070 0.23983
0.39486 0.59240 0.24152
0.41515 0.59409 0.24321
0.43544 0.59578 0.24491
0.45573 0.59748 0.24660
0.47602 0.59917 0.24830
0.49630 0.60087 0.24999
0.51659 0.60256 0.25168
0.53688 0.60425 0.25338
0.55717 0.60595 0.25507
0.57745 0.60764 0.25677
0.59774 0.60934 0.25846
0.61803 0.61103 0.26016
0.63832 0.61272 0.26185
0.65861 0.61442 0.26354
0.67889 0.61611 0.26524
0.69918 0.61781 0.26693
0.71947 0.61950 0.26863
0.73976 0.62120 0.27032
0.76005 0.62289 0.27201
0.78033 0.62458 0.27371
0.80062 0.62628 0.27540
0.82091 0.62797 0.27710
0.84120 0.62967 0.27879
0.86149 0.63136 0.28049
0.21797 0.60144 0.23197
0.23826 0.60313 0.23367
0.25855 0.60483 0.23536
0.27884 0.60652 0.23705
0.29912 0.60822 0.23875
0.31941 0.60991 0.24044
0.33970 0.61161 0.24214
0.35999 0.61330 0.24383
0.38028 0.61499 0.24553
0.40056 0.61669 0.24722
0.42085 0.61838 0.24891
0.44114 0.62008 0.25061
0.46143 0.62177 0.25230
0.48171 0.62346 0.25400
0.50200 0.62516 0.25569
0.52229 0.62685 0.25738
0.54258 0.62855 0.25908
0.56287 0.63024 0.26077
0.58315 0.63194 0.26247
0.60344 0.63363 0.26416
0.62373 0.63532 0.26585
0.64402 0.63702 0.26755
0.66431 0.63871 0.26924
0.68459 0.64041 0.27094
0.70488 0.64210 0.27263
0.72517 0.64379 0.27433
0.74546 0.64549 0.27602
0.76575 0.64718 0.27771
0.78603 0.64888 0.27941
0.80632 0.65057 0.28110
0.82661 0.65227 0.28280
0.84690 0.65396 0.28449
0.86718 0.65565 0.28618
0.22367 0.62573 0.23767
0.24396 0.62743 0.23937
0.26425 0.62912 0.24106
0.28453 0.63082 0.24275
0.30482 0.63251 0.24445
0.32511 0.63420 0.24614
0.34540 0.63590 0.24784
0.36569 0.63759 0.24953
0.38597 0.63929 0.25122
0.40626 0.64098 0.25292
0.42655 0.64268 0.25461
0.44684 0.64437 0.25631
0.46713 0.64606 0.25800
0.48741 0.64776 0.25970
0.50770 0.64945 0.26139
0.52799 0.65115 0.26308
0.54828 0.65284 0.26478
0.56857 0.65453 0.26647
0.58885 0.65623 0.26817
0.60914 0.65792 0.26986
0.62943 0.65962 0.27155
0.64972 0.66131 0.27325
0.67001 0.66301 0.27494
0.69029 0.66470 0.27664
0.71058 0.66639 0.27833
0.73087 0.66809 0.28003
0.75116 0.66978 0.28172
0.77144 0.67148 0.28341
0.79173 0.67317 0.28511
0.81202 0.67486 0.28680
0.83231 0.67656 0.28850
0.85260 0.67825 0.29019
0.87288 0.67995 0.29188
0.22937 0.65003 0.24337
0.24966 0.65172 0.24506
0.26995 0.65341 0.24676
0.29023 0.65511 0.24845
0.31052 0.65680 0.25015
0.33081 0.65850 0.25184
0.35110 0.66019 0.25354
0.37139 0.66189 0.25523
0.39167 0.66358 0.25692
0.41196 0.66527 0.25862
0.43225 0.66697 0.26031
0.45254 0.66866 0.26201
0.47283 0.67036 0.26370
0.49311 0.67205 0.26539
0.51340 0.67374 0.26709
0.53369 0.67544 0.26878
0.55398 0.67713 0.27048
0.57426 0.67883 0.27217
0.59455 0.68052 0.27387
0.61484 0.68222 0.27556
0.63513 0.68391 0.27725
0.65542 0.68560 0.27895
0.67570 0.68730 0.28064
0.69599 0.68899 0.28234
0.71628 0.69069 0.28403
0.73657 0.69238 0.28572
0.75686 0.69407 0.28742
0.77714 0.69577 0.28911
0.79743 0.69746 0.29081
0.81772 0.69916 0.29250
0.83801 0.70085 0.29420
0.85830 0.70255 0.29589
0.87858 0.70424 0.29758
0.23507 0.67432 0.24907
0.25536 0.67601 0.25076
0.27565 0.67771 0.25246
0.29593 0.67940 0.25415
0.31622 0.68110 0.25585
0.33651 0.68279 0.25754
0.35680 0.68448 0.25923
0.37708 0.68618 0.26093
0.39737 0.68787 0.26262
0.41766 0.68957 0.26432
0.43795 0.69126 0.26601
0.45824 0.69296 0.26771
0.47852 0.69465 0.26940
0.49881 0.69634 0.27109
0.51910 0.69804 0.27279
0.53939 0.69973 0.27448
0.55968 0.70143 0.27618
0.57996 0.70312 0.27787
0.60025 0.70481 0.27956
0.62054 0.70651 0.28126
0.64083 0.70820 0.28295
0.66112 0.70990 0.28465
0.68140 0.71159 0.28634
0.70169 0.71329 0.28804
0.72198 0.71498 0.28973
0.74227 0.71667 0.29142
0.76256 0.71837 0.29312
0.78284 0.72006 0.29481
0.80313 0.72176 0.29651
0.82342 0.72345 0.29820
0.84371 0.72514 0.29989
0.86399 0.72684 0.30159
0.88428 0.72853 0.30328
0.24077 0.69861 0.25477
0.26106 0.70031 0.25646
0.28134 0.70200 0.25816
0.30163 0.70370 0.25985
0.32192 0.70539 0.26155
0.34221 0.70708 0.26324
0.36250 0.70878 0.26493
0.38278 0.71047 0.26663
0.40307 0.71217 0.26832
0.42336 0.71386 0.27002
0.44365 0.71555 0.27171
0.46394 0.71725 0.27340
0.48422 0.71894 0.27510
0.50451 0.72064 0.27679
0.52480 0.72233 0.27849
0.54509 0.72402 0.28018
0.56538 0.72572 0.28188
0.58566 0.72741 0.28357
0.60595 0.72911 0.28526
0.62624 0.73080 0.28696
0.64653 0.73250 0.28865
0.66681 0.73419 0.29035
0.68710 0.73588 0.29204
0.70739 0.73758 0.29373
0.72768 0.73927 0.29543
0.74797 0.74097 0.29712
0.76825 0.74266 0.29882
0.78854 0.74435 0.30051
0.80883 0.74605 0.30221
0.82912 0.74774 0.30390
0.84941 0.74944 0.30559
0.86969 0.75113 0.30729
0.88998 0.75283 0.30898
0.24647 0.72291 0.26047
0.26676 0.72460 0.26216
0.28704 0.72629 0.26386
0.30733 0.72799 0.26555
0.32762 0.72968 0.26724
0.34791 0.73138 0.26894
0.36820 0.73307 0.27063
0.38848 0.73476 0.27233
0.40877 0.73646 0.27402
0.42906 0.73815 0.27572
0.44935 0.73985 0.27741
0.46964 0.74154 0.27910
0.48992 0.74324 0.28080
0.51021 0.74493 0.28249
0.53050 0.74662 0.28419
0.55079 0.74832 0.28588
0.57107 0.75001 0.28757
0.59136 0.75171 0.28927
0.61165 0.75340 0.29096
0.63194 0.75509 0.29266
0.65223 0.75679 0.29435
0.67251 0.75848 0.29605
0.69280 0.76018 0.29774
0.71309 0.76187 0.29943
0.73338 0.76357 0.30113
0.75367 0.76526 0.30282
0.77395 0.76695 0.30452
0.79424 0.76865 0.30621
0.81453 0.77034 0.30790
0.83482 0.77204 0.30960
0.85511 0.77373 0.31129
0.87539 0.77542 0.31299
0.89568 0.77712 0.31468
0.25217 0.74720 0.26617
0.27246 0.74889 0.26786
0.29274 0.75059 0.26956
0.31303 0.75228 0.27125
0.33332 0.75398 0.27294
0.35361 0.75567 0.27464
0.37389 0.75736 0.27633
0.39418 0.75906 0.27803
0.41447 0.76075 0.27972
