assets/lut/Vivid-Punch.cube
LUT_3D_SIZE 9
DOMAIN_MIN 0.0 0.0 0.0
DOMAIN_MAX 1.0 1.0 1.0
0.00000 0.00000 0.00000
0.12157 0.00000 0.00000
0.28315 0.00000 0.00000
0.44472 0.00000 0.00000
0.60630 0.00000 0.00000
0.76787 0.00000 0.00000
0.92945 0.00000 0.00000
1.00000 0.00000 0.00000
1.00000 0.00000 0.00000
0.00000 0.10461 0.00000
0.09744 0.09744 0.00000
0.25901 0.09026 0.00000
0.42059 0.08309 0.00000
0.58216 0.07591 0.00000
0.74374 0.06874 0.00000
0.90531 0.06156 0.00000
1.00000 0.05439 0.00000
1.00000 0.04721 0.00000
0.00000 0.24922 0.00000
0.07330 0.24205 0.00000
0.23487 0.23487 0.00000
0.39645 0.22770 0.00000
0.55802 0.22052 0.00000
0.71960 0.21335 0.00000
0.88117 0.20617 0.00000
1.00000 0.19900 0.00000
1.00000 0.19182 0.00000
0.00000 0.39384 0.00000
0.04916 0.38666 0.00000
0.21074 0.37949 0.00000
0.37231 0.37231 0.00000
0.53388 0.36513 0.00000
0.69546 0.35796 0.00000
0.85703 0.35078 0.00000
1.00000 0.34361 0.00000
1.00000 0.33643 0.00000
0.00000 0.53845 0.00000
0.02502 0.53127 0.00000
0.18660 0.52410 0.00000
0.34817 0.51692 0.00000
0.50975 0.50975 0.00000
0.67132 0.50257 0.00000
0.83290 0.49540 0.00000
0.99447 0.48822 0.00000
1.00000 0.48105 0.00000
0.00000 0.68306 0.00000
0.00088 0.67588 0.00000
0.16246 0.66871 0.00000
0.32403 0.66153 0.00000
0.48561 0.65436 0.00000
0.64718 0.64718 0.00000
0.80876 0.64001 0.00000
0.97033 0.63283 0.00000
1.00000 0.62566 0.00000
0.00000 0.82767 0.00000
0.00000 0.82050 0.00000
0.13832 0.81332 0.00000
0.29990 0.80615 0.00000
0.46147 0.79897 0.00000
0.62305 0.79180 0.00000
0.78462 0.78462 0.00000
0.94620 0.77745 0.00000
1.00000 0.77027 0.00000
0.00000 0.97228 0.00000
0.00000 0.96511 0.00000
0.11418 0.95793 0.00000
0.27576 0.95076 0.00000
0.43733 0.94358 0.00000
0.59891 0.93641 0.00000
0.76048 0.92923 0.00000
0.92206 0.92206 0.00000
1.00000 0.91488 0.00000
0.00000 1.00000 0.00000
0.00000 1.00000 0.00000
0.09005 1.00000 0.00000
0.25162 1.00000 0.00000
0.41320 1.00000 0.00000
0.57477 1.00000 0.00000
0.73634 1.00000 0.00000
0.89792 1.00000 0.00000
1.00000 1.00000 0.00000
0.00000 0.00000 0.12631
0.11914 0.00000 0.11914
0.28071 0.00000 0.11196
0.44229 0.00000 0.10479
0.60386 0.00000 0.09761
0.76544 0.00000 0.09044
0.92701 0.00000 0.08326
1.00000 0.00000 0.07609
1.00000 0.00000 0.06891
0.00000 0.10218 0.10218
0.09500 0.09500 0.09500
0.25657 0.08782 0.08782
0.41815 0.08065 0.08065
0.57972 0.07347 0.07347
0.74130 0.06630 0.06630
0.90287 0.05912 0.05912
1.00000 0.05195 0.05195
1.00000 0.04477 0.04477
0.00000 0.24679 0.07804
0.07086 0.23961 0.07086
0.23244 0.23244 0.06369
0.39401 0.22526 0.05651
0.55559 0.21809 0.04934
0.71716 0.21091 0.04216
0.87874 0.20374 0.03499
1.00000 0.19656 0.02781
1.00000 0.18939 0.02064
0.00000 0.39140 0.05390
0.04672 0.38422 0.04672
0.20830 0.37705 0.03955
0.36987 0.36987 0.03237
0.53145 0.36270 0.02520
0.69302 0.35552 0.01802
0.85460 0.34835 0.01085
1.00000 0.34117 0.00367
1.00000 0.33400 0.00000
0.00000 0.53601 0.02976
0.02259 0.52884 0.02259
0.18416 0.52166 0.01541
0.34574 0.51449 0.00824
0.50731 0.50731 0.00106
0.66888 0.50013 0.00000
0.83046 0.49296 0.00000
0.99203 0.48578 0.00000
1.00000 0.47861 0.00000
0.00000 0.68062 0.00562
0.00000 0.67345 0.00000
0.16002 0.66627 0.00000
0.32160 0.65910 0.00000
0.48317 0.65192 0.00000
0.64475 0.64475 0.00000
0.80632 0.63757 0.00000
0.96790 0.63040 0.00000
1.00000 0.62322 0.00000
0.00000 0.82524 0.00000
0.00000 0.81806 0.00000
0.13588 0.81088 0.00000
0.29746 0.80371 0.00000
0.45903 0.79653 0.00000
0.62061 0.78936 0.00000
0.78218 0.78218 0.00000
0.94376 0.77501 0.00000
1.00000 0.76783 0.00000
0.00000 0.96985 0.00000
0.00000 0.96267 0.00000
0.11175 0.95550 0.00000
0.27332 0.94832 0.00000
0.43490 0.94115 0.00000
0.59647 0.93397 0.00000
0.75805 0.92680 0.00000
0.91962 0.91962 0.00000
1.00000 0.91245 0.00000
0.00000 1.00000 0.00000
0.00000 1.00000 0.00000
0.08761 1.00000 0.00000
0.24918 1.00000 0.00000
0.41076 1.00000 0.00000
0.57233 1.00000 0.00000
0.73391 1.00000 0.00000
0.89548 1.00000 0.00000
1.00000 1.00000 0.00000
0.00000 0.00000 0.29263
0.11670 0.00000 0.28545
0.27828 0.00000 0.27828
0.43985 0.00000 0.27110
0.60143 0.00000 0.26393
0.76300 0.00000 0.25675
0.92457 0.00000 0.24957
1.00000 0.00000 0.24240
1.00000 0.00000 0.23522
0.00000 0.09974 0.26849
0.09256 0.09256 0.26131
0.25414 0.08539 0.25414
0.41571 0.07821 0.24696
0.57729 0.07104 0.23979
0.73886 0.06386 0.23261
0.90044 0.05669 0.22544
1.00000 0.04951 0.21826
1.00000 0.04234 0.21109
0.00000 0.24435 0.24435
0.06843 0.23718 0.23718
0.23000 0.23000 0.23000
0.39157 0.22282 0.22282
0.55315 0.21565 0.21565
0.71472 0.20847 0.20847
0.87630 0.20130 0.20130
1.00000 0.19412 0.19412
1.00000 0.18695 0.18695
0.00000 0.38896 0.22021
0.04429 0.38179 0.21304
0.20586 0.37461 0.20586
0.36744 0.36744 0.19869
0.52901 0.36026 0.19151
0.69059 0.35309 0.18434
0.85216 0.34591 0.17716
1.00000 0.33874 0.16999
1.00000 0.33156 0.16281
0.00000 0.53357 0.19607
0.02015 0.52640 0.18890
0.18172 0.51922 0.18172
0.34330 0.51205 0.17455
0.50487 0.50487 0.16737
0.66645 0.49770 0.16020
0.82802 0.49052 0.15302
0.98960 0.48335 0.14585
1.00000 0.47617 0.13867
0.00000 0.67819 0.17194
0.00000 0.67101 0.16476
0.15759 0.66384 0.15759
0.31916 0.65666 0.15041
0.48074 0.64949 0.14324
0.64231 0.64231 0.13606
0.80389 0.63514 0.12889
0.96546 0.62796 0.12171
1.00000 0.62078 0.11453
0.00000 0.82280 0.14780
0.00000 0.81562 0.14062
0.13345 0.80845 0.13345
0.29502 0.80127 0.12627
0.45660 0.79410 0.11910
0.61817 0.78692 0.11192
0.77975 0.77975 0.10475
0.94132 0.77257 0.09757
1.00000 0.76540 0.09040
0.00000 0.96741 0.12366
0.00000 0.96024 0.11649
0.10931 0.95306 0.10931
0.27088 0.94588 0.10213
0.43246 0.93871 0.09496
0.59403 0.93153 0.08778
0.75561 0.92436 0.08061
0.91718 0.91718 0.07343
1.00000 0.91001 0.06626
0.00000 1.00000 0.09952
0.00000 1.00000 0.09235
0.08517 1.00000 0.08517
0.24675 1.00000 0.07800
0.40832 1.00000 0.07082
0.56990 1.00000 0.06365
0.73147 1.00000 0.05647
0.89305 1.00000 0.04930
1.00000 1.00000 0.04212
0.00000 0.00000 0.45894
0.11426 0.00000 0.45176
0.27584 0.00000 0.44459
0.43741 0.00000 0.43741
0.59899 0.00000 0.43024
0.76056 0.00000 0.42306
0.92214 0.00000 0.41589
1.00000 0.00000 0.40871
1.00000 0.00000 0.40154
0.00000 0.09730 0.43480
0.09013 0.09013 0.42763
0.25170 0.08295 0.42045
0.41328 0.07578 0.41328
0.57485 0.06860 0.40610
0.73643 0.06143 0.39893
0.89800 0.05425 0.39175
1.00000 0.04707 0.38458
1.00000 0.03990 0.37740
0.00000 0.24191 0.41066
0.06599 0.23474 0.40349
0.22756 0.22756 0.39631
0.38914 0.22039 0.38914
0.55071 0.21321 0.38196
0.71229 0.20604 0.37479
0.87386 0.19886 0.36761
1.00000 0.19169 0.36044
1.00000 0.18451 0.35326
0.00000 0.38653 0.38653
0.04185 0.37935 0.37935
0.20343 0.37218 0.37218
0.36500 0.36500 0.36500
0.52657 0.35782 0.35782
0.68815 0.35065 0.35065
0.84972 0.34347 0.34347
1.00000 0.33630 0.33630
1.00000 0.32912 0.32912
0.00000 0.53114 0.36239
0.01771 0.52396 0.35521
0.17929 0.51679 0.34804
0.34086 0.50961 0.34086
0.50244 0.50244 0.33369
0.66401 0.49526 0.32651
0.82559 0.48809 0.31934
0.98716 0.48091 0.31216
1.00000 0.47374 0.30499
0.00000 0.67575 0.33825
0.00000 0.66857 0.33107
0.15515 0.66140 0.32390
0.31672 0.65422 0.31672
0.47830 0.64705 0.30955
0.63987 0.63987 0.30237
0.80145 0.63270 0.29520
0.96302 0.62552 0.28802
1.00000 0.61835 0.28085
0.00000 0.82036 0.31411
0.00000 0.81319 0.30694
0.13101 0.80601 0.29976
0.29259 0.79884 0.29259
0.45416 0.79166 0.28541
0.61574 0.78449 0.27824
0.77731 0.77731 0.27106
0.93889 0.77014 0.26389
1.00000 0.76296 0.25671
0.00000 0.96497 0.28997
0.00000 0.95780 0.28280
0.10687 0.95062 0.27562
0.26845 0.94345 0.26845
0.43002 0.93627 0.26127
0.59160 0.92910 0.25410
0.75317 0.92192 0.24692
0.91475 0.91475 0.23975
1.00000 0.90757 0.23257
0.00000 1.00000 0.26584
0.00000 1.00000 0.25866
0.08274 1.00000 0.25149
0.24431 1.00000 0.24431
0.40588 1.00000 0.23713
0.56746 1.00000 0.22996
0.72903 1.00000 0.22278
0.89061 1.00000 0.21561
1.00000 1.00000 0.20843
0.00000 0.00000 0.62525
0.11183 0.00000 0.61808
0.27340 0.00000 0.61090
0.43498 0.00000 0.60373
0.59655 0.00000 0.59655
0.75813 0.00000 0.58938
0.91970 0.00000 0.58220
1.00000 0.00000 0.57503
1.00000 0.00000 0.56785
0.00000 0.09486 0.60112
0.08769 0.08769 0.59394
0.24926 0.08051 0.58676
0.41084 0.07334 0.57959
0.57241 0.06616 0.57241
0.73399 0.05899 0.56524
0.89556 0.05181 0.55806
1.00000 0.04464 0.55089
1.00000 0.03746 0.54371
0.00000 0.23948 0.57698
0.06355 0.23230 0.56980
0.22513 0.22513 0.56263
0.38670 0.21795 0.55545
0.54828 0.21078 0.54828
0.70985 0.20360 0.54110
0.87143 0.19643 0.53393
1.00000 0.18925 0.52675
1.00000 0.18207 0.51957
0.00000 0.38409 0.55284
0.03941 0.37691 0.54566
0.20099 0.36974 0.53849
0.36256 0.36256 0.53131
0.52414 0.35539 0.52414
0.68571 0.34821 0.51696
0.84729 0.34104 0.50979
1.00000 0.33386 0.50261
1.00000 0.32669 0.49544
0.00000 0.52870 0.52870
0.01528 0.52153 0.52153
0.17685 0.51435 0.51435
0.33843 0.50718 0.50718
0.50000 0.50000 0.50000
0.66157 0.49282 0.49282
0.82315 0.48565 0.48565
0.98472 0.47847 0.47847
1.00000 0.47130 0.47130
0.00000 0.67331 0.50456
0.00000 0.66614 0.49739
0.15271 0.65896 0.49021
0.31429 0.65179 0.48304
0.47586 0.64461 0.47586
0.63744 0.63744 0.46869
0.79901 0.63026 0.46151
0.96059 0.62309 0.45434
1.00000 0.61591 0.44716
0.00000 0.81793 0.48042
0.00000 0.81075 0.47325
0.12857 0.80357 0.46607
0.29015 0.79640 0.45890
0.45172 0.78922 0.45172
0.61330 0.78205 0.44455
0.77487 0.77487 0.43737
0.93645 0.76770 0.43020
1.00000 0.76052 0.42302
0.00000 0.96254 0.45629
0.00000 0.95536 0.44911
0.10444 0.94819 0.44194
0.26601 0.94101 0.43476
0.42759 0.93384 0.42759
0.58916 0.92666 0.42041
0.75074 0.91949 0.41324
0.91231 0.91231 0.40606
1.00000 0.90514 0.39889
0.00000 1.00000 0.43215
0.00000 1.00000 0.42497
0.08030 1.00000 0.41780
0.24187 1.00000 0.41062
0.40345 1.00000 0.40345
0.56502 1.00000 0.39627
0.72660 1.00000 0.38910
0.88817 1.00000 0.38192
1.00000 1.00000 0.37475
0.00000 0.00000 0.79157
0.10939 0.00000 0.78439
0.27097 0.00000 0.77722
0.43254 0.00000 0.77004
0.59412 0.00000 0.76287
0.75569 0.00000 0.75569
0.91726 0.00000 0.74851
1.00000 0.00000 0.74134
1.00000 0.00000 0.73416
0.00000 0.09243 0.76743
0.08525 0.08525 0.76025
0.24683 0.07808 0.75308
0.40840 0.07090 0.74590
0.56998 0.06373 0.73873
0.73155 0.05655 0.73155
0.89313 0.04938 0.72438
1.00000 0.04220 0.71720
1.00000 0.03503 0.71003
0.00000 0.23704 0.74329
0.06111 0.22986 0.73612
0.22269 0.22269 0.72894
0.38426 0.21551 0.72176
0.54584 0.20834 0.71459
0.70741 0.20116 0.70741
0.86899 0.19399 0.70024
1.00000 0.18681 0.69306
1.00000 0.17964 0.68589
0.00000 0.38165 0.71915
0.03698 0.37448 0.71198
0.19855 0.36730 0.70480
0.36013 0.36013 0.69763
0.52170 0.35295 0.69045
0.68328 0.34578 0.68328
0.84485 0.33860 0.67610
1.00000 0.33143 0.66893
1.00000 0.32425 0.66175
0.00000 0.52626 0.69501
0.01284 0.51909 0.68784
0.17441 0.51191 0.68066
0.33599 0.50474 0.67349
0.49756 0.49756 0.66631
0.65914 0.49039 0.65914
0.82071 0.48321 0.65196
0.98229 0.47604 0.64479
1.00000 0.46886 0.63761
0.00000 0.67088 0.67088
0.00000 0.66370 0.66370
0.15028 0.65653 0.65653
0.31185 0.64935 0.64935
0.47343 0.64218 0.64218
0.63500 0.63500 0.63500
0.79657 0.62782 0.62782
0.95815 0.62065 0.62065
1.00000 0.61347 0.61347
0.00000 0.81549 0.64674
0.00000 0.80831 0.63956
0.12614 0.80114 0.63239
0.28771 0.79396 0.62521
0.44929 0.78679 0.61804
0.61086 0.77961 0.61086
0.77244 0.77244 0.60369
0.93401 0.76526 0.59651
1.00000 0.75809 0.58934
0.00000 0.96010 0.62260
0.00000 0.95293 0.61543
0.10200 0.94575 0.60825
0.26357 0.93857 0.60107
0.42515 0.93140 0.59390
0.58672 0.92422 0.58672
0.74830 0.91705 0.57955
0.90987 0.90987 0.57237
1.00000 0.90270 0.56520
0.00000 1.00000 0.59846
0.00000 1.00000 0.59129
0.07786 1.00000 0.58411
0.23944 1.00000 0.57694
0.40101 1.00000 0.56976
0.56259 1.00000 0.56259
0.72416 1.00000 0.55541
0.88574 1.00000 0.54824
1.00000 1.00000 0.54106
0.00000 0.00000 0.95788
0.10695 0.00000 0.95070
0.26853 0.00000 0.94353
0.43010 0.00000 0.93635
0.59168 0.00000 0.92918
0.75325 0.00000 0.92200
0.91483 0.00000 0.91483
1.00000 0.00000 0.90765
1.00000 0.00000 0.90048
0.00000 0.08999 0.93374
0.08282 0.08282 0.92657
0.24439 0.07564 0.91939
0.40597 0.06847 0.91222
0.56754 0.06129 0.90504
0.72912 0.05412 0.89787
0.89069 0.04694 0.89069
1.00000 0.03976 0.88351
1.00000 0.03259 0.87634
0.00000 0.23460 0.90960
0.05868 0.22743 0.90243
0.22025 0.22025 0.89525
0.38183 0.21308 0.88808
0.54340 0.20590 0.88090
0.70498 0.19873 0.87373
0.86655 0.19155 0.86655
1.00000 0.18438 0.85938
1.00000 0.17720 0.85220
0.00000 0.37922 0.88547
0.03454 0.37204 0.87829
0.19611 0.36486 0.87111
0.35769 0.35769 0.86394
0.51926 0.35051 0.85676
0.68084 0.34334 0.84959
0.84241 0.33616 0.84241
1.00000 0.32899 0.83524
1.00000 0.32181 0.82806
0.00000 0.52383 0.86133
0.01040 0.51665 0.85415
0.17198 0.50948 0.84698
0.33355 0.50230 0.83980
0.49513 0.49513 0.83263
0.65670 0.48795 0.82545
0.81828 0.48078 0.81828
0.97985 0.47360 0.81110
1.00000 0.46643 0.80393
0.00000 0.66844 0.83719
0.00000 0.66126 0.83001
0.14784 0.65409 0.82284
0.30941 0.64691 0.81566
0.47099 0.63974 0.80849
0.63256 0.63256 0.80131
0.79414 0.62539 0.79414
0.95571 0.61821 0.78696
1.00000 0.61104 0.77979
0.00000 0.81305 0.81305
0.00000 0.80588 0.80588
0.12370 0.79870 0.79870
0.28528 0.79153 0.79153
0.44685 0.78435 0.78435
0.60843 0.77718 0.77718
0.77000 0.77000 0.77000
0.93157 0.76282 0.76282
1.00000 0.75565 0.75565
0.00000 0.95766 0.78891
0.00000 0.95049 0.78174
0.09956 0.94331 0.77456
0.26114 0.93614 0.76739
0.42271 0.92896 0.76021
0.58429 0.92179 0.75304
0.74586 0.91461 0.74586
0.90744 0.90744 0.73869
1.00000 0.90026 0.73151
0.00000 1.00000 0.76478
0.00000 1.00000 0.75760
0.07543 1.00000 0.75043
0.23700 1.00000 0.74325
0.39857 1.00000 0.73607
0.56015 1.00000 0.72890
0.72172 1.00000 0.72172
0.88330 1.00000 0.71455
1.00000 1.00000 0.70737
0.00000 0.00000 1.00000
0.10452 0.00000 1.00000
0.26609 0.00000 1.00000
0.42767 0.00000 1.00000
0.58924 0.00000 1.00000
0.75082 0.00000 1.00000
0.91239 0.00000 1.00000
1.00000 0.00000 1.00000
1.00000 0.00000 1.00000
0.00000 0.08755 1.00000
0.08038 0.08038 1.00000
0.24195 0.07320 1.00000
0.40353 0.06603 1.00000
0.56510 0.05885 1.00000
0.72668 0.05168 1.00000
0.88825 0.04450 1.00000
1.00000 0.03733 1.00000
1.00000 0.03015 1.00000
0.00000 0.23217 1.00000
0.05624 0.22499 1.00000
0.21782 0.21782 1.00000
0.37939 0.21064 1.00000
0.54097 0.20347 1.00000
0.70254 0.19629 1.00000
0.86412 0.18912 1.00000
1.00000 0.18194 1.00000
1.00000 0.17476 1.00000
0.00000 0.37678 1.00000
0.03210 0.36960 1.00000
0.19368 0.36243 1.00000
0.35525 0.35525 1.00000
0.51683 0.34808 1.00000
0.67840 0.34090 1.00000
0.83998 0.33373 1.00000
1.00000 0.32655 1.00000
1.00000 0.31938 0.99438
0.00000 0.52139 1.00000
0.00797 0.51422 1.00000
0.16954 0.50704 1.00000
0.33111 0.49987 1.00000
0.49269 0.49269 0.99894
0.65426 0.48551 0.99176
0.81584 0.47834 0.98459
0.97741 0.47116 0.97741
1.00000 0.46399 0.97024
0.00000 0.66600 1.00000
0.00000 0.65883 0.99633
0.14540 0.65165 0.98915
0.30698 0.64448 0.98198
0.46855 0.63730 0.97480
0.63013 0.63013 0.96763
0.79170 0.62295 0.96045
0.95328 0.61578 0.95328
1.00000 0.60860 0.94610
0.00000 0.81061 0.97936
0.00000 0.80344 0.97219
0.12126 0.79626 0.96501
0.28284 0.78909 0.95784
0.44441 0.78191 0.95066
0.60599 0.77474 0.94349
0.76756 0.76756 0.93631
0.92914 0.76039 0.92914
1.00000 0.75321 0.92196
0.00000 0.95523 0.95523
0.00000 0.94805 0.94805
0.09713 0.94088 0.94088
0.25870 0.93370 0.93370
0.42028 0.92653 0.92653
0.58185 0.91935 0.91935
0.74343 0.91218 0.91218
0.90500 0.90500 0.90500
1.00000 0.89782 0.89782
0.00000 1.00000 0.93109
0.00000 1.00000 0.92391
0.07299 1.00000 0.91674
0.23456 1.00000 0.90956
0.39614 1.00000 0.90239
0.55771 1.00000 0.89521
0.71929 1.00000 0.88804
0.88086 1.00000 0.88086
1.00000 1.00000 0.87369
0.00000 0.00000 1.00000
0.10208 0.00000 1.00000
0.26366 0.00000 1.00000
0.42523 0.00000 1.00000
0.58681 0.00000 1.00000
0.74838 0.00000 1.00000
0.90995 0.00000 1.00000
1.00000 0.00000 1.00000
1.00000 0.00000 1.00000
0.00000 0.08512 1.00000
0.07794 0.07794 1.00000
0.23952 0.07077 1.00000
0.40109 0.06359 1.00000
0.56267 0.05642 1.00000
0.72424 0.04924 1.00000
0.88582 0.04207 1.00000
1.00000 0.03489 1.00000
1.00000 0.02772 1.00000
0.00000 0.22973 1.00000
0.05380 0.22255 1.00000
0.21538 0.21538 1.00000
0.37695 0.20820 1.00000
0.53853 0.20103 1.00000
0.70010 0.19385 1.00000
0.86168 0.18668 1.00000
1.00000 0.17950 1.00000
1.00000 0.17233 1.00000
0.00000 0.37434 1.00000
0.02967 0.36717 1.00000
0.19124 0.35999 1.00000
0.35282 0.35282 1.00000
0.51439 0.34564 1.00000
0.67597 0.33847 1.00000
0.83754 0.33129 1.00000
0.99912 0.32412 1.00000
1.00000 0.31694 1.00000
0.00000 0.51895 1.00000
0.00553 0.51178 1.00000
0.16710 0.50460 1.00000
0.32868 0.49743 1.00000
0.49025 0.49025 1.00000
0.65183 0.48308 1.00000
0.81340 0.47590 1.00000
0.97498 0.46873 1.00000
1.00000 0.46155 1.00000
0.00000 0.66357 1.00000
0.00000 0.65639 1.00000
0.14297 0.64922 1.00000
0.30454 0.64204 1.00000
0.46612 0.63487 1.00000
0.62769 0.62769 1.00000
0.78926 0.62051 1.00000
0.95084 0.61334 1.00000
1.00000 0.60616 1.00000
0.00000 0.80818 1.00000
0.00000 0.80100 1.00000
0.11883 0.79383 1.00000
0.28040 0.78665 1.00000
0.44198 0.77948 1.00000
0.60355 0.77230 1.00000
0.76513 0.76513 1.00000
0.92670 0.75795 1.00000
1.00000 0.75078 1.00000
0.00000 0.95279 1.00000
0.00000 0.94561 1.00000
0.09469 0.93844 1.00000
0.25626 0.93126 1.00000
0.41784 0.92409 1.00000
0.57941 0.91691 1.00000
0.74099 0.90974 1.00000
0.90256 0.90256 1.00000
1.00000 0.89539 1.00000
0.00000 1.00000 1.00000
0.00000 1.00000 1.00000
0.07055 1.00000 1.00000
0.23213 1.00000 1.00000
0.39370 1.00000 1.00000
0.55528 1.00000 1.00000
0.71685 1.00000 1.00000
0.87843 1.00000 1.00000
1.00000 1.00000 1.00000
