assets/lut/Vivid-Punch.cube
LUT_3D_SIZE 5
DOMAIN_MIN 0.0 0.0 0.0
DOMAIN_MAX 1.0 1.0 1.0
0.00000 0.00000 0.00000
0.28315 0.00000 0.00000
0.60630 0.00000 0.00000
0.92945 0.00000 0.00000
1.00000 0.00000 0.00000
0.00000 0.24922 0.00000
0.23487 0.23487 0.00000
0.55802 0.22052 0.00000
0.88117 0.20617 0.00000
1.00000 0.19182 0.00000
0.00000 0.53845 0.00000
0.18660 0.52410 0.00000
0.50975 0.50975 0.00000
0.83290 0.49540 0.00000
1.00000 0.48105 0.00000
0.00000 0.82767 0.00000
0.13832 0.81332 0.00000
0.46147 0.79897 0.00000
0.78462 0.78462 0.00000
1.00000 0.77027 0.00000
0.00000 1.00000 0.00000
0.09005 1.00000 0.00000
0.41320 1.00000 0.00000
0.73634 1.00000 0.00000
1.00000 1.00000 0.00000
0.00000 0.00000 0.29263
0.27828 0.00000 0.27828
0.60143 0.00000 0.26393
0.92457 0.00000 0.24957
1.00000 0.00000 0.23522
0.00000 0.24435 0.24435
0.23000 0.23000 0.23000
0.55315 0.21565 0.21565
0.87630 0.20130 0.20130
1.00000 0.18695 0.18695
0.00000 0.53357 0.19607
0.18172 0.51922 0.18172
0.50487 0.50487 0.16737
0.82802 0.49052 0.15302
1.00000 0.47617 0.13867
0.00000 0.82280 0.14780
0.13345 0.80845 0.13345
0.45660 0.79410 0.11910
0.77975 0.77975 0.10475
1.00000 0.76540 0.09040
0.00000 1.00000 0.09952
0.08517 1.00000 0.08517
0.40832 1.00000 0.07082
0.73147 1.00000 0.05647
1.00000 1.00000 0.04212
0.00000 0.00000 0.62525
0.27340 0.00000 0.61090
0.59655 0.00000 0.59655
0.91970 0.00000 0.58220
1.00000 0.00000 0.56785
0.00000 0.23948 0.57698
0.22513 0.22513 0.56263
0.54828 0.21078 0.54828
0.87143 0.19643 0.53393
1.00000 0.18207 0.51957
0.00000 0.52870 0.52870
0.17685 0.51435 0.51435
0.50000 0.50000 0.50000
0.82315 0.48565 0.48565
1.00000 0.47130 0.47130
0.00000 0.81793 0.48042
0.12857 0.80357 0.46607
0.45172 0.78922 0.45172
0.77487 0.77487 0.43737
1.00000 0.76052 0.42302
0.00000 1.00000 0.43215
0.08030 1.00000 0.41780
0.40345 1.00000 0.40345
0.72660 1.00000 0.38910
1.00000 1.00000 0.37475
0.00000 0.00000 0.95788
0.26853 0.00000 0.94353
0.59168 0.00000 0.92918
0.91483 0.00000 0.91483
1.00000 0.00000 0.90048
0.00000 0.23460 0.90960
0.22025 0.22025 0.89525
0.54340 0.20590 0.88090
0.86655 0.19155 0.86655
1.00000 0.17720 0.85220
0.00000 0.52383 0.86133
0.17198 0.50948 0.84698
0.49513 0.49513 0.83263
0.81828 0.48078 0.81828
1.00000 0.46643 0.80393
0.00000 0.81305 0.81305
0.12370 0.79870 0.79870
0.44685 0.78435 0.78435
0.77000 0.77000 0.77000
1.00000 0.75565 0.75565
0.00000 1.00000 0.76478
0.07543 1.00000 0.75043
0.39857 1.00000 0.73607
0.72172 1.00000 0.72172
1.00000 1.00000 0.70737
0.00000 0.00000 1.00000
0.26366 0.00000 1.00000
0.58681 0.00000 1.00000
0.90995 0.00000 1.00000
1.00000 0.00000 1.00000
0.00000 0.22973 1.00000
0.21538 0.21538 1.00000
0.53853 0.20103 1.00000
0.86168 0.18668 1.00000
1.00000 0.17233 1.00000
0.00000 0.51895 1.00000
0.16710 0.50460 1.00000
0.49025 0.49025 1.00000
0.81340 0.47590 1.00000
1.00000 0.46155 1.00000
0.00000 0.80818 1.00000
0.11883 0.79383 1.00000
0.44198 0.77948 1.00000
0.76513 0.76513 1.00000
1.00000 0.75078 1.00000
0.00000 1.00000 1.00000
0.07055 1.00000 1.00000
0.39370 1.00000 1.00000
0.71685 1.00000 1.00000
1.00000 1.00000 1.00000
