assets/lut/Vivid-Punch.cube
LUT_3D_SIZE 33
DOMAIN_MIN 0.0 0.0 0.0
DOMAIN_MAX 1.0 1.0 1.0
0.00000 0.00000 0.00000
0.00039 0.00000 0.00000
0.04079 0.00000 0.00000
0.08118 0.00000 0.00000
0.12157 0.00000 0.00000
0.16197 0.00000 0.00000
0.20236 0.00000 0.00000
0.24276 0.00000 0.00000
0.28315 0.00000 0.00000
0.32354 0.00000 0.00000
0.36394 0.00000 0.00000
0.40433 0.00000 0.00000
0.44472 0.00000 0.00000
0.48512 0.00000 0.00000
0.52551 0.00000 0.00000
0.56591 0.00000 0.00000
0.60630 0.00000 0.00000
0.64669 0.00000 0.00000
0.68709 0.00000 0.00000
0.72748 0.00000 0.00000
0.76787 0.00000 0.00000
0.80827 0.00000 0.00000
0.84866 0.00000 0.00000
0.88905 0.00000 0.00000
0.92945 0.00000 0.00000
0.96984 0.00000 0.00000
1.00000 0.00000 0.00000
1.00000 0.00000 0.00000
1.00000 0.00000 0.00000
1.00000 0.00000 0.00000
1.00000 0.00000 0.00000
1.00000 0.00000 0.00000
1.00000 0.00000 0.00000
0.00000 0.00000 0.00000
0.00000 0.00000 0.00000
0.03475 0.00000 0.00000
0.07515 0.00000 0.00000
0.11554 0.00000 0.00000
0.15593 0.00000 0.00000
0.19633 0.00000 0.00000
0.23672 0.00000 0.00000
0.27711 0.00000 0.00000
0.31751 0.00000 0.00000
0.35790 0.00000 0.00000
0.39830 0.00000 0.00000
0.43869 0.00000 0.00000
0.47908 0.00000 0.00000
0.51948 0.00000 0.00000
0.55987 0.00000 0.00000
0.60026 0.00000 0.00000
0.64066 0.00000 0.00000
0.68105 0.00000 0.00000
0.72145 0.00000 0.00000
0.76184 0.00000 0.00000
0.80223 0.00000 0.00000
0.84263 0.00000 0.00000
0.88302 0.00000 0.00000
0.92341 0.00000 0.00000
0.96381 0.00000 0.00000
1.00000 0.00000 0.00000
1.00000 0.00000 0.00000
1.00000 0.00000 0.00000
1.00000 0.00000 0.00000
1.00000 0.00000 0.00000
1.00000 0.00000 0.00000
1.00000 0.00000 0.00000
0.00000 0.03231 0.00000
0.00000 0.03051 0.00000
0.02872 0.02872 0.00000
0.06911 0.02692 0.00000
0.10951 0.02513 0.00000
0.14990 0.02334 0.00000
0.19029 0.02154 0.00000
0.23069 0.01975 0.00000
0.27108 0.01796 0.00000
0.31147 0.01616 0.00000
0.35187 0.01437 0.00000
0.39226 0.01257 0.00000
0.43266 0.01078 0.00000
0.47305 0.00899 0.00000
0.51344 0.00719 0.00000
0.55384 0.00540 0.00000
0.59423 0.00360 0.00000
0.63462 0.00181 0.00000
0.67502 0.00002 0.00000
0.71541 0.00000 0.00000
0.75580 0.00000 0.00000
0.79620 0.00000 0.00000
0.83659 0.00000 0.00000
0.87699 0.00000 0.00000
0.91738 0.00000 0.00000
0.95777 0.00000 0.00000
0.99817 0.00000 0.00000
1.00000 0.00000 0.00000
1.00000 0.00000 0.00000
1.00000 0.00000 0.00000
1.00000 0.00000 0.00000
1.00000 0.00000 0.00000
1.00000 0.00000 0.00000
0.00000 0.06846 0.00000
0.00000 0.06667 0.00000
0.02268 0.06487 0.00000
0.06308 0.06308 0.00000
0.10347 0.06128 0.00000
0.14386 0.05949 0.00000
0.18426 0.05770 0.00000
0.22465 0.05590 0.00000
0.26505 0.05411 0.00000
0.30544 0.05231 0.00000
0.34583 0.05052 0.00000
0.38623 0.04873 0.00000
0.42662 0.04693 0.00000
0.46701 0.04514 0.00000
0.50741 0.04335 0.00000
0.54780 0.04155 0.00000
0.58820 0.03976 0.00000
0.62859 0.03796 0.00000
0.66898 0.03617 0.00000
0.70938 0.03438 0.00000
0.74977 0.03258 0.00000
0.79016 0.03079 0.00000
0.83056 0.02900 0.00000
0.87095 0.02720 0.00000
0.91134 0.02541 0.00000
0.95174 0.02361 0.00000
0.99213 0.02182 0.00000
1.00000 0.02003 0.00000
1.00000 0.01823 0.00000
1.00000 0.01644 0.00000
1.00000 0.01464 0.00000
1.00000 0.01285 0.00000
1.00000 0.01106 0.00000
0.00000 0.10461 0.00000
0.00000 0.10282 0.00000
0.01665 0.10102 0.00000
0.05704 0.09923 0.00000
0.09744 0.09744 0.00000
0.13783 0.09564 0.00000
0.17822 0.09385 0.00000
0.21862 0.09206 0.00000
0.25901 0.09026 0.00000
0.29941 0.08847 0.00000
0.33980 0.08667 0.00000
0.38019 0.08488 0.00000
0.42059 0.08309 0.00000
0.46098 0.08129 0.00000
0.50137 0.07950 0.00000
0.54177 0.07770 0.00000
0.58216 0.07591 0.00000
0.62255 0.07412 0.00000
0.66295 0.07232 0.00000
0.70334 0.07053 0.00000
0.74374 0.06874 0.00000
0.78413 0.06694 0.00000
0.82452 0.06515 0.00000
0.86492 0.06335 0.00000
0.90531 0.06156 0.00000
0.94570 0.05977 0.00000
0.98610 0.05797 0.00000
1.00000 0.05618 0.00000
1.00000 0.05439 0.00000
1.00000 0.05259 0.00000
1.00000 0.05080 0.00000
1.00000 0.04900 0.00000
1.00000 0.04721 0.00000
0.00000 0.14076 0.00000
0.00000 0.13897 0.00000
0.01061 0.13718 0.00000
0.05101 0.13538 0.00000
0.09140 0.13359 0.00000
0.13180 0.13180 0.00000
0.17219 0.13000 0.00000
0.21258 0.12821 0.00000
0.25298 0.12641 0.00000
0.29337 0.12462 0.00000
0.33376 0.12283 0.00000
0.37416 0.12103 0.00000
0.41455 0.11924 0.00000
0.45495 0.11745 0.00000
0.49534 0.11565 0.00000
0.53573 0.11386 0.00000
0.57613 0.11206 0.00000
0.61652 0.11027 0.00000
0.65691 0.10848 0.00000
0.69731 0.10668 0.00000
0.73770 0.10489 0.00000
0.77809 0.10309 0.00000
0.81849 0.10130 0.00000
0.85888 0.09951 0.00000
0.89928 0.09771 0.00000
0.93967 0.09592 0.00000
0.98006 0.09413 0.00000
1.00000 0.09233 0.00000
1.00000 0.09054 0.00000
1.00000 0.08874 0.00000
1.00000 0.08695 0.00000
1.00000 0.08516 0.00000
1.00000 0.08336 0.00000
0.00000 0.17692 0.00000
0.00000 0.17512 0.00000
0.00458 0.17333 0.00000
0.04497 0.17154 0.00000
0.08537 0.16974 0.00000
0.12576 0.16795 0.00000
0.16616 0.16616 0.00000
0.20655 0.16436 0.00000
0.24694 0.16257 0.00000
0.28734 0.16077 0.00000
0.32773 0.15898 0.00000
0.36812 0.15719 0.00000
0.40852 0.15539 0.00000
0.44891 0.15360 0.00000
0.48930 0.15180 0.00000
0.52970 0.15001 0.00000
0.57009 0.14822 0.00000
0.61049 0.14642 0.00000
0.65088 0.14463 0.00000
0.69127 0.14284 0.00000
0.73167 0.14104 0.00000
0.77206 0.13925 0.00000
0.81245 0.13745 0.00000
0.85285 0.13566 0.00000
0.89324 0.13387 0.00000
0.93364 0.13207 0.00000
0.97403 0.13028 0.00000
1.00000 0.12849 0.00000
1.00000 0.12669 0.00000
1.00000 0.12490 0.00000
1.00000 0.12310 0.00000
1.00000 0.12131 0.00000
1.00000 0.11952 0.00000
0.00000 0.21307 0.00000
0.00000 0.21128 0.00000
0.00000 0.20948 0.00000
0.03894 0.20769 0.00000
0.07933 0.20590 0.00000
0.11973 0.20410 0.00000
0.16012 0.20231 0.00000
0.20051 0.20051 0.00000
0.24091 0.19872 0.00000
0.28130 0.19693 0.00000
0.32170 0.19513 0.00000
0.36209 0.19334 0.00000
0.40248 0.19155 0.00000
0.44288 0.18975 0.00000
0.48327 0.18796 0.00000
0.52366 0.18616 0.00000
0.56406 0.18437 0.00000
0.60445 0.18258 0.00000
0.64484 0.18078 0.00000
0.68524 0.17899 0.00000
0.72563 0.17719 0.00000
0.76603 0.17540 0.00000
0.80642 0.17361 0.00000
0.84681 0.17181 0.00000
0.88721 0.17002 0.00000
0.92760 0.16823 0.00000
0.96799 0.16643 0.00000
1.00000 0.16464 0.00000
1.00000 0.16284 0.00000
1.00000 0.16105 0.00000
1.00000 0.15926 0.00000
1.00000 0.15746 0.00000
1.00000 0.15567 0.00000
0.00000 0.24922 0.00000
0.00000 0.24743 0.00000
0.00000 0.24564 0.00000
0.03291 0.24384 0.00000
0.07330 0.24205 0.00000
0.11369 0.24025 0.00000
0.15409 0.23846 0.00000
0.19448 0.23667 0.00000
0.23487 0.23487 0.00000
0.27527 0.23308 0.00000
0.31566 0.23129 0.00000
0.35605 0.22949 0.00000
0.39645 0.22770 0.00000
0.43684 0.22590 0.00000
0.47724 0.22411 0.00000
0.51763 0.22232 0.00000
0.55802 0.22052 0.00000
0.59842 0.21873 0.00000
0.63881 0.21694 0.00000
0.67920 0.21514 0.00000
0.71960 0.21335 0.00000
0.75999 0.21155 0.00000
0.80039 0.20976 0.00000
0.84078 0.20797 0.00000
0.88117 0.20617 0.00000
0.92157 0.20438 0.00000
0.96196 0.20258 0.00000
1.00000 0.20079 0.00000
1.00000 0.19900 0.00000
1.00000 0.19720 0.00000
1.00000 0.19541 0.00000
1.00000 0.19362 0.00000
1.00000 0.19182 0.00000
0.00000 0.28538 0.00000
0.00000 0.28358 0.00000
0.00000 0.28179 0.00000
0.02687 0.28000 0.00000
0.06726 0.27820 0.00000
0.10766 0.27641 0.00000
0.14805 0.27461 0.00000
0.18845 0.27282 0.00000
0.22884 0.27103 0.00000
0.26923 0.26923 0.00000
0.30963 0.26744 0.00000
0.35002 0.26565 0.00000
0.39041 0.26385 0.00000
0.43081 0.26206 0.00000
0.47120 0.26026 0.00000
0.51159 0.25847 0.00000
0.55199 0.25668 0.00000
0.59238 0.25488 0.00000
0.63278 0.25309 0.00000
0.67317 0.25129 0.00000
0.71356 0.24950 0.00000
0.75396 0.24771 0.00000
0.79435 0.24591 0.00000
0.83474 0.24412 0.00000
0.87514 0.24233 0.00000
0.91553 0.24053 0.00000
0.95593 0.23874 0.00000
0.99632 0.23694 0.00000
1.00000 0.23515 0.00000
1.00000 0.23336 0.00000
1.00000 0.23156 0.00000
1.00000 0.22977 0.00000
1.00000 0.22797 0.00000
0.00000 0.32153 0.00000
0.00000 0.31974 0.00000
0.00000 0.31794 0.00000
0.02084 0.31615 0.00000
0.06123 0.31435 0.00000
0.10162 0.31256 0.00000
0.14202 0.31077 0.00000
0.18241 0.30897 0.00000
0.22280 0.30718 0.00000
0.26320 0.30539 0.00000
0.30359 0.30359 0.00000
0.34399 0.30180 0.00000
0.38438 0.30000 0.00000
0.42477 0.29821 0.00000
0.46517 0.29642 0.00000
0.50556 0.29462 0.00000
0.54595 0.29283 0.00000
0.58635 0.29104 0.00000
0.62674 0.28924 0.00000
0.66714 0.28745 0.00000
0.70753 0.28565 0.00000
0.74792 0.28386 0.00000
0.78832 0.28207 0.00000
0.82871 0.28027 0.00000
0.86910 0.27848 0.00000
0.90950 0.27668 0.00000
0.94989 0.27489 0.00000
0.99028 0.27310 0.00000
1.00000 0.27130 0.00000
1.00000 0.26951 0.00000
1.00000 0.26772 0.00000
1.00000 0.26592 0.00000
1.00000 0.26413 0.00000
0.00000 0.35768 0.00000
0.00000 0.35589 0.00000
0.00000 0.35410 0.00000
0.01480 0.35230 0.00000
0.05520 0.35051 0.00000
0.09559 0.34871 0.00000
0.13598 0.34692 0.00000
0.17638 0.34513 0.00000
0.21677 0.34333 0.00000
0.25716 0.34154 0.00000
0.29756 0.33974 0.00000
0.33795 0.33795 0.00000
0.37834 0.33616 0.00000
0.41874 0.33436 0.00000
0.45913 0.33257 0.00000
0.49953 0.33078 0.00000
0.53992 0.32898 0.00000
0.58031 0.32719 0.00000
0.62071 0.32539 0.00000
0.66110 0.32360 0.00000
0.70149 0.32181 0.00000
0.74189 0.32001 0.00000
0.78228 0.31822 0.00000
0.82268 0.31643 0.00000
0.86307 0.31463 0.00000
0.90346 0.31284 0.00000
0.94386 0.31104 0.00000
0.98425 0.30925 0.00000
1.00000 0.30746 0.00000
1.00000 0.30566 0.00000
1.00000 0.30387 0.00000
1.00000 0.30207 0.00000
1.00000 0.30028 0.00000
0.00000 0.39384 0.00000
0.00000 0.39204 0.00000
0.00000 0.39025 0.00000
0.00877 0.38845 0.00000
0.04916 0.38666 0.00000
0.08955 0.38487 0.00000
0.12995 0.38307 0.00000
0.17034 0.38128 0.00000
0.21074 0.37949 0.00000
0.25113 0.37769 0.00000
0.29152 0.37590 0.00000
0.33192 0.37410 0.00000
0.37231 0.37231 0.00000
0.41270 0.37052 0.00000
0.45310 0.36872 0.00000
0.49349 0.36693 0.00000
0.53388 0.36513 0.00000
0.57428 0.36334 0.00000
0.61467 0.36155 0.00000
0.65507 0.35975 0.00000
0.69546 0.35796 0.00000
0.73585 0.35617 0.00000
0.77625 0.35437 0.00000
0.81664 0.35258 0.00000
0.85703 0.35078 0.00000
0.89743 0.34899 0.00000
0.93782 0.34720 0.00000
0.97822 0.34540 0.00000
1.00000 0.34361 0.00000
1.00000 0.34182 0.00000
1.00000 0.34002 0.00000
1.00000 0.33823 0.00000
1.00000 0.33643 0.00000
0.00000 0.42999 0.00000
0.00000 0.42820 0.00000
0.00000 0.42640 0.00000
0.00273 0.42461 0.00000
0.04313 0.42281 0.00000
0.08352 0.42102 0.00000
0.12391 0.41923 0.00000
0.16431 0.41743 0.00000
0.20470 0.41564 0.00000
0.24509 0.41384 0.00000
0.28549 0.41205 0.00000
0.32588 0.41026 0.00000
0.36628 0.40846 0.00000
0.40667 0.40667 0.00000
0.44706 0.40488 0.00000
0.48746 0.40308 0.00000
0.52785 0.40129 0.00000
0.56824 0.39949 0.00000
0.60864 0.39770 0.00000
0.64903 0.39591 0.00000
0.68943 0.39411 0.00000
0.72982 0.39232 0.00000
0.77021 0.39053 0.00000
0.81061 0.38873 0.00000
0.85100 0.38694 0.00000
0.89139 0.38514 0.00000
0.93179 0.38335 0.00000
0.97218 0.38156 0.00000
1.00000 0.37976 0.00000
1.00000 0.37797 0.00000
1.00000 0.37617 0.00000
1.00000 0.37438 0.00000
1.00000 0.37259 0.00000
0.00000 0.46614 0.00000
0.00000 0.46435 0.00000
0.00000 0.46255 0.00000
0.00000 0.46076 0.00000
0.03709 0.45897 0.00000
0.07749 0.45717 0.00000
0.11788 0.45538 0.00000
0.15827 0.45359 0.00000
0.19867 0.45179 0.00000
0.23906 0.45000 0.00000
0.27945 0.44820 0.00000
0.31985 0.44641 0.00000
0.36024 0.44462 0.00000
0.40063 0.44282 0.00000
0.44103 0.44103 0.00000
0.48142 0.43923 0.00000
0.52182 0.43744 0.00000
0.56221 0.43565 0.00000
0.60260 0.43385 0.00000
0.64300 0.43206 0.00000
0.68339 0.43027 0.00000
0.72378 0.42847 0.00000
0.76418 0.42668 0.00000
0.80457 0.42488 0.00000
0.84497 0.42309 0.00000
0.88536 0.42130 0.00000
0.92575 0.41950 0.00000
0.96615 0.41771 0.00000
1.00000 0.41592 0.00000
1.00000 0.41412 0.00000
1.00000 0.41233 0.00000
1.00000 0.41053 0.00000
1.00000 0.40874 0.00000
0.00000 0.50229 0.00000
0.00000 0.50050 0.00000
0.00000 0.49871 0.00000
0.00000 0.49691 0.00000
0.03106 0.49512 0.00000
0.07145 0.49333 0.00000
0.11184 0.49153 0.00000
0.15224 0.48974 0.00000
0.19263 0.48794 0.00000
0.23303 0.48615 0.00000
0.27342 0.48436 0.00000
0.31381 0.48256 0.00000
0.35421 0.48077 0.00000
0.39460 0.47898 0.00000
0.43499 0.47718 0.00000
0.47539 0.47539 0.00000
0.51578 0.47359 0.00000
0.55618 0.47180 0.00000
0.59657 0.47001 0.00000
0.63696 0.46821 0.00000
0.67736 0.46642 0.00000
0.71775 0.46462 0.00000
0.75814 0.46283 0.00000
0.79854 0.46104 0.00000
0.83893 0.45924 0.00000
0.87932 0.45745 0.00000
0.91972 0.45566 0.00000
0.96011 0.45386 0.00000
1.00000 0.45207 0.00000
1.00000 0.45027 0.00000
1.00000 0.44848 0.00000
1.00000 0.44669 0.00000
1.00000 0.44489 0.00000
0.00000 0.53845 0.00000
0.00000 0.53665 0.00000
0.00000 0.53486 0.00000
0.00000 0.53307 0.00000
0.02502 0.53127 0.00000
0.06542 0.52948 0.00000
0.10581 0.52769 0.00000
0.14620 0.52589 0.00000
0.18660 0.52410 0.00000
0.22699 0.52230 0.00000
0.26738 0.52051 0.00000
0.30778 0.51872 0.00000
0.34817 0.51692 0.00000
0.38857 0.51513 0.00000
0.42896 0.51333 0.00000
0.46935 0.51154 0.00000
0.50975 0.50975 0.00000
0.55014 0.50795 0.00000
0.59053 0.50616 0.00000
0.63093 0.50437 0.00000
0.67132 0.50257 0.00000
0.71172 0.50078 0.00000
0.75211 0.49898 0.00000
0.79250 0.49719 0.00000
0.83290 0.49540 0.00000
0.87329 0.49360 0.00000
0.91368 0.49181 0.00000
0.95408 0.49002 0.00000
0.99447 0.48822 0.00000
1.00000 0.48643 0.00000
1.00000 0.48463 0.00000
1.00000 0.48284 0.00000
1.00000 0.48105 0.00000
0.00000 0.57460 0.00000
0.00000 0.57281 0.00000
0.00000 0.57101 0.00000
0.00000 0.56922 0.00000
0.01899 0.56743 0.00000
0.05938 0.56563 0.00000
0.09978 0.56384 0.00000
0.14017 0.56204 0.00000
0.18056 0.56025 0.00000
0.22096 0.55846 0.00000
0.26135 0.55666 0.00000
0.30174 0.55487 0.00000
0.34214 0.55308 0.00000
0.38253 0.55128 0.00000
0.42293 0.54949 0.00000
0.46332 0.54769 0.00000
0.50371 0.54590 0.00000
0.54411 0.54411 0.00000
0.58450 0.54231 0.00000
0.62489 0.54052 0.00000
0.66529 0.53872 0.00000
0.70568 0.53693 0.00000
0.74607 0.53514 0.00000
0.78647 0.53334 0.00000
0.82686 0.53155 0.00000
0.86726 0.52976 0.00000
0.90765 0.52796 0.00000
0.94804 0.52617 0.00000
0.98844 0.52437 0.00000
1.00000 0.52258 0.00000
1.00000 0.52079 0.00000
1.00000 0.51899 0.00000
1.00000 0.51720 0.00000
0.00000 0.61075 0.00000
0.00000 0.60896 0.00000
0.00000 0.60717 0.00000
0.00000 0.60537 0.00000
0.01295 0.60358 0.00000
0.05335 0.60178 0.00000
0.09374 0.59999 0.00000
0.13413 0.59820 0.00000
0.17453 0.59640 0.00000
0.21492 0.59461 0.00000
0.25532 0.59282 0.00000
0.29571 0.59102 0.00000
0.33610 0.58923 0.00000
0.37650 0.58743 0.00000
0.41689 0.58564 0.00000
0.45728 0.58385 0.00000
0.49768 0.58205 0.00000
0.53807 0.58026 0.00000
0.57847 0.57847 0.00000
0.61886 0.57667 0.00000
0.65925 0.57488 0.00000
0.69965 0.57308 0.00000
0.74004 0.57129 0.00000
0.78043 0.56950 0.00000
0.82083 0.56770 0.00000
0.86122 0.56591 0.00000
0.90161 0.56411 0.00000
0.94201 0.56232 0.00000
0.98240 0.56053 0.00000
1.00000 0.55873 0.00000
1.00000 0.55694 0.00000
1.00000 0.55515 0.00000
1.00000 0.55335 0.00000
0.00000 0.64691 0.00000
0.00000 0.64511 0.00000
0.00000 0.64332 0.00000
0.00000 0.64153 0.00000
0.00692 0.63973 0.00000
0.04731 0.63794 0.00000
0.08771 0.63614 0.00000
0.12810 0.63435 0.00000
0.16849 0.63256 0.00000
0.20889 0.63076 0.00000
0.24928 0.62897 0.00000
0.28968 0.62718 0.00000
0.33007 0.62538 0.00000
0.37046 0.62359 0.00000
0.41086 0.62179 0.00000
0.45125 0.62000 0.00000
0.49164 0.61821 0.00000
0.53204 0.61641 0.00000
0.57243 0.61462 0.00000
0.61282 0.61282 0.00000
0.65322 0.61103 0.00000
0.69361 0.60924 0.00000
0.73401 0.60744 0.00000
0.77440 0.60565 0.00000
0.81479 0.60386 0.00000
0.85519 0.60206 0.00000
0.89558 0.60027 0.00000
0.93597 0.59847 0.00000
0.97637 0.59668 0.00000
1.00000 0.59489 0.00000
1.00000 0.59309 0.00000
1.00000 0.59130 0.00000
1.00000 0.58951 0.00000
0.00000 0.68306 0.00000
0.00000 0.68127 0.00000
0.00000 0.67947 0.00000
0.00000 0.67768 0.00000
0.00088 0.67588 0.00000
0.04128 0.67409 0.00000
0.08167 0.67230 0.00000
0.12207 0.67050 0.00000
0.16246 0.66871 0.00000
0.20285 0.66692 0.00000
0.24325 0.66512 0.00000
0.28364 0.66333 0.00000
0.32403 0.66153 0.00000
0.36443 0.65974 0.00000
0.40482 0.65795 0.00000
0.44522 0.65615 0.00000
0.48561 0.65436 0.00000
0.52600 0.65257 0.00000
0.56640 0.65077 0.00000
0.60679 0.64898 0.00000
0.64718 0.64718 0.00000
0.68758 0.64539 0.00000
0.72797 0.64360 0.00000
0.76836 0.64180 0.00000
0.80876 0.64001 0.00000
0.84915 0.63821 0.00000
0.88955 0.63642 0.00000
0.92994 0.63463 0.00000
0.97033 0.63283 0.00000
1.00000 0.63104 0.00000
1.00000 0.62925 0.00000
1.00000 0.62745 0.00000
1.00000 0.62566 0.00000
0.00000 0.71921 0.00000
0.00000 0.71742 0.00000
0.00000 0.71563 0.00000
0.00000 0.71383 0.00000
0.00000 0.71204 0.00000
0.03524 0.71024 0.00000
0.07564 0.70845 0.00000
0.11603 0.70666 0.00000
0.15642 0.70486 0.00000
0.19682 0.70307 0.00000
0.23721 0.70127 0.00000
0.27761 0.69948 0.00000
0.31800 0.69769 0.00000
0.35839 0.69589 0.00000
0.39879 0.69410 0.00000
0.43918 0.69231 0.00000
0.47957 0.69051 0.00000
0.51997 0.68872 0.00000
0.56036 0.68692 0.00000
0.60076 0.68513 0.00000
0.64115 0.68334 0.00000
0.68154 0.68154 0.00000
0.72194 0.67975 0.00000
0.76233 0.67796 0.00000
0.80272 0.67616 0.00000
0.84312 0.67437 0.00000
0.88351 0.67257 0.00000
0.92391 0.67078 0.00000
0.96430 0.66899 0.00000
1.00000 0.66719 0.00000
1.00000 0.66540 0.00000
1.00000 0.66360 0.00000
1.00000 0.66181 0.00000
0.00000 0.75537 0.00000
0.00000 0.75357 0.00000
0.00000 0.75178 0.00000
0.00000 0.74998 0.00000
0.00000 0.74819 0.00000
0.02921 0.74640 0.00000
0.06960 0.74460 0.00000
0.11000 0.74281 0.00000
0.15039 0.74102 0.00000
0.19078 0.73922 0.00000
0.23118 0.73743 0.00000
0.27157 0.73563 0.00000
0.31197 0.73384 0.00000
0.35236 0.73205 0.00000
0.39275 0.73025 0.00000
0.43315 0.72846 0.00000
0.47354 0.72667 0.00000
0.51393 0.72487 0.00000
0.55433 0.72308 0.00000
0.59472 0.72128 0.00000
0.63511 0.71949 0.00000
0.67551 0.71770 0.00000
0.71590 0.71590 0.00000
0.75630 0.71411 0.00000
0.79669 0.71231 0.00000
0.83708 0.71052 0.00000
0.87748 0.70873 0.00000
0.91787 0.70693 0.00000
0.95826 0.70514 0.00000
0.99866 0.70335 0.00000
1.00000 0.70155 0.00000
1.00000 0.69976 0.00000
1.00000 0.69796 0.00000
0.00000 0.79152 0.00000
0.00000 0.78973 0.00000
0.00000 0.78793 0.00000
0.00000 0.78614 0.00000
0.00000 0.78434 0.00000
0.02317 0.78255 0.00000
0.06357 0.78076 0.00000
0.10396 0.77896 0.00000
0.14436 0.77717 0.00000
0.18475 0.77537 0.00000
0.22514 0.77358 0.00000
0.26554 0.77179 0.00000
0.30593 0.76999 0.00000
0.34632 0.76820 0.00000
0.38672 0.76641 0.00000
0.42711 0.76461 0.00000
0.46751 0.76282 0.00000
0.50790 0.76102 0.00000
0.54829 0.75923 0.00000
0.58869 0.75744 0.00000
0.62908 0.75564 0.00000
0.66947 0.75385 0.00000
0.70987 0.75206 0.00000
0.75026 0.75026 0.00000
0.79066 0.74847 0.00000
0.83105 0.74667 0.00000
0.87144 0.74488 0.00000
0.91184 0.74309 0.00000
0.95223 0.74129 0.00000
0.99262 0.73950 0.00000
1.00000 0.73770 0.00000
1.00000 0.73591 0.00000
1.00000 0.73412 0.00000
0.00000 0.82767 0.00000
0.00000 0.82588 0.00000
0.00000 0.82408 0.00000
0.00000 0.82229 0.00000
0.00000 0.82050 0.00000
0.01714 0.81870 0.00000
0.05753 0.81691 0.00000
0.09793 0.81512 0.00000
0.13832 0.81332 0.00000
0.17872 0.81153 0.00000
0.21911 0.80973 0.00000
0.25950 0.80794 0.00000
0.29990 0.80615 0.00000
0.34029 0.80435 0.00000
0.38068 0.80256 0.00000
0.42108 0.80076 0.00000
0.46147 0.79897 0.00000
0.50186 0.79718 0.00000
0.54226 0.79538 0.00000
0.58265 0.79359 0.00000
0.62305 0.79180 0.00000
0.66344 0.79000 0.00000
0.70383 0.78821 0.00000
0.74423 0.78641 0.00000
0.78462 0.78462 0.00000
0.82501 0.78283 0.00000
0.86541 0.78103 0.00000
0.90580 0.77924 0.00000
0.94620 0.77745 0.00000
0.98659 0.77565 0.00000
1.00000 0.77386 0.00000
1.00000 0.77206 0.00000
1.00000 0.77027 0.00000
0.00000 0.86383 0.00000
0.00000 0.86203 0.00000
0.00000 0.86024 0.00000
0.00000 0.85844 0.00000
0.00000 0.85665 0.00000
0.01111 0.85486 0.00000
0.05150 0.85306 0.00000
0.09189 0.85127 0.00000
0.13229 0.84947 0.00000
0.17268 0.84768 0.00000
0.21307 0.84589 0.00000
0.25347 0.84409 0.00000
0.29386 0.84230 0.00000
0.33426 0.84051 0.00000
0.37465 0.83871 0.00000
0.41504 0.83692 0.00000
0.45544 0.83512 0.00000
0.49583 0.83333 0.00000
0.53622 0.83154 0.00000
0.57662 0.82974 0.00000
0.61701 0.82795 0.00000
0.65740 0.82615 0.00000
0.69780 0.82436 0.00000
0.73819 0.82257 0.00000
0.77859 0.82077 0.00000
0.81898 0.81898 0.00000
0.85937 0.81719 0.00000
0.89977 0.81539 0.00000
0.94016 0.81360 0.00000
0.98055 0.81180 0.00000
1.00000 0.81001 0.00000
1.00000 0.80822 0.00000
1.00000 0.80642 0.00000
0.00000 0.89998 0.00000
0.00000 0.89818 0.00000
0.00000 0.89639 0.00000
0.00000 0.89460 0.00000
0.00000 0.89280 0.00000
0.00507 0.89101 0.00000
0.04547 0.88922 0.00000
0.08586 0.88742 0.00000
0.12625 0.88563 0.00000
0.16665 0.88383 0.00000
0.20704 0.88204 0.00000
0.24743 0.88025 0.00000
0.28783 0.87845 0.00000
0.32822 0.87666 0.00000
0.36861 0.87486 0.00000
0.40901 0.87307 0.00000
0.44940 0.87128 0.00000
0.48980 0.86948 0.00000
0.53019 0.86769 0.00000
0.57058 0.86590 0.00000
0.61098 0.86410 0.00000
0.65137 0.86231 0.00000
0.69176 0.86051 0.00000
0.73216 0.85872 0.00000
0.77255 0.85693 0.00000
0.81295 0.85513 0.00000
0.85334 0.85334 0.00000
0.89373 0.85155 0.00000
0.93413 0.84975 0.00000
0.97452 0.84796 0.00000
1.00000 0.84616 0.00000
1.00000 0.84437 0.00000
1.00000 0.84258 0.00000
0.00000 0.93613 0.00000
0.00000 0.93434 0.00000
0.00000 0.93254 0.00000
0.00000 0.93075 0.00000
0.00000 0.92896 0.00000
0.00000 0.92716 0.00000
0.03943 0.92537 0.00000
0.07982 0.92357 0.00000
0.12022 0.92178 0.00000
