assets/lut/Warm-Gold.cube
TITLE "Warm-Gold.cube"
LUT_3D_SIZE 33
0.040000 0.020000 0.000000
0.040748 0.020727 0.011084
0.041496 0.021454 0.032169
0.042244 0.022180 0.053253
0.042993 0.022907 0.074337
0.043741 0.023634 0.095421
0.044489 0.024361 0.116506
0.045237 0.025087 0.137590
0.045985 0.025814 0.158674
0.046733 0.026541 0.179758
0.047481 0.027268 0.200842
0.048229 0.027994 0.221927
0.048978 0.028721 0.243011
0.049726 0.029448 0.264095
0.050474 0.030174 0.285180
0.051222 0.030901 0.306264
0.051970 0.031628 0.327348
0.052718 0.032355 0.348432
0.053466 0.033081 0.369516
0.054214 0.033808 0.390601
0.054963 0.034535 0.411685
0.055711 0.035262 0.432769
0.056459 0.035989 0.453854
0.057207 0.036715 0.474938
0.057955 0.037442 0.496022
0.058703 0.038169 0.517106
0.059451 0.038895 0.538191
0.060199 0.039622 0.559275
0.060948 0.040349 0.580359
0.061696 0.041076 0.601443
0.062444 0.041803 0.622528
0.063192 0.042529 0.643612
0.063940 0.043256 0.664696
0.043852 0.049242 0.000000
0.044600 0.049969 0.014093
0.045348 0.050696 0.035177
0.046097 0.051422 0.056261
0.046845 0.052149 0.077345
0.047593 0.052876 0.098430
0.048341 0.053603 0.119514
0.049089 0.054329 0.140598
0.049837 0.055056 0.161682
0.050585 0.055783 0.182767
0.051333 0.056510 0.203851
0.052082 0.057236 0.224935
0.052830 0.057963 0.246019
0.053578 0.058690 0.267104
0.054326 0.059417 0.288188
0.055074 0.060143 0.309272
0.055822 0.060870 0.330356
0.056570 0.061597 0.351441
0.057318 0.062324 0.372525
0.058067 0.063050 0.393609
0.058815 0.063777 0.414693
0.059563 0.064504 0.435778
0.060311 0.065231 0.456862
0.061059 0.065957 0.477946
0.061807 0.066684 0.499030
0.062555 0.067411 0.520115
0.063303 0.068138 0.541199
0.064052 0.068864 0.562283
0.064800 0.069591 0.583367
0.065548 0.070318 0.604452
0.066296 0.071045 0.625536
0.067044 0.071771 0.646620
0.067792 0.072498 0.667704
0.047704 0.078484 0.000000
0.048453 0.079211 0.017101
0.049201 0.079938 0.038185
0.049949 0.080665 0.059269
0.050697 0.081391 0.080354
0.051445 0.082118 0.101438
0.052193 0.082845 0.122522
0.052941 0.083572 0.143606
0.053689 0.084298 0.164691
0.054437 0.085025 0.185775
0.055186 0.085752 0.206859
0.055934 0.086479 0.227943
0.056682 0.087205 0.249028
0.057430 0.087932 0.270112
0.058178 0.088659 0.291196
0.058926 0.089386 0.312280
0.059674 0.090112 0.333365
0.060423 0.090839 0.354449
0.061171 0.091566 0.375533
0.061919 0.092293 0.396617
0.062667 0.093019 0.417702
0.063415 0.093746 0.438786
0.064163 0.094473 0.459870
0.064911 0.095200 0.480955
0.065659 0.095926 0.502039
0.066408 0.096653 0.523123
0.067156 0.097380 0.544207
0.067904 0.098107 0.565292
0.068652 0.098833 0.586376
0.069400 0.099560 0.607460
0.070148 0.100287 0.628544
0.070896 0.101014 0.649629
0.071644 0.101740 0.670713
0.051557 0.107726 0.000000
0.052305 0.108453 0.020109
0.053053 0.109180 0.041194
0.053801 0.109907 0.062278
0.054549 0.110633 0.083362
0.055297 0.111360 0.104446
0.056045 0.112087 0.125531
0.056793 0.112814 0.146615
0.057542 0.113540 0.167699
0.058290 0.114267 0.188783
0.059038 0.114994 0.209868
0.059786 0.115721 0.230952
0.060534 0.116447 0.252036
0.061282 0.117174 0.273120
0.062030 0.117901 0.294205
0.062778 0.118628 0.315289
0.063527 0.119354 0.336373
0.064275 0.120081 0.357457
0.065023 0.120808 0.378542
0.065771 0.121535 0.399626
0.066519 0.122261 0.420710
0.067267 0.122988 0.441794
0.068015 0.123715 0.462879
0.068763 0.124442 0.483963
0.069512 0.125168 0.505047
0.070260 0.125895 0.526131
0.071008 0.126622 0.547216
0.071756 0.127349 0.568300
0.072504 0.128075 0.589384
0.073252 0.128802 0.610468
0.074000 0.129529 0.631553
0.074748 0.130256 0.652637
0.075497 0.130982 0.673721
0.055409 0.136968 0.002033
0.056157 0.137695 0.023118
0.056905 0.138422 0.044202
0.057653 0.139149 0.065286
0.058401 0.139876 0.086371
0.059149 0.140602 0.107455
0.059898 0.141329 0.128539
0.060646 0.142056 0.149623
0.061394 0.142783 0.170707
0.062142 0.143509 0.191792
0.062890 0.144236 0.212876
0.063638 0.144963 0.233960
0.064386 0.145689 0.255045
0.065134 0.146416 0.276129
0.065883 0.147143 0.297213
0.066631 0.147870 0.318297
0.067379 0.148596 0.339382
0.068127 0.149323 0.360466
0.068875 0.150050 0.381550
0.069623 0.150777 0.402634
0.070371 0.151504 0.423718
0.071119 0.152230 0.444803
0.071868 0.152957 0.465887
0.072616 0.153684 0.486971
0.073364 0.154411 0.508055
0.074112 0.155137 0.529140
0.074860 0.155864 0.550224
0.075608 0.156591 0.571308
0.076356 0.157317 0.592392
0.077104 0.158044 0.613477
0.077852 0.158771 0.634561
0.078601 0.159498 0.655645
0.079349 0.160225 0.676729
0.059261 0.166211 0.005042
0.060009 0.166937 0.026126
0.060757 0.167664 0.047210
0.061505 0.168391 0.068295
0.062253 0.169118 0.089379
0.063002 0.169844 0.110463
0.063750 0.170571 0.131547
0.064498 0.171298 0.152632
0.065246 0.172025 0.173716
0.065994 0.172751 0.194800
0.066742 0.173478 0.215884
0.067490 0.174205 0.236969
0.068238 0.174932 0.258053
0.068987 0.175658 0.279137
0.069735 0.176385 0.300221
0.070483 0.177112 0.321306
0.071231 0.177839 0.342390
0.071979 0.178565 0.363474
0.072727 0.179292 0.384558
0.073475 0.180019 0.405643
0.074223 0.180746 0.426727
0.074972 0.181472 0.447811
0.075720 0.182199 0.468895
0.076468 0.182926 0.489980
0.077216 0.183653 0.511064
0.077964 0.184379 0.532148
0.078712 0.185106 0.553232
0.079460 0.185833 0.574317
0.080208 0.186560 0.595401
0.080957 0.187286 0.616485
0.081705 0.188013 0.637569
0.082453 0.188740 0.658654
0.083201 0.189467 0.679738
0.063113 0.195453 0.008050
0.063861 0.196180 0.029135
0.064609 0.196906 0.050219
0.065357 0.197633 0.071303
0.066106 0.198360 0.092387
0.066854 0.199087 0.113472
0.067602 0.199813 0.134556
0.068350 0.200540 0.155640
0.069098 0.201267 0.176724
0.069846 0.201994 0.197808
0.070594 0.202720 0.218893
0.071343 0.203447 0.239977
0.072091 0.204174 0.261061
0.072839 0.204901 0.282145
0.073587 0.205627 0.303230
0.074335 0.206354 0.324314
0.075083 0.207081 0.345398
0.075831 0.207808 0.366483
0.076579 0.208534 0.387567
0.077327 0.209261 0.408651
0.078076 0.209988 0.429735
0.078824 0.210715 0.450819
0.079572 0.211441 0.471904
0.080320 0.212168 0.492988
0.081068 0.212895 0.514072
0.081816 0.213622 0.535156
0.082564 0.214348 0.556241
0.083313 0.215075 0.577325
0.084061 0.215802 0.598409
0.084809 0.216529 0.619494
0.085557 0.217255 0.640578
0.086305 0.217982 0.661662
0.087053 0.218709 0.682746
0.066965 0.224695 0.011059
0.067713 0.225422 0.032143
0.068462 0.226148 0.053227
0.069210 0.226875 0.074311
0.069958 0.227602 0.095396
0.070706 0.228329 0.116480
0.071454 0.229055 0.137564
0.072202 0.229782 0.158648
0.072950 0.230509 0.179733
0.073698 0.231236 0.200817
0.074447 0.231962 0.221901
0.075195 0.232689 0.242985
0.075943 0.233416 0.264070
0.076691 0.234143 0.285154
0.077439 0.234869 0.306238
0.078187 0.235596 0.327322
0.078935 0.236323 0.348407
0.079683 0.237050 0.369491
0.080432 0.237776 0.390575
0.081180 0.238503 0.411659
0.081928 0.239230 0.432744
0.082676 0.239957 0.453828
0.083424 0.240683 0.474912
0.084172 0.241410 0.495996
0.084920 0.242137 0.517081
0.085668 0.242864 0.538165
0.086417 0.243590 0.559249
0.087165 0.244317 0.580333
0.087913 0.245044 0.601418
0.088661 0.245771 0.622502
0.089409 0.246497 0.643586
0.090157 0.247224 0.664670
0.090905 0.247951 0.685755
0.070818 0.253937 0.014067
0.071566 0.254664 0.035151
0.072314 0.255391 0.056235
0.073062 0.256117 0.077320
0.073810 0.256844 0.098404
0.074558 0.257571 0.119488
0.075306 0.258298 0.140573
0.076054 0.259024 0.161657
0.076802 0.259751 0.182741
0.077551 0.260478 0.203825
0.078299 0.261205 0.224909
0.079047 0.261931 0.245994
0.079795 0.262658 0.267078
0.080543 0.263385 0.288162
0.081291 0.264111 0.309246
0.082039 0.264838 0.330331
0.082788 0.265565 0.351415
0.083536 0.266292 0.372499
0.084284 0.267018 0.393583
0.085032 0.267745 0.414668
0.085780 0.268472 0.435752
0.086528 0.269199 0.456836
0.087276 0.269926 0.477920
0.088024 0.270652 0.499005
0.088773 0.271379 0.520089
0.089521 0.272106 0.541173
0.090269 0.272833 0.562257
0.091017 0.273559 0.583342
0.091765 0.274286 0.604426
0.092513 0.275013 0.625510
0.093261 0.275740 0.646594
0.094009 0.276466 0.667679
0.094758 0.277193 0.688763
0.074670 0.283179 0.017075
0.075418 0.283906 0.038160
0.076166 0.284633 0.059244
0.076914 0.285359 0.080328
0.077662 0.286086 0.101412
0.078410 0.286813 0.122497
0.079158 0.287540 0.143581
0.079907 0.288266 0.164665
0.080655 0.288993 0.185749
0.081403 0.289720 0.206834
0.082151 0.290447 0.227918
0.082899 0.291173 0.249002
0.083647 0.291900 0.270086
0.084395 0.292627 0.291171
0.085143 0.293354 0.312255
0.085892 0.294080 0.333339
0.086640 0.294807 0.354423
0.087388 0.295534 0.375508
0.088136 0.296261 0.396592
0.088884 0.296987 0.417676
0.089632 0.297714 0.438760
0.090380 0.298441 0.459845
0.091128 0.299168 0.480929
0.091877 0.299894 0.502013
0.092625 0.300621 0.523097
0.093373 0.301348 0.544182
0.094121 0.302075 0.565266
0.094869 0.302801 0.586350
0.095617 0.303528 0.607434
0.096365 0.304255 0.628519
0.097113 0.304982 0.649603
0.097862 0.305708 0.670687
0.098610 0.306435 0.691771
0.078522 0.312421 0.020084
0.079270 0.313148 0.041168
0.080018 0.313875 0.062252
0.080766 0.314602 0.083337
0.081514 0.315328 0.104421
0.082263 0.316055 0.125505
0.083011 0.316782 0.146589
0.083759 0.317509 0.167673
0.084507 0.318235 0.188758
0.085255 0.318962 0.209842
0.086003 0.319689 0.230926
0.086751 0.320416 0.252010
0.087499 0.321142 0.273095
0.088248 0.321869 0.294179
0.088996 0.322596 0.315263
0.089744 0.323323 0.336347
0.090492 0.324049 0.357432
0.091240 0.324776 0.378516
0.091988 0.325503 0.399600
0.092736 0.326230 0.420685
0.093484 0.326956 0.441769
0.094232 0.327683 0.462853
0.094981 0.328410 0.483937
0.095729 0.329136 0.505022
0.096477 0.329863 0.526106
0.097225 0.330590 0.547190
0.097973 0.331317 0.568274
0.098721 0.332044 0.589359
0.099469 0.332770 0.610443
0.100217 0.333497 0.631527
0.100966 0.334224 0.652611
0.101714 0.334951 0.673696
0.102462 0.335677 0.694780
0.082374 0.341663 0.023092
0.083122 0.342390 0.044176
0.083870 0.343117 0.065261
0.084618 0.343844 0.086345
0.085367 0.344570 0.107429
0.086115 0.345297 0.128513
0.086863 0.346024 0.149598
0.087611 0.346751 0.170682
0.088359 0.347477 0.191766
0.089107 0.348204 0.212850
0.089855 0.348931 0.233935
0.090603 0.349658 0.255019
0.091352 0.350384 0.276103
0.092100 0.351111 0.297187
0.092848 0.351838 0.318272
0.093596 0.352565 0.339356
0.094344 0.353291 0.360440
0.095092 0.354018 0.381524
0.095840 0.354745 0.402609
0.096588 0.355472 0.423693
0.097337 0.356198 0.444777
0.098085 0.356925 0.465861
0.098833 0.357652 0.486946
0.099581 0.358379 0.508030
0.100329 0.359105 0.529114
0.101077 0.359832 0.550198
0.101825 0.360559 0.571283
0.102573 0.361286 0.592367
0.103322 0.362012 0.613451
0.104070 0.362739 0.634535
0.104818 0.363466 0.655620
0.105566 0.364193 0.676704
0.106314 0.364919 0.697788
0.086226 0.370906 0.026100
0.086974 0.371632 0.047185
0.087723 0.372359 0.068269
0.088471 0.373086 0.089353
0.089219 0.373813 0.110438
0.089967 0.374539 0.131522
0.090715 0.375266 0.152606
0.091463 0.375993 0.173690
0.092211 0.376720 0.194774
0.092959 0.377446 0.215859
0.093707 0.378173 0.236943
0.094456 0.378900 0.258027
0.095204 0.379627 0.279112
0.095952 0.380353 0.300196
0.096700 0.381080 0.321280
0.097448 0.381807 0.342364
0.098196 0.382534 0.363449
0.098944 0.383260 0.384533
0.099693 0.383987 0.405617
0.100441 0.384714 0.426701
0.101189 0.385441 0.447785
0.101937 0.386167 0.468870
0.102685 0.386894 0.489954
0.103433 0.387621 0.511038
0.104181 0.388348 0.532123
0.104929 0.389074 0.553207
0.105678 0.389801 0.574291
0.106426 0.390528 0.595375
0.107174 0.391255 0.616460
0.107922 0.391981 0.637544
0.108670 0.392708 0.658628
0.109418 0.393435 0.679712
0.110166 0.394162 0.700797
0.090078 0.400148 0.029109
0.090827 0.400874 0.050193
0.091575 0.401601 0.071277
0.092323 0.402328 0.092362
0.093071 0.403055 0.113446
0.093819 0.403781 0.134530
0.094567 0.404508 0.155614
0.095315 0.405235 0.176699
0.096063 0.405962 0.197783
0.096812 0.406688 0.218867
0.097560 0.407415 0.239951
0.098308 0.408142 0.261036
0.099056 0.408869 0.282120
0.099804 0.409595 0.303204
0.100552 0.410322 0.324288
0.101300 0.411049 0.345373
0.102048 0.411776 0.366457
0.102797 0.412502 0.387541
0.103545 0.413229 0.408625
0.104293 0.413956 0.429710
0.105041 0.414683 0.450794
0.105789 0.415409 0.471878
0.106537 0.416136 0.492962
0.107285 0.416863 0.514047
0.108033 0.417590 0.535131
0.108782 0.418316 0.556215
0.109530 0.419043 0.577299
0.110278 0.419770 0.598384
0.111026 0.420497 0.619468
0.111774 0.421223 0.640552
0.112522 0.421950 0.661636
0.113270 0.422677 0.682721
0.114018 0.423404 0.703805
0.093931 0.429390 0.032117
0.094679 0.430117 0.053201
0.095427 0.430843 0.074286
0.096175 0.431570 0.095370
0.096923 0.432297 0.116454
0.097671 0.433024 0.137538
0.098419 0.433750 0.158623
0.099168 0.434477 0.179707
0.099916 0.435204 0.200791
0.100664 0.435931 0.221875
0.101412 0.436657 0.242960
0.102160 0.437384 0.264044
0.102908 0.438111 0.285128
0.103656 0.438838 0.306212
0.104404 0.439564 0.327297
0.105153 0.440291 0.348381
0.105901 0.441018 0.369465
0.106649 0.441745 0.390549
0.107397 0.442471 0.411634
0.108145 0.443198 0.432718
0.108893 0.443925 0.453802
0.109641 0.444652 0.474886
0.110389 0.445378 0.495971
0.111138 0.446105 0.517055
0.111886 0.446832 0.538139
0.112634 0.447559 0.559223
0.113382 0.448285 0.580308
0.114130 0.449012 0.601392
0.114878 0.449739 0.622476
0.115626 0.450466 0.643560
0.116374 0.451192 0.664645
0.117123 0.451919 0.685729
0.117871 0.452646 0.706813
0.097783 0.458632 0.035126
0.098531 0.459359 0.056210
0.099279 0.460085 0.077294
0.100027 0.460812 0.098378
0.100775 0.461539 0.119463
0.101523 0.462266 0.140547
0.102272 0.462992 0.161631
0.103020 0.463719 0.182715
0.103768 0.464446 0.203800
0.104516 0.465173 0.224884
0.105264 0.465899 0.245968
0.106012 0.466626 0.267052
0.106760 0.467353 0.288137
0.107508 0.468080 0.309221
0.108257 0.468806 0.330305
0.109005 0.469533 0.351389
0.109753 0.470260 0.372474
0.110501 0.470987 0.393558
0.111249 0.471713 0.414642
0.111997 0.472440 0.435726
0.112745 0.473167 0.456811
0.113493 0.473894 0.477895
0.114242 0.474620 0.498979
0.114990 0.475347 0.520063
0.115738 0.476074 0.541148
0.116486 0.476801 0.562232
0.117234 0.477527 0.583316
0.117982 0.478254 0.604400
0.118730 0.478981 0.625485
0.119478 0.479708 0.646569
0.120227 0.480434 0.667653
0.120975 0.481161 0.688737
0.121723 0.481888 0.709822
0.101635 0.487874 0.038134
0.102383 0.488601 0.059218
0.103131 0.489328 0.080302
0.103879 0.490054 0.101387
0.104627 0.490781 0.122471
0.105376 0.491508 0.143555
0.106124 0.492235 0.164639
0.106872 0.492961 0.185724
0.107620 0.493688 0.206808
0.108368 0.494415 0.227892
0.109116 0.495142 0.248976
0.109864 0.495868 0.270061
0.110613 0.496595 0.291145
0.111361 0.497322 0.312229
0.112109 0.498049 0.333313
0.112857 0.498775 0.354398
0.113605 0.499502 0.375482
0.114353 0.500229 0.396566
0.115101 0.500955 0.417650
0.115849 0.501682 0.438735
0.116597 0.502409 0.459819
0.117346 0.503136 0.480903
0.118094 0.503862 0.501987
0.118842 0.504589 0.523072
0.119590 0.505316 0.544156
0.120338 0.506043 0.565240
0.121086 0.506769 0.586324
0.121834 0.507496 0.607409
0.122583 0.508223 0.628493
0.123331 0.508950 0.649577
0.124079 0.509676 0.670661
0.124827 0.510403 0.691746
0.125575 0.511130 0.712830
0.105487 0.517116 0.041142
0.106235 0.517843 0.062227
0.106983 0.518570 0.083311
0.107732 0.519296 0.104395
0.108480 0.520023 0.125479
0.109228 0.520750 0.146564
0.109976 0.521477 0.167648
0.110724 0.522203 0.188732
0.111472 0.522930 0.209816
0.112220 0.523657 0.230901
0.112968 0.524384 0.251985
0.113717 0.525110 0.273069
0.114465 0.525837 0.294153
0.115213 0.526564 0.315238
0.115961 0.527291 0.336322
0.116709 0.528017 0.357406
0.117457 0.528744 0.378490
0.118205 0.529471 0.399575
0.118953 0.530198 0.420659
0.119702 0.530924 0.441743
0.120450 0.531651 0.462827
0.121198 0.532378 0.483912
0.121946 0.533105 0.504996
0.122694 0.533831 0.526080
0.123442 0.534558 0.547164
0.124190 0.535285 0.568249
0.124938 0.536012 0.589333
0.125687 0.536738 0.610417
0.126435 0.537465 0.631501
0.127183 0.538192 0.652586
0.127931 0.538919 0.673670
0.128679 0.539645 0.694754
0.129427 0.540372 0.715838
0.109339 0.546358 0.044151
0.110088 0.547085 0.065235
0.110836 0.547812 0.086319
0.111584 0.548539 0.107403
0.112332 0.549265 0.128488
0.113080 0.549992 0.149572
0.113828 0.550719 0.170656
0.114576 0.551446 0.191740
0.115324 0.552172 0.212825
0.116072 0.552899 0.233909
0.116821 0.553626 0.254993
0.117569 0.554353 0.276078
0.118317 0.555079 0.297162
0.119065 0.555806 0.318246
0.119813 0.556533 0.339330
0.120561 0.557260 0.360414
0.121309 0.557986 0.381499
0.122058 0.558713 0.402583
0.122806 0.559440 0.423667
0.123554 0.560167 0.444752
0.124302 0.560893 0.465836
0.125050 0.561620 0.486920
0.125798 0.562347 0.508004
0.126546 0.563074 0.529088
0.127294 0.563800 0.550173
0.128043 0.564527 0.571257
0.128791 0.565254 0.592341
0.129539 0.565980 0.613425
0.130287 0.566707 0.634510
0.131035 0.567434 0.655594
0.131783 0.568161 0.676678
0.132531 0.568887 0.697762
0.133279 0.569614 0.718847
0.113192 0.575600 0.047159
0.113940 0.576327 0.068243
0.114688 0.577054 0.089328
0.115436 0.577781 0.110412
0.116184 0.578507 0.131496
0.116932 0.579234 0.152580
0.117680 0.579961 0.173665
0.118428 0.580688 0.194749
0.119177 0.581414 0.215833
0.119925 0.582141 0.236917
0.120673 0.582868 0.258002
0.121421 0.583595 0.279086
0.122169 0.584321 0.300170
0.122917 0.585048 0.321254
0.123665 0.585775 0.342339
0.124413 0.586502 0.363423
0.125162 0.587228 0.384507
0.125910 0.587955 0.405591
0.126658 0.588682 0.426676
0.127406 0.589409 0.447760
0.128154 0.590135 0.468844
0.128902 0.590862 0.489928
0.129650 0.591589 0.511013
0.130398 0.592316 0.532097
0.131147 0.593042 0.553181
0.131895 0.593769 0.574265
0.132643 0.594496 0.595350
0.133391 0.595223 0.616434
0.134139 0.595949 0.637518
0.134887 0.596676 0.658602
0.135635 0.597403 0.679687
0.136383 0.598130 0.700771
0.137132 0.598856 0.721855
0.117044 0.604842 0.050167
0.117792 0.605569 0.071252
0.118540 0.606296 0.092336
0.119288 0.607023 0.113420
0.120036 0.607750 0.134504
0.120784 0.608476 0.155589
0.121532 0.609203 0.176673
0.122281 0.609930 0.197757
0.123029 0.610657 0.218841
0.123777 0.611383 0.239926
0.124525 0.612110 0.261010
0.125273 0.612837 0.282094
0.126021 0.613564 0.303179
0.126769 0.614290 0.324263
0.127518 0.615017 0.345347
0.128266 0.615744 0.366431
0.129014 0.616471 0.387515
0.129762 0.617197 0.408600
0.130510 0.617924 0.429684
0.131258 0.618651 0.450768
0.132006 0.619378 0.471853
0.132754 0.620104 0.492937
0.133502 0.620831 0.514021
0.134251 0.621558 0.535105
0.134999 0.622285 0.556190
0.135747 0.623011 0.577274
0.136495 0.623738 0.598358
0.137243 0.624465 0.619442
0.137991 0.625192 0.640526
0.138739 0.625918 0.661611
0.139488 0.626645 0.682695
0.140236 0.627372 0.703779
0.140984 0.628099 0.724863
0.120896 0.634085 0.053176
0.121644 0.634811 0.074260
0.122392 0.635538 0.095344
0.123140 0.636265 0.116429
0.123888 0.636992 0.137513
0.124637 0.637718 0.158597
0.125385 0.638445 0.179681
0.126133 0.639172 0.200766
0.126881 0.639899 0.221850
0.127629 0.640625 0.242934
0.128377 0.641352 0.264018
0.129125 0.642079 0.285103
0.129873 0.642806 0.306187
0.130622 0.643532 0.327271
0.131370 0.644259 0.348355
0.132118 0.644986 0.369440
0.132866 0.645713 0.390524
0.133614 0.646439 0.411608
0.134362 0.647166 0.432692
0.135110 0.647893 0.453777
0.135858 0.648620 0.474861
0.136607 0.649346 0.495945
0.137355 0.650073 0.517029
0.138103 0.650800 0.538114
0.138851 0.651527 0.559198
0.139599 0.652253 0.580282
0.140347 0.652980 0.601366
0.141095 0.653707 0.622451
0.141843 0.654434 0.643535
0.142592 0.655160 0.664619
0.143340 0.655887 0.685703
0.144088 0.656614 0.706788
0.144836 0.657341 0.727872
0.124748 0.663327 0.056184
0.125496 0.664054 0.077269
0.126244 0.664780 0.098353
0.126993 0.665507 0.119437
0.127741 0.666234 0.140521
0.128489 0.666961 0.161605
0.129237 0.667687 0.182690
0.129985 0.668414 0.203774
0.130733 0.669141 0.224858
0.131481 0.669868 0.245942
0.132229 0.670594 0.267027
0.132977 0.671321 0.288111
0.133726 0.672048 0.309195
0.134474 0.672775 0.330279
0.135222 0.673501 0.351364
0.135970 0.674228 0.372448
0.136718 0.674955 0.393532
0.137466 0.675682 0.414617
0.138214 0.676408 0.435701
0.138963 0.677135 0.456785
0.139711 0.677862 0.477869
0.140459 0.678589 0.498954
0.141207 0.679315 0.520038
0.141955 0.680042 0.541122
0.142703 0.680769 0.562206
0.143451 0.681496 0.583290
0.144199 0.682222 0.604375
0.144948 0.682949 0.625459
0.145696 0.683676 0.646543
0.146444 0.684403 0.667628
0.147192 0.685129 0.688712
0.147940 0.685856 0.709796
0.148688 0.686583 0.730880
0.128600 0.692569 0.059193
0.129348 0.693296 0.080277
0.130097 0.694022 0.101361
0.130845 0.694749 0.122445
0.131593 0.695476 0.143530
0.132341 0.696203 0.164614
0.133089 0.696929 0.185698
0.133837 0.697656 0.206782
0.134585 0.698383 0.227867
0.135333 0.699110 0.248951
0.136082 0.699836 0.270035
0.136830 0.700563 0.291119
0.137578 0.701290 0.312204
0.138326 0.702017 0.333288
0.139074 0.702743 0.354372
0.139822 0.703470 0.375456
0.140570 0.704197 0.396541
0.141318 0.704924 0.417625
0.142067 0.705650 0.438709
0.142815 0.706377 0.459793
0.143563 0.707104 0.480878
0.144311 0.707831 0.501962
0.145059 0.708557 0.523046
0.145807 0.709284 0.544130
0.146555 0.710011 0.565215
0.147303 0.710738 0.586299
0.148052 0.711464 0.607383
0.148800 0.712191 0.628467
0.149548 0.712918 0.649552
0.150296 0.713645 0.670636
0.151044 0.714371 0.691720
0.151792 0.715098 0.712804
0.152540 0.715825 0.733889
0.132453 0.721811 0.062201
0.133201 0.722538 0.083285
0.133949 0.723265 0.104370
0.134697 0.723991 0.125454
0.135445 0.724718 0.146538
0.136193 0.725445 0.167622
0.136941 0.726172 0.188706
0.137689 0.726898 0.209791
0.138438 0.727625 0.230875
0.139186 0.728352 0.251959
0.139934 0.729079 0.273043
0.140682 0.729805 0.294128
0.141430 0.730532 0.315212
0.142178 0.731259 0.336296
0.142926 0.731986 0.357380
0.143674 0.732712 0.378465
0.144423 0.733439 0.399549
0.145171 0.734166 0.420633
0.145919 0.734893 0.441717
0.146667 0.735619 0.462802
0.147415 0.736346 0.483886
0.148163 0.737073 0.504970
0.148911 0.737800 0.526055
0.149659 0.738526 0.547139
0.150407 0.739253 0.568223
0.151156 0.739980 0.589307
0.151904 0.740707 0.610391
0.152652 0.741433 0.631476
0.153400 0.742160 0.652560
0.154148 0.742887 0.673644
0.154896 0.743614 0.694728
0.155644 0.744340 0.715813
0.156393 0.745067 0.736897
0.136305 0.751053 0.065209
0.137053 0.751780 0.086294
0.137801 0.752507 0.107378
0.138549 0.753233 0.128462
0.139297 0.753960 0.149546
0.140045 0.754687 0.170631
0.140793 0.755414 0.191715
0.141542 0.756140 0.212799
0.142290 0.756867 0.233883
0.143038 0.757594 0.254968
0.143786 0.758321 0.276052
0.144534 0.759047 0.297136
0.145282 0.759774 0.318220
0.146030 0.760501 0.339305
0.146778 0.761228 0.360389
0.147527 0.761954 0.381473
0.148275 0.762681 0.402557
0.149023 0.763408 0.423642
0.149771 0.764135 0.444726
0.150519 0.764861 0.465810
0.151267 0.765588 0.486894
0.152015 0.766315 0.507979
0.152763 0.767042 0.529063
0.153512 0.767768 0.550147
0.154260 0.768495 0.571231
0.155008 0.769222 0.592316
0.155756 0.769949 0.613400
0.156504 0.770675 0.634484
0.157252 0.771402 0.655568
0.158000 0.772129 0.676653
0.158748 0.772856 0.697737
0.159497 0.773582 0.718821
0.160245 0.774309 0.739905
0.140157 0.780295 0.068218
0.140905 0.781022 0.089302
0.141653 0.781749 0.110386
0.142401 0.782475 0.131470
0.143149 0.783202 0.152555
0.143898 0.783929 0.173639
0.144646 0.784656 0.194723
0.145394 0.785383 0.215808
0.146142 0.786109 0.236892
0.146890 0.786836 0.257976
0.147638 0.787563 0.279060
0.148386 0.788290 0.300144
0.149134 0.789016 0.321229
0.149883 0.789743 0.342313
0.150631 0.790470 0.363397
0.151379 0.791197 0.384481
0.152127 0.791923 0.405566
0.152875 0.792650 0.426650
0.153623 0.793377 0.447734
0.154371 0.794104 0.468818
0.155119 0.794830 0.489903
0.155868 0.795557 0.510987
0.156616 0.796284 0.532071
0.157364 0.797011 0.553156
0.158112 0.797737 0.574240
0.158860 0.798464 0.595324
0.159608 0.799191 0.616408
0.160356 0.799918 0.637493
0.161104 0.800644 0.658577
