assets/lut/Warm-Gold.cube
TITLE "Warm-Gold.cube"
LUT_3D_SIZE 9
0.040000 0.020000 0.000000
0.042993 0.022907 0.074337
0.045985 0.025814 0.158674
0.048978 0.028721 0.243011
0.051970 0.031628 0.327348
0.054963 0.034535 0.411685
0.057955 0.037442 0.496022
0.060948 0.040349 0.580359
0.063940 0.043256 0.664696
0.055409 0.136968 0.002033
0.058401 0.139876 0.086371
0.061394 0.142783 0.170707
0.064386 0.145689 0.255045
0.067379 0.148596 0.339382
0.070371 0.151504 0.423718
0.073364 0.154411 0.508055
0.076356 0.157317 0.592392
0.079349 0.160225 0.676729
0.070818 0.253937 0.014067
0.073810 0.256844 0.098404
0.076802 0.259751 0.182741
0.079795 0.262658 0.267078
0.082788 0.265565 0.351415
0.085780 0.268472 0.435752
0.088773 0.271379 0.520089
0.091765 0.274286 0.604426
0.094758 0.277193 0.688763
0.086226 0.370906 0.026100
0.089219 0.373813 0.110438
0.092211 0.376720 0.194774
0.095204 0.379627 0.279112
0.098196 0.382534 0.363449
0.101189 0.385441 0.447785
0.104181 0.388348 0.532123
0.107174 0.391255 0.616460
0.110166 0.394162 0.700797
0.101635 0.487874 0.038134
0.104627 0.490781 0.122471
0.107620 0.493688 0.206808
0.110613 0.496595 0.291145
0.113605 0.499502 0.375482
0.116597 0.502409 0.459819
0.119590 0.505316 0.544156
0.122583 0.508223 0.628493
0.125575 0.511130 0.712830
0.117044 0.604842 0.050167
0.120036 0.607750 0.134504
0.123029 0.610657 0.218841
0.126021 0.613564 0.303179
0.129014 0.616471 0.387515
0.132006 0.619378 0.471853
0.134999 0.622285 0.556190
0.137991 0.625192 0.640526
0.140984 0.628099 0.724863
0.132453 0.721811 0.062201
0.135445 0.724718 0.146538
0.138438 0.727625 0.230875
0.141430 0.730532 0.315212
0.144423 0.733439 0.399549
0.147415 0.736346 0.483886
0.150407 0.739253 0.568223
0.153400 0.742160 0.652560
0.156393 0.745067 0.736897
0.147861 0.838780 0.074235
0.150854 0.841687 0.158571
0.153846 0.844594 0.242908
0.156839 0.847501 0.327246
0.159831 0.850408 0.411583
0.162824 0.853315 0.495919
0.165816 0.856222 0.580257
0.168809 0.859129 0.664593
0.171801 0.862036 0.748930
0.163270 0.955748 0.086268
0.166263 0.958655 0.170605
0.169255 0.961562 0.254942
0.172247 0.964469 0.339279
0.175240 0.967376 0.423616
0.178233 0.970283 0.507953
0.181225 0.973190 0.592290
0.184218 0.976097 0.676627
0.187210 0.979004 0.760964
0.152849 0.027624 0.000000
0.155841 0.030532 0.080467
0.158834 0.033439 0.164803
0.161826 0.036346 0.249141
0.164819 0.039253 0.333477
0.167811 0.042160 0.417814
0.170804 0.045067 0.502152
0.173796 0.047974 0.586489
0.176789 0.050881 0.670826
0.168258 0.144593 0.008163
0.171250 0.147500 0.092500
0.174243 0.150407 0.176837
0.177235 0.153314 0.261174
0.180228 0.156221 0.345511
0.183220 0.159128 0.429848
0.186213 0.162035 0.514185
0.189205 0.164942 0.598522
0.192198 0.167849 0.682859
0.183666 0.261562 0.020196
0.186659 0.264469 0.104533
0.189651 0.267376 0.188870
0.192644 0.270283 0.273207
0.195636 0.273190 0.357544
0.198629 0.276097 0.441881
0.201621 0.279004 0.526219
0.204614 0.281911 0.610556
0.207606 0.284818 0.694893
0.199075 0.378530 0.032230
0.202068 0.381437 0.116567
0.205060 0.384344 0.200904
0.208053 0.387251 0.285241
0.211045 0.390158 0.369578
0.214038 0.393065 0.453915
0.217030 0.395972 0.538252
0.220023 0.398879 0.622589
0.223015 0.401786 0.706926
0.214484 0.495499 0.044263
0.217476 0.498406 0.128600
0.220469 0.501313 0.212938
0.223461 0.504220 0.297274
0.226454 0.507127 0.381611
0.229446 0.510034 0.465948
0.232439 0.512941 0.550285
0.235431 0.515848 0.634622
0.238424 0.518755 0.718959
0.229893 0.612467 0.056297
0.232885 0.615374 0.140634
0.235878 0.618281 0.224971
0.238870 0.621188 0.309308
0.241863 0.624095 0.393645
0.244855 0.627002 0.477982
0.247848 0.629909 0.562319
0.250840 0.632816 0.646656
0.253833 0.635723 0.730993
0.245301 0.729436 0.068331
0.248294 0.732343 0.152667
0.251286 0.735250 0.237005
0.254279 0.738157 0.321342
0.257271 0.741064 0.405678
0.260264 0.743971 0.490015
0.263256 0.746878 0.574353
0.266249 0.749785 0.658690
0.269241 0.752692 0.743027
0.260710 0.846404 0.080364
0.263703 0.849311 0.164701
0.266695 0.852218 0.249038
0.269688 0.855125 0.333375
0.272680 0.858032 0.417712
0.275673 0.860939 0.502049
0.278665 0.863846 0.586386
0.281658 0.866753 0.670723
0.284650 0.869660 0.755060
0.276119 0.963373 0.092398
0.279111 0.966280 0.176734
0.282104 0.969187 0.261071
0.285096 0.972094 0.345409
0.288089 0.975001 0.429746
0.291081 0.977908 0.514082
0.294074 0.980815 0.598419
0.297066 0.983722 0.682756
0.300059 0.986629 0.767093
0.265698 0.035249 0.002259
0.268690 0.038156 0.086596
0.271682 0.041063 0.170933
0.274675 0.043970 0.255270
0.277668 0.046877 0.339607
0.280660 0.049784 0.423944
0.283653 0.052691 0.508281
0.286645 0.055598 0.592618
0.289638 0.058505 0.676955
0.281106 0.152218 0.014293
0.284099 0.155124 0.098630
0.287091 0.158031 0.182966
0.290084 0.160939 0.267304
0.293076 0.163846 0.351640
0.296069 0.166752 0.435977
0.299061 0.169660 0.520315
0.302054 0.172567 0.604652
0.305046 0.175474 0.688988
0.296515 0.269186 0.026326
0.299507 0.272093 0.110663
0.302500 0.275000 0.195000
0.305493 0.277907 0.279337
0.308485 0.280814 0.363674
0.311478 0.283721 0.448011
0.314470 0.286628 0.532348
0.317462 0.289535 0.616685
0.320455 0.292442 0.701022
0.311924 0.386155 0.038359
0.314916 0.389062 0.122697
0.317909 0.391969 0.207033
0.320901 0.394876 0.291371
0.323894 0.397783 0.375708
0.326886 0.400690 0.460044
0.329879 0.403597 0.544382
0.332871 0.406504 0.628719
0.335864 0.409411 0.713056
0.327332 0.503123 0.050393
0.330325 0.506030 0.134730
0.333317 0.508937 0.219067
0.336310 0.511844 0.303404
0.339303 0.514751 0.387741
0.342295 0.517658 0.472078
0.345288 0.520565 0.556415
0.348280 0.523472 0.640752
0.351272 0.526379 0.725089
0.342741 0.620092 0.062426
0.345734 0.622999 0.146763
0.348726 0.625906 0.231100
0.351719 0.628813 0.315437
0.354711 0.631719 0.399774
0.357704 0.634626 0.484111
0.360696 0.637533 0.568449
0.363689 0.640441 0.652786
0.366681 0.643348 0.737123
0.358150 0.737060 0.074460
0.361142 0.739967 0.158797
0.364135 0.742874 0.243134
0.367127 0.745781 0.327471
0.370120 0.748688 0.411808
0.373113 0.751595 0.496145
0.376105 0.754502 0.580482
0.379098 0.757409 0.664819
0.382090 0.760316 0.749156
0.373559 0.854029 0.086494
0.376551 0.856936 0.170830
0.379544 0.859843 0.255167
0.382536 0.862750 0.339505
0.385529 0.865657 0.423842
0.388521 0.868564 0.508178
0.391514 0.871471 0.592515
0.394506 0.874378 0.676852
0.397499 0.877285 0.761189
0.388968 0.970997 0.098527
0.391960 0.973904 0.182864
0.394952 0.976811 0.267201
0.397945 0.979718 0.351538
0.400938 0.982625 0.435875
0.403930 0.985532 0.520212
0.406923 0.988439 0.604549
0.409915 0.991346 0.688886
0.412908 0.994253 0.773223
0.378546 0.042874 0.008388
0.381539 0.045781 0.092726
0.384531 0.048688 0.177063
0.387524 0.051595 0.261400
0.390516 0.054502 0.345737
0.393509 0.057409 0.430073
0.396501 0.060316 0.514411
0.399494 0.063223 0.598748
0.402486 0.066130 0.683084
0.393955 0.159842 0.020422
0.396948 0.162749 0.104759
0.399940 0.165656 0.189096
0.402933 0.168563 0.273433
0.405925 0.171470 0.357770
0.408918 0.174377 0.442107
0.411910 0.177284 0.526444
0.414903 0.180191 0.610781
0.417895 0.183098 0.695118
0.409364 0.276811 0.032455
0.412356 0.279718 0.116793
0.415349 0.282625 0.201129
0.418341 0.285532 0.285467
0.421334 0.288439 0.369803
0.424326 0.291346 0.454140
0.427319 0.294253 0.538478
0.430311 0.297160 0.622815
0.433304 0.300067 0.707151
0.424773 0.393779 0.044489
0.427765 0.396686 0.128826
0.430758 0.399593 0.213163
0.433750 0.402500 0.297500
0.436743 0.405407 0.381837
0.439735 0.408314 0.466174
0.442728 0.411221 0.550511
0.445720 0.414128 0.634848
0.448713 0.417035 0.719185
0.440181 0.510748 0.056522
0.443174 0.513655 0.140859
0.446166 0.516562 0.225196
0.449159 0.519468 0.309534
0.452151 0.522376 0.393871
0.455144 0.525282 0.478207
0.458136 0.528190 0.562545
0.461129 0.531097 0.646881
0.464121 0.534004 0.731218
0.455590 0.627716 0.068556
0.458583 0.630623 0.152893
0.461575 0.633530 0.237230
0.464568 0.636437 0.321567
0.467560 0.639344 0.405904
0.470553 0.642251 0.490241
0.473545 0.645158 0.574578
0.476538 0.648065 0.658915
0.479530 0.650972 0.743252
0.470999 0.744685 0.080589
0.473991 0.747592 0.164926
0.476984 0.750499 0.249263
0.479976 0.753406 0.333601
0.482969 0.756313 0.417938
0.485961 0.759220 0.502274
0.488954 0.762127 0.586612
0.491946 0.765034 0.670949
0.494939 0.767941 0.755286
0.486408 0.861653 0.092623
0.489400 0.864560 0.176960
0.492393 0.867467 0.261297
0.495385 0.870374 0.345634
0.498378 0.873281 0.429971
0.501370 0.876188 0.514308
0.504363 0.879095 0.598645
0.507355 0.882002 0.682982
0.510348 0.884909 0.767319
0.501816 0.978622 0.104656
0.504809 0.981529 0.188993
0.507801 0.984436 0.273330
0.510794 0.987343 0.357668
0.513786 0.990250 0.442005
0.516779 0.993156 0.526341
0.519771 0.996064 0.610679
0.522764 0.998971 0.695016
0.525756 1.000000 0.779353
0.491395 0.050498 0.014518
0.494388 0.053405 0.098855
0.497380 0.056312 0.183192
0.500372 0.059219 0.267529
0.503365 0.062126 0.351866
0.506358 0.065033 0.436203
0.509350 0.067940 0.520540
0.512343 0.070847 0.604877
0.515335 0.073754 0.689214
0.506804 0.167466 0.026551
0.509796 0.170373 0.110889
0.512789 0.173281 0.195225
0.515781 0.176187 0.279562
0.518774 0.179094 0.363899
0.521766 0.182001 0.448236
0.524759 0.184909 0.532574
0.527751 0.187815 0.616911
0.530744 0.190722 0.701247
0.522213 0.284435 0.038585
0.525205 0.287342 0.122922
0.528198 0.290249 0.207259
0.531190 0.293156 0.291596
0.534183 0.296063 0.375933
0.537175 0.298970 0.460270
0.540168 0.301877 0.544607
0.543160 0.304784 0.628944
0.546153 0.307691 0.713281
0.537621 0.401404 0.050618
0.540614 0.404311 0.134956
0.543606 0.407218 0.219293
0.546599 0.410125 0.303630
0.549591 0.413032 0.387966
0.552584 0.415939 0.472303
0.555576 0.418846 0.556641
0.558569 0.421753 0.640978
0.561561 0.424660 0.725314
0.553030 0.518372 0.062652
0.556023 0.521279 0.146989
0.559015 0.524186 0.231326
0.562008 0.527093 0.315663
0.565000 0.530000 0.400000
0.567993 0.532907 0.484337
0.570985 0.535814 0.568674
0.573978 0.538721 0.653011
0.576970 0.541628 0.737348
0.568439 0.635341 0.074685
0.571431 0.638248 0.159022
0.574424 0.641155 0.243359
0.577416 0.644061 0.327696
0.580409 0.646968 0.412033
0.583401 0.649876 0.496370
0.586394 0.652783 0.580708
0.589386 0.655690 0.665045
0.592379 0.658596 0.749381
0.583848 0.752309 0.086719
0.586840 0.755216 0.171056
0.589833 0.758123 0.255393
0.592825 0.761030 0.339730
0.595817 0.763937 0.424067
0.598810 0.766844 0.508404
0.601803 0.769751 0.592741
0.604795 0.772658 0.677078
0.607788 0.775565 0.761415
0.599256 0.869278 0.098752
0.602249 0.872185 0.183089
0.605241 0.875092 0.267426
0.608234 0.877999 0.351764
0.611226 0.880906 0.436100
0.614219 0.883813 0.520437
0.617211 0.886720 0.604774
0.620204 0.889627 0.689111
0.623196 0.892534 0.773448
0.614665 0.986246 0.110786
0.617658 0.989153 0.195123
0.620650 0.992060 0.279460
0.623642 0.994967 0.363797
0.626635 0.997874 0.448134
0.629628 1.000000 0.532471
0.632620 1.000000 0.616808
0.635613 1.000000 0.701145
0.638605 1.000000 0.785482
0.604244 0.058122 0.020647
0.607236 0.061030 0.104985
0.610229 0.063937 0.189322
0.613221 0.066844 0.273659
0.616214 0.069751 0.357996
0.619206 0.072657 0.442333
0.622199 0.075564 0.526670
0.625191 0.078472 0.611007
0.628184 0.081379 0.695344
0.619653 0.175091 0.032681
0.622645 0.177998 0.117018
0.625638 0.180905 0.201355
0.628630 0.183812 0.285692
0.631623 0.186719 0.370029
0.634615 0.189626 0.454366
0.637608 0.192533 0.538703
0.640600 0.195440 0.623040
0.643593 0.198347 0.707377
0.635061 0.292060 0.044714
0.638054 0.294967 0.129051
0.641046 0.297874 0.213389
0.644039 0.300781 0.297725
0.647031 0.303688 0.382062
0.650024 0.306595 0.466399
0.653016 0.309502 0.550737
0.656009 0.312409 0.635073
0.659001 0.315316 0.719410
0.650470 0.409028 0.056748
0.653462 0.411935 0.141085
0.656455 0.414842 0.225422
0.659448 0.417749 0.309759
0.662440 0.420656 0.394096
0.665433 0.423563 0.478433
0.668425 0.426470 0.562770
0.671418 0.429377 0.647107
0.674410 0.432284 0.731444
0.665879 0.525997 0.068782
0.668871 0.528904 0.153118
0.671864 0.531811 0.237455
0.674856 0.534718 0.321792
0.677849 0.537625 0.406129
0.680841 0.540532 0.490466
0.683834 0.543439 0.574804
0.686826 0.546346 0.659141
0.689819 0.549253 0.743478
0.681288 0.642965 0.080815
0.684280 0.645872 0.165152
0.687272 0.648779 0.249489
0.690265 0.651686 0.333826
0.693258 0.654593 0.418163
0.696250 0.657500 0.502500
0.699243 0.660407 0.586837
0.702235 0.663314 0.671174
0.705228 0.666221 0.755511
0.696696 0.759934 0.092848
0.699689 0.762841 0.177185
0.702681 0.765748 0.261522
0.705674 0.768655 0.345859
0.708666 0.771562 0.430196
0.711659 0.774469 0.514533
0.714651 0.777376 0.598871
0.717644 0.780283 0.683208
0.720636 0.783190 0.767545
0.712105 0.876902 0.104882
0.715098 0.879809 0.189219
0.718090 0.882716 0.273556
0.721082 0.885623 0.357893
0.724075 0.888530 0.442230
0.727068 0.891437 0.526567
0.730060 0.894344 0.610904
0.733053 0.897251 0.695241
0.736045 0.900158 0.779578
0.727514 0.993871 0.116915
0.730506 0.996778 0.201252
0.733499 0.999685 0.285589
0.736491 1.000000 0.369926
0.739484 1.000000 0.454264
0.742476 1.000000 0.538600
0.745469 1.000000 0.622938
0.748461 1.000000 0.707275
0.751454 1.000000 0.791612
0.717093 0.065747 0.026777
0.720085 0.068654 0.111114
0.723078 0.071561 0.195451
0.726070 0.074468 0.279788
0.729063 0.077375 0.364125
0.732055 0.080282 0.448462
0.735048 0.083189 0.532799
0.738040 0.086096 0.617136
0.741033 0.089003 0.701473
0.732501 0.182716 0.038811
0.735494 0.185623 0.123148
0.738486 0.188530 0.207485
0.741479 0.191437 0.291822
0.744471 0.194343 0.376159
0.747464 0.197250 0.460496
0.750456 0.200158 0.544833
0.753449 0.203065 0.629170
0.756441 0.205972 0.713506
0.747910 0.299684 0.050844
0.750903 0.302591 0.135181
0.753895 0.305498 0.219518
0.756888 0.308405 0.303855
0.759880 0.311312 0.388192
0.762873 0.314219 0.472529
0.765865 0.317126 0.556866
0.768858 0.320033 0.641203
0.771850 0.322940 0.725540
0.763319 0.416653 0.062878
0.766311 0.419560 0.147214
0.769304 0.422467 0.231551
0.772296 0.425374 0.315889
0.775289 0.428281 0.400226
0.778281 0.431188 0.484563
0.781274 0.434095 0.568900
0.784266 0.437002 0.653237
0.787259 0.439909 0.737573
0.778728 0.533621 0.074911
0.781720 0.536528 0.159248
0.784713 0.539435 0.243585
0.787705 0.542342 0.327922
0.790698 0.545249 0.412259
0.793690 0.548156 0.496596
0.796683 0.551063 0.580933
0.799675 0.553970 0.665270
0.802668 0.556877 0.749607
0.794136 0.650590 0.086944
0.797129 0.653497 0.171281
0.800121 0.656404 0.255618
0.803114 0.659311 0.339955
0.806106 0.662218 0.424292
0.809099 0.665125 0.508629
0.812091 0.668032 0.592967
0.815084 0.670938 0.677304
0.818076 0.673845 0.761640
0.809545 0.767558 0.098978
0.812538 0.770465 0.183315
0.815530 0.773372 0.267652
0.818523 0.776279 0.351989
0.821515 0.779186 0.436326
0.824508 0.782093 0.520663
0.827500 0.785000 0.605000
0.830493 0.787907 0.689337
0.833485 0.790814 0.773674
0.824954 0.884527 0.111012
0.827946 0.887434 0.195348
0.830939 0.890341 0.279685
0.833931 0.893248 0.364023
0.836924 0.896155 0.448359
0.839916 0.899062 0.532696
0.842909 0.901969 0.617034
0.845901 0.904876 0.701371
0.848894 0.907783 0.785708
0.840363 1.000000 0.123045
0.843355 1.000000 0.207382
0.846348 1.000000 0.291719
0.849340 1.000000 0.376056
0.852333 1.000000 0.460393
0.855325 1.000000 0.544730
0.858318 1.000000 0.629067
0.861310 1.000000 0.713404
0.864303 1.000000 0.797741
0.829941 0.073372 0.032906
0.832934 0.076278 0.117244
0.835926 0.079186 0.201580
0.838919 0.082093 0.285918
0.841911 0.085000 0.370254
0.844904 0.087907 0.454591
0.847896 0.090814 0.538929
0.850889 0.093721 0.623266
0.853881 0.096628 0.707603
0.845350 0.190340 0.044940
0.848343 0.193247 0.129277
0.851335 0.196154 0.213614
0.854328 0.199061 0.297951
0.857320 0.201968 0.382288
0.860313 0.204875 0.466625
0.863305 0.207782 0.550962
0.866298 0.210689 0.635299
0.869290 0.213596 0.719636
0.860759 0.307309 0.056973
0.863751 0.310216 0.141310
0.866744 0.313123 0.225648
0.869736 0.316030 0.309984
0.872729 0.318937 0.394321
0.875721 0.321844 0.478658
0.878714 0.324751 0.562996
0.881706 0.327658 0.647332
0.884699 0.330565 0.731669
0.876168 0.424277 0.069007
0.879160 0.427184 0.153344
0.882153 0.430091 0.237681
0.885145 0.432998 0.322018
0.888138 0.435905 0.406355
0.891130 0.438812 0.490692
0.894123 0.441719 0.575029
0.897115 0.444626 0.659366
0.900108 0.447533 0.743703
0.891576 0.541246 0.081041
0.894569 0.544153 0.165377
0.897561 0.547060 0.249715
0.900554 0.549967 0.334052
0.903546 0.552874 0.418388
0.906539 0.555781 0.502725
0.909531 0.558688 0.587063
0.912524 0.561594 0.671399
0.915516 0.564501 0.755736
0.906985 0.658214 0.093074
0.909978 0.661121 0.177411
0.912970 0.664028 0.261748
0.915963 0.666935 0.346085
0.918955 0.669842 0.430422
0.921948 0.672749 0.514759
0.924940 0.675656 0.599096
0.927933 0.678563 0.683433
0.930925 0.681470 0.767770
0.922394 0.775183 0.105107
0.925386 0.778090 0.189444
0.928379 0.780997 0.273782
0.931371 0.783904 0.358119
0.934364 0.786811 0.442456
0.937356 0.789718 0.526792
0.940349 0.792625 0.611130
0.943341 0.795532 0.695467
0.946334 0.798439 0.779803
0.937803 0.892151 0.117141
0.940795 0.895058 0.201478
0.943788 0.897965 0.285815
0.946780 0.900872 0.370152
0.949773 0.903779 0.454489
0.952765 0.906686 0.538826
0.955758 0.909593 0.623163
0.958750 0.912500 0.707500
0.961743 0.915407 0.791837
0.953211 1.000000 0.129174
0.956204 1.000000 0.213511
0.959196 1.000000 0.297848
0.962189 1.000000 0.382185
0.965181 1.000000 0.466522
0.968174 1.000000 0.550859
0.971166 1.000000 0.635197
0.974159 1.000000 0.719534
0.977151 1.000000 0.803871
0.942790 0.080996 0.039036
0.945783 0.083903 0.123373
0.948775 0.086810 0.207710
0.951768 0.089717 0.292047
0.954760 0.092624 0.376384
0.957753 0.095531 0.460721
0.960745 0.098438 0.545058
0.963738 0.101345 0.629395
0.966730 0.104252 0.713732
0.958199 0.197964 0.051069
0.961191 0.200872 0.135406
0.964184 0.203779 0.219743
0.967176 0.206686 0.304081
0.970169 0.209593 0.388418
0.973161 0.212500 0.472755
0.976154 0.215407 0.557091
0.979146 0.218314 0.641428
0.982139 0.221220 0.725765
0.973608 0.314933 0.063103
0.976600 0.317840 0.147440
0.979593 0.320747 0.231777
0.982585 0.323654 0.316114
0.985578 0.326561 0.400451
0.988570 0.329468 0.484788
0.991563 0.332375 0.569125
0.994555 0.335282 0.653462
0.997548 0.338189 0.737799
0.989016 0.431902 0.075136
0.992009 0.434809 0.159473
0.995001 0.437716 0.243810
0.997994 0.440623 0.328148
1.000000 0.443530 0.412484
1.000000 0.446437 0.496822
1.000000 0.449344 0.581159
1.000000 0.452251 0.665496
1.000000 0.455158 0.749833
1.000000 0.548870 0.087170
1.000000 0.551777 0.171507
1.000000 0.554684 0.255844
1.000000 0.557591 0.340181
1.000000 0.560498 0.424518
1.000000 0.563405 0.508855
1.000000 0.566312 0.593192
1.000000 0.569219 0.677529
1.000000 0.572126 0.761866
1.000000 0.665839 0.099204
1.000000 0.668746 0.183540
1.000000 0.671652 0.267877
1.000000 0.674559 0.352214
1.000000 0.677467 0.436551
1.000000 0.680374 0.520888
1.000000 0.683281 0.605226
1.000000 0.686187 0.689563
1.000000 0.689095 0.773899
1.000000 0.782807 0.111237
1.000000 0.785714 0.195574
1.000000 0.788621 0.279911
1.000000 0.791528 0.364248
1.000000 0.794435 0.448585
1.000000 0.797342 0.532922
1.000000 0.800249 0.617259
1.000000 0.803156 0.701596
1.000000 0.806063 0.785933
1.000000 0.899776 0.123270
1.000000 0.902683 0.207608
1.000000 0.905590 0.291944
1.000000 0.908497 0.376281
1.000000 0.911404 0.460618
1.000000 0.914311 0.544955
1.000000 0.917218 0.629293
1.000000 0.920125 0.713630
1.000000 0.923032 0.797966
1.000000 1.000000 0.135304
1.000000 1.000000 0.219641
1.000000 1.000000 0.303978
1.000000 1.000000 0.388315
1.000000 1.000000 0.472652
1.000000 1.000000 0.556989
1.000000 1.000000 0.641326
1.000000 1.000000 0.725663
1.000000 1.000000 0.810000
