assets/lut/Warm-Gold.cube
TITLE "Warm-Gold.cube"
LUT_3D_SIZE 5
0.040000 0.020000 0.000000
0.045985 0.025814 0.158674
0.051970 0.031628 0.327348
0.057955 0.037442 0.496022
0.063940 0.043256 0.664696
0.070818 0.253937 0.014067
0.076802 0.259751 0.182741
0.082788 0.265565 0.351415
0.088773 0.271379 0.520089
0.094758 0.277193 0.688763
0.101635 0.487874 0.038134
0.107620 0.493688 0.206808
0.113605 0.499502 0.375482
0.119590 0.505316 0.544156
0.125575 0.511130 0.712830
0.132453 0.721811 0.062201
0.138438 0.727625 0.230875
0.144423 0.733439 0.399549
0.150407 0.739253 0.568223
0.156393 0.745067 0.736897
0.163270 0.955748 0.086268
0.169255 0.961562 0.254942
0.175240 0.967376 0.423616
0.181225 0.973190 0.592290
0.187210 0.979004 0.760964
0.265698 0.035249 0.002259
0.271682 0.041063 0.170933
0.277668 0.046877 0.339607
0.283653 0.052691 0.508281
0.289638 0.058505 0.676955
0.296515 0.269186 0.026326
0.302500 0.275000 0.195000
0.308485 0.280814 0.363674
0.314470 0.286628 0.532348
0.320455 0.292442 0.701022
0.327332 0.503123 0.050393
0.333317 0.508937 0.219067
0.339303 0.514751 0.387741
0.345288 0.520565 0.556415
0.351272 0.526379 0.725089
0.358150 0.737060 0.074460
0.364135 0.742874 0.243134
0.370120 0.748688 0.411808
0.376105 0.754502 0.580482
0.382090 0.760316 0.749156
0.388968 0.970997 0.098527
0.394952 0.976811 0.267201
0.400938 0.982625 0.435875
0.406923 0.988439 0.604549
0.412908 0.994253 0.773223
0.491395 0.050498 0.014518
0.497380 0.056312 0.183192
0.503365 0.062126 0.351866
0.509350 0.067940 0.520540
0.515335 0.073754 0.689214
0.522213 0.284435 0.038585
0.528198 0.290249 0.207259
0.534183 0.296063 0.375933
0.540168 0.301877 0.544607
0.546153 0.307691 0.713281
0.553030 0.518372 0.062652
0.559015 0.524186 0.231326
0.565000 0.530000 0.400000
0.570985 0.535814 0.568674
0.576970 0.541628 0.737348
0.583848 0.752309 0.086719
0.589833 0.758123 0.255393
0.595817 0.763937 0.424067
0.601803 0.769751 0.592741
0.607788 0.775565 0.761415
0.614665 0.986246 0.110786
0.620650 0.992060 0.279460
0.626635 0.997874 0.448134
0.632620 1.000000 0.616808
0.638605 1.000000 0.785482
0.717093 0.065747 0.026777
0.723078 0.071561 0.195451
0.729063 0.077375 0.364125
0.735048 0.083189 0.532799
0.741033 0.089003 0.701473
0.747910 0.299684 0.050844
0.753895 0.305498 0.219518
0.759880 0.311312 0.388192
0.765865 0.317126 0.556866
0.771850 0.322940 0.725540
0.778728 0.533621 0.074911
0.784713 0.539435 0.243585
0.790698 0.545249 0.412259
0.796683 0.551063 0.580933
0.802668 0.556877 0.749607
0.809545 0.767558 0.098978
0.815530 0.773372 0.267652
0.821515 0.779186 0.436326
0.827500 0.785000 0.605000
0.833485 0.790814 0.773674
0.840363 1.000000 0.123045
0.846348 1.000000 0.291719
0.852333 1.000000 0.460393
0.858318 1.000000 0.629067
0.864303 1.000000 0.797741
0.942790 0.080996 0.039036
0.948775 0.086810 0.207710
0.954760 0.092624 0.376384
0.960745 0.098438 0.545058
0.966730 0.104252 0.713732
0.973608 0.314933 0.063103
0.979593 0.320747 0.231777
0.985578 0.326561 0.400451
0.991563 0.332375 0.569125
0.997548 0.338189 0.737799
1.000000 0.548870 0.087170
1.000000 0.554684 0.255844
1.000000 0.560498 0.424518
1.000000 0.566312 0.593192
1.000000 0.572126 0.761866
1.000000 0.782807 0.111237
1.000000 0.788621 0.279911
1.000000 0.794435 0.448585
1.000000 0.800249 0.617259
1.000000 0.806063 0.785933
1.000000 1.000000 0.135304
1.000000 1.000000 0.303978
1.000000 1.000000 0.472652
1.000000 1.000000 0.641326
1.000000 1.000000 0.810000
