assets/lut/Warm-Glow.cube
LUT_3D_SIZE 5
DOMAIN_MIN 0.0 0.0 0.0
DOMAIN_MAX 1.0 1.0 1.0
0.00000 0.00000 0.00000
0.26500 0.00000 0.00000
0.53000 0.00000 0.00000
0.79500 0.00000 0.00000
1.00000 0.00000 0.00000
0.00000 0.25500 0.00000
0.26500 0.25500 0.00000
0.53000 0.25500 0.00000
0.79500 0.25500 0.00000
1.00000 0.25500 0.00000
0.00000 0.51000 0.00000
0.26500 0.51000 0.00000
0.53000 0.51000 0.00000
0.79500 0.51000 0.00000
1.00000 0.51000 0.00000
0.00000 0.76500 0.00000
0.26500 0.76500 0.00000
0.53000 0.76500 0.00000
0.79500 0.76500 0.00000
1.00000 0.76500 0.00000
0.00000 1.00000 0.00000
0.26500 1.00000 0.00000
0.53000 1.00000 0.00000
0.79500 1.00000 0.00000
1.00000 1.00000 0.00000
0.00000 0.00000 0.22000
0.26500 0.00000 0.22000
0.53000 0.00000 0.22000
0.79500 0.00000 0.22000
1.00000 0.00000 0.22000
0.00000 0.25500 0.22000
0.26500 0.25500 0.22000
0.53000 0.25500 0.22000
0.79500 0.25500 0.22000
1.00000 0.25500 0.22000
0.00000 0.51000 0.22000
0.26500 0.51000 0.22000
0.53000 0.51000 0.22000
0.79500 0.51000 0.22000
1.00000 0.51000 0.22000
0.00000 0.76500 0.22000
0.26500 0.76500 0.22000
0.53000 0.76500 0.22000
0.79500 0.76500 0.22000
1.00000 0.76500 0.22000
0.00000 1.00000 0.22000
0.26500 1.00000 0.22000
0.53000 1.00000 0.22000
0.79500 1.00000 0.22000
1.00000 1.00000 0.22000
0.00000 0.00000 0.44000
0.26500 0.00000 0.44000
0.53000 0.00000 0.44000
0.79500 0.00000 0.44000
1.00000 0.00000 0.44000
0.00000 0.25500 0.44000
0.26500 0.25500 0.44000
0.53000 0.25500 0.44000
0.79500 0.25500 0.44000
1.00000 0.25500 0.44000
0.00000 0.51000 0.44000
0.26500 0.51000 0.44000
0.53000 0.51000 0.44000
0.79500 0.51000 0.44000
1.00000 0.51000 0.44000
0.00000 0.76500 0.44000
0.26500 0.76500 0.44000
0.53000 0.76500 0.44000
0.79500 0.76500 0.44000
1.00000 0.76500 0.44000
0.00000 1.00000 0.44000
0.26500 1.00000 0.44000
0.53000 1.00000 0.44000
0.79500 1.00000 0.44000
1.00000 1.00000 0.44000
0.00000 0.00000 0.66000
0.26500 0.00000 0.66000
0.53000 0.00000 0.66000
0.79500 0.00000 0.66000
1.00000 0.00000 0.66000
0.00000 0.25500 0.66000
0.26500 0.25500 0.66000
0.53000 0.25500 0.66000
0.79500 0.25500 0.66000
1.00000 0.25500 0.66000
0.00000 0.51000 0.66000
0.26500 0.51000 0.66000
0.53000 0.51000 0.66000
0.79500 0.51000 0.66000
1.00000 0.51000 0.66000
0.00000 0.76500 0.66000
0.26500 0.76500 0.66000
0.53000 0.76500 0.66000
0.79500 0.76500 0.66000
1.00000 0.76500 0.66000
0.00000 1.00000 0.66000
0.26500 1.00000 0.66000
0.53000 1.00000 0.66000
0.79500 1.00000 0.66000
1.00000 1.00000 0.66000
0.00000 0.00000 0.88000
0.26500 0.00000 0.88000
0.53000 0.00000 0.88000
0.79500 0.00000 0.88000
1.00000 0.00000 0.88000
0.00000 0.25500 0.88000
0.26500 0.25500 0.88000
0.53000 0.25500 0.88000
0.79500 0.25500 0.88000
1.00000 0.25500 0.88000
0.00000 0.51000 0.88000
0.26500 0.51000 0.88000
0.53000 0.51000 0.88000
0.79500 0.51000 0.88000
1.00000 0.51000 0.88000
0.00000 0.76500 0.88000
0.26500 0.76500 0.88000
0.53000 0.76500 0.88000
0.79500 0.76500 0.88000
1.00000 0.76500 0.88000
0.00000 1.00000 0.88000
0.26500 1.00000 0.88000
0.53000 1.00000 0.88000
0.79500 1.00000 0.88000
1.00000 1.00000 0.88000
