assets/lut/Warm-Glow.cube
LUT_3D_SIZE 33
DOMAIN_MIN 0.0 0.0 0.0
DOMAIN_MAX 1.0 1.0 1.0
0.00000 0.00000 0.00000
0.03313 0.00000 0.00000
0.06625 0.00000 0.00000
0.09938 0.00000 0.00000
0.13250 0.00000 0.00000
0.16563 0.00000 0.00000
0.19875 0.00000 0.00000
0.23187 0.00000 0.00000
0.26500 0.00000 0.00000
0.29813 0.00000 0.00000
0.33125 0.00000 0.00000
0.36438 0.00000 0.00000
0.39750 0.00000 0.00000
0.43063 0.00000 0.00000
0.46375 0.00000 0.00000
0.49688 0.00000 0.00000
0.53000 0.00000 0.00000
0.56312 0.00000 0.00000
0.59625 0.00000 0.00000
0.62938 0.00000 0.00000
0.66250 0.00000 0.00000
0.69563 0.00000 0.00000
0.72875 0.00000 0.00000
0.76188 0.00000 0.00000
0.79500 0.00000 0.00000
0.82812 0.00000 0.00000
0.86125 0.00000 0.00000
0.89438 0.00000 0.00000
0.92750 0.00000 0.00000
0.96063 0.00000 0.00000
0.99375 0.00000 0.00000
1.00000 0.00000 0.00000
1.00000 0.00000 0.00000
0.00000 0.03188 0.00000
0.03313 0.03188 0.00000
0.06625 0.03188 0.00000
0.09938 0.03188 0.00000
0.13250 0.03188 0.00000
0.16563 0.03188 0.00000
0.19875 0.03188 0.00000
0.23187 0.03188 0.00000
0.26500 0.03188 0.00000
0.29813 0.03188 0.00000
0.33125 0.03188 0.00000
0.36438 0.03188 0.00000
0.39750 0.03188 0.00000
0.43063 0.03188 0.00000
0.46375 0.03188 0.00000
0.49688 0.03188 0.00000
0.53000 0.03188 0.00000
0.56312 0.03188 0.00000
0.59625 0.03188 0.00000
0.62938 0.03188 0.00000
0.66250 0.03188 0.00000
0.69563 0.03188 0.00000
0.72875 0.03188 0.00000
0.76188 0.03188 0.00000
0.79500 0.03188 0.00000
0.82812 0.03188 0.00000
0.86125 0.03188 0.00000
0.89438 0.03188 0.00000
0.92750 0.03188 0.00000
0.96063 0.03188 0.00000
0.99375 0.03188 0.00000
1.00000 0.03188 0.00000
1.00000 0.03188 0.00000
0.00000 0.06375 0.00000
0.03313 0.06375 0.00000
0.06625 0.06375 0.00000
0.09938 0.06375 0.00000
0.13250 0.06375 0.00000
0.16563 0.06375 0.00000
0.19875 0.06375 0.00000
0.23187 0.06375 0.00000
0.26500 0.06375 0.00000
0.29813 0.06375 0.00000
0.33125 0.06375 0.00000
0.36438 0.06375 0.00000
0.39750 0.06375 0.00000
0.43063 0.06375 0.00000
0.46375 0.06375 0.00000
0.49688 0.06375 0.00000
0.53000 0.06375 0.00000
0.56312 0.06375 0.00000
0.59625 0.06375 0.00000
0.62938 0.06375 0.00000
0.66250 0.06375 0.00000
0.69563 0.06375 0.00000
0.72875 0.06375 0.00000
0.76188 0.06375 0.00000
0.79500 0.06375 0.00000
0.82812 0.06375 0.00000
0.86125 0.06375 0.00000
0.89438 0.06375 0.00000
0.92750 0.06375 0.00000
0.96063 0.06375 0.00000
0.99375 0.06375 0.00000
1.00000 0.06375 0.00000
1.00000 0.06375 0.00000
0.00000 0.09563 0.00000
0.03313 0.09563 0.00000
0.06625 0.09563 0.00000
0.09938 0.09563 0.00000
0.13250 0.09563 0.00000
0.16563 0.09563 0.00000
0.19875 0.09563 0.00000
0.23187 0.09563 0.00000
0.26500 0.09563 0.00000
0.29813 0.09563 0.00000
0.33125 0.09563 0.00000
0.36438 0.09563 0.00000
0.39750 0.09563 0.00000
0.43063 0.09563 0.00000
0.46375 0.09563 0.00000
0.49688 0.09563 0.00000
0.53000 0.09563 0.00000
0.56312 0.09563 0.00000
0.59625 0.09563 0.00000
0.62938 0.09563 0.00000
0.66250 0.09563 0.00000
0.69563 0.09563 0.00000
0.72875 0.09563 0.00000
0.76188 0.09563 0.00000
0.79500 0.09563 0.00000
0.82812 0.09563 0.00000
0.86125 0.09563 0.00000
0.89438 0.09563 0.00000
0.92750 0.09563 0.00000
0.96063 0.09563 0.00000
0.99375 0.09563 0.00000
1.00000 0.09563 0.00000
1.00000 0.09563 0.00000
0.00000 0.12750 0.00000
0.03313 0.12750 0.00000
0.06625 0.12750 0.00000
0.09938 0.12750 0.00000
0.13250 0.12750 0.00000
0.16563 0.12750 0.00000
0.19875 0.12750 0.00000
0.23187 0.12750 0.00000
0.26500 0.12750 0.00000
0.29813 0.12750 0.00000
0.33125 0.12750 0.00000
0.36438 0.12750 0.00000
0.39750 0.12750 0.00000
0.43063 0.12750 0.00000
0.46375 0.12750 0.00000
0.49688 0.12750 0.00000
0.53000 0.12750 0.00000
0.56312 0.12750 0.00000
0.59625 0.12750 0.00000
0.62938 0.12750 0.00000
0.66250 0.12750 0.00000
0.69563 0.12750 0.00000
0.72875 0.12750 0.00000
0.76188 0.12750 0.00000
0.79500 0.12750 0.00000
0.82812 0.12750 0.00000
0.86125 0.12750 0.00000
0.89438 0.12750 0.00000
0.92750 0.12750 0.00000
0.96063 0.12750 0.00000
0.99375 0.12750 0.00000
1.00000 0.12750 0.00000
1.00000 0.12750 0.00000
0.00000 0.15937 0.00000
0.03313 0.15937 0.00000
0.06625 0.15937 0.00000
0.09938 0.15937 0.00000
0.13250 0.15937 0.00000
0.16563 0.15937 0.00000
0.19875 0.15937 0.00000
0.23187 0.15937 0.00000
0.26500 0.15937 0.00000
0.29813 0.15937 0.00000
0.33125 0.15937 0.00000
0.36438 0.15937 0.00000
0.39750 0.15937 0.00000
0.43063 0.15937 0.00000
0.46375 0.15937 0.00000
0.49688 0.15937 0.00000
0.53000 0.15937 0.00000
0.56312 0.15937 0.00000
0.59625 0.15937 0.00000
0.62938 0.15937 0.00000
0.66250 0.15937 0.00000
0.69563 0.15937 0.00000
0.72875 0.15937 0.00000
0.76188 0.15937 0.00000
0.79500 0.15937 0.00000
0.82812 0.15937 0.00000
0.86125 0.15937 0.00000
0.89438 0.15937 0.00000
0.92750 0.15937 0.00000
0.96063 0.15937 0.00000
0.99375 0.15937 0.00000
1.00000 0.15937 0.00000
1.00000 0.15937 0.00000
0.00000 0.19125 0.00000
0.03313 0.19125 0.00000
0.06625 0.19125 0.00000
0.09938 0.19125 0.00000
0.13250 0.19125 0.00000
0.16563 0.19125 0.00000
0.19875 0.19125 0.00000
0.23187 0.19125 0.00000
0.26500 0.19125 0.00000
0.29813 0.19125 0.00000
0.33125 0.19125 0.00000
0.36438 0.19125 0.00000
0.39750 0.19125 0.00000
0.43063 0.19125 0.00000
0.46375 0.19125 0.00000
0.49688 0.19125 0.00000
0.53000 0.19125 0.00000
0.56312 0.19125 0.00000
0.59625 0.19125 0.00000
0.62938 0.19125 0.00000
0.66250 0.19125 0.00000
0.69563 0.19125 0.00000
0.72875 0.19125 0.00000
0.76188 0.19125 0.00000
0.79500 0.19125 0.00000
0.82812 0.19125 0.00000
0.86125 0.19125 0.00000
0.89438 0.19125 0.00000
0.92750 0.19125 0.00000
0.96063 0.19125 0.00000
0.99375 0.19125 0.00000
1.00000 0.19125 0.00000
1.00000 0.19125 0.00000
0.00000 0.22313 0.00000
0.03313 0.22313 0.00000
0.06625 0.22313 0.00000
0.09938 0.22313 0.00000
0.13250 0.22313 0.00000
0.16563 0.22313 0.00000
0.19875 0.22313 0.00000
0.23187 0.22313 0.00000
0.26500 0.22313 0.00000
0.29813 0.22313 0.00000
0.33125 0.22313 0.00000
0.36438 0.22313 0.00000
0.39750 0.22313 0.00000
0.43063 0.22313 0.00000
0.46375 0.22313 0.00000
0.49688 0.22313 0.00000
0.53000 0.22313 0.00000
0.56312 0.22313 0.00000
0.59625 0.22313 0.00000
0.62938 0.22313 0.00000
0.66250 0.22313 0.00000
0.69563 0.22313 0.00000
0.72875 0.22313 0.00000
0.76188 0.22313 0.00000
0.79500 0.22313 0.00000
0.82812 0.22313 0.00000
0.86125 0.22313 0.00000
0.89438 0.22313 0.00000
0.92750 0.22313 0.00000
0.96063 0.22313 0.00000
0.99375 0.22313 0.00000
1.00000 0.22313 0.00000
1.00000 0.22313 0.00000
0.00000 0.25500 0.00000
0.03313 0.25500 0.00000
0.06625 0.25500 0.00000
0.09938 0.25500 0.00000
0.13250 0.25500 0.00000
0.16563 0.25500 0.00000
0.19875 0.25500 0.00000
0.23187 0.25500 0.00000
0.26500 0.25500 0.00000
0.29813 0.25500 0.00000
0.33125 0.25500 0.00000
0.36438 0.25500 0.00000
0.39750 0.25500 0.00000
0.43063 0.25500 0.00000
0.46375 0.25500 0.00000
0.49688 0.25500 0.00000
0.53000 0.25500 0.00000
0.56312 0.25500 0.00000
0.59625 0.25500 0.00000
0.62938 0.25500 0.00000
0.66250 0.25500 0.00000
0.69563 0.25500 0.00000
0.72875 0.25500 0.00000
0.76188 0.25500 0.00000
0.79500 0.25500 0.00000
0.82812 0.25500 0.00000
0.86125 0.25500 0.00000
0.89438 0.25500 0.00000
0.92750 0.25500 0.00000
0.96063 0.25500 0.00000
0.99375 0.25500 0.00000
1.00000 0.25500 0.00000
1.00000 0.25500 0.00000
0.00000 0.28687 0.00000
0.03313 0.28687 0.00000
0.06625 0.28687 0.00000
0.09938 0.28687 0.00000
0.13250 0.28687 0.00000
0.16563 0.28687 0.00000
0.19875 0.28687 0.00000
0.23187 0.28687 0.00000
0.26500 0.28687 0.00000
0.29813 0.28687 0.00000
0.33125 0.28687 0.00000
0.36438 0.28687 0.00000
0.39750 0.28687 0.00000
0.43063 0.28687 0.00000
0.46375 0.28687 0.00000
0.49688 0.28687 0.00000
0.53000 0.28687 0.00000
0.56312 0.28687 0.00000
0.59625 0.28687 0.00000
0.62938 0.28687 0.00000
0.66250 0.28687 0.00000
0.69563 0.28687 0.00000
0.72875 0.28687 0.00000
0.76188 0.28687 0.00000
0.79500 0.28687 0.00000
0.82812 0.28687 0.00000
0.86125 0.28687 0.00000
0.89438 0.28687 0.00000
0.92750 0.28687 0.00000
0.96063 0.28687 0.00000
0.99375 0.28687 0.00000
1.00000 0.28687 0.00000
1.00000 0.28687 0.00000
0.00000 0.31875 0.00000
0.03313 0.31875 0.00000
0.06625 0.31875 0.00000
0.09938 0.31875 0.00000
0.13250 0.31875 0.00000
0.16563 0.31875 0.00000
0.19875 0.31875 0.00000
0.23187 0.31875 0.00000
0.26500 0.31875 0.00000
0.29813 0.31875 0.00000
0.33125 0.31875 0.00000
0.36438 0.31875 0.00000
0.39750 0.31875 0.00000
0.43063 0.31875 0.00000
0.46375 0.31875 0.00000
0.49688 0.31875 0.00000
0.53000 0.31875 0.00000
0.56312 0.31875 0.00000
0.59625 0.31875 0.00000
0.62938 0.31875 0.00000
0.66250 0.31875 0.00000
0.69563 0.31875 0.00000
0.72875 0.31875 0.00000
0.76188 0.31875 0.00000
0.79500 0.31875 0.00000
0.82812 0.31875 0.00000
0.86125 0.31875 0.00000
0.89438 0.31875 0.00000
0.92750 0.31875 0.00000
0.96063 0.31875 0.00000
0.99375 0.31875 0.00000
1.00000 0.31875 0.00000
1.00000 0.31875 0.00000
0.00000 0.35063 0.00000
0.03313 0.35063 0.00000
0.06625 0.35063 0.00000
0.09938 0.35063 0.00000
0.13250 0.35063 0.00000
0.16563 0.35063 0.00000
0.19875 0.35063 0.00000
0.23187 0.35063 0.00000
0.26500 0.35063 0.00000
0.29813 0.35063 0.00000
0.33125 0.35063 0.00000
0.36438 0.35063 0.00000
0.39750 0.35063 0.00000
0.43063 0.35063 0.00000
0.46375 0.35063 0.00000
0.49688 0.35063 0.00000
0.53000 0.35063 0.00000
0.56312 0.35063 0.00000
0.59625 0.35063 0.00000
0.62938 0.35063 0.00000
0.66250 0.35063 0.00000
0.69563 0.35063 0.00000
0.72875 0.35063 0.00000
0.76188 0.35063 0.00000
0.79500 0.35063 0.00000
0.82812 0.35063 0.00000
0.86125 0.35063 0.00000
0.89438 0.35063 0.00000
0.92750 0.35063 0.00000
0.96063 0.35063 0.00000
0.99375 0.35063 0.00000
1.00000 0.35063 0.00000
1.00000 0.35063 0.00000
0.00000 0.38250 0.00000
0.03313 0.38250 0.00000
0.06625 0.38250 0.00000
0.09938 0.38250 0.00000
0.13250 0.38250 0.00000
0.16563 0.38250 0.00000
0.19875 0.38250 0.00000
0.23187 0.38250 0.00000
0.26500 0.38250 0.00000
0.29813 0.38250 0.00000
0.33125 0.38250 0.00000
0.36438 0.38250 0.00000
0.39750 0.38250 0.00000
0.43063 0.38250 0.00000
0.46375 0.38250 0.00000
0.49688 0.38250 0.00000
0.53000 0.38250 0.00000
0.56312 0.38250 0.00000
0.59625 0.38250 0.00000
0.62938 0.38250 0.00000
0.66250 0.38250 0.00000
0.69563 0.38250 0.00000
0.72875 0.38250 0.00000
0.76188 0.38250 0.00000
0.79500 0.38250 0.00000
0.82812 0.38250 0.00000
0.86125 0.38250 0.00000
0.89438 0.38250 0.00000
0.92750 0.38250 0.00000
0.96063 0.38250 0.00000
0.99375 0.38250 0.00000
1.00000 0.38250 0.00000
1.00000 0.38250 0.00000
0.00000 0.41437 0.00000
0.03313 0.41437 0.00000
0.06625 0.41437 0.00000
0.09938 0.41437 0.00000
0.13250 0.41437 0.00000
0.16563 0.41437 0.00000
0.19875 0.41437 0.00000
0.23187 0.41437 0.00000
0.26500 0.41437 0.00000
0.29813 0.41437 0.00000
0.33125 0.41437 0.00000
0.36438 0.41437 0.00000
0.39750 0.41437 0.00000
0.43063 0.41437 0.00000
0.46375 0.41437 0.00000
0.49688 0.41437 0.00000
0.53000 0.41437 0.00000
0.56312 0.41437 0.00000
0.59625 0.41437 0.00000
0.62938 0.41437 0.00000
0.66250 0.41437 0.00000
0.69563 0.41437 0.00000
0.72875 0.41437 0.00000
0.76188 0.41437 0.00000
0.79500 0.41437 0.00000
0.82812 0.41437 0.00000
0.86125 0.41437 0.00000
0.89438 0.41437 0.00000
0.92750 0.41437 0.00000
0.96063 0.41437 0.00000
0.99375 0.41437 0.00000
1.00000 0.41437 0.00000
1.00000 0.41437 0.00000
0.00000 0.44625 0.00000
0.03313 0.44625 0.00000
0.06625 0.44625 0.00000
0.09938 0.44625 0.00000
0.13250 0.44625 0.00000
0.16563 0.44625 0.00000
0.19875 0.44625 0.00000
0.23187 0.44625 0.00000
0.26500 0.44625 0.00000
0.29813 0.44625 0.00000
0.33125 0.44625 0.00000
0.36438 0.44625 0.00000
0.39750 0.44625 0.00000
0.43063 0.44625 0.00000
0.46375 0.44625 0.00000
0.49688 0.44625 0.00000
0.53000 0.44625 0.00000
0.56312 0.44625 0.00000
0.59625 0.44625 0.00000
0.62938 0.44625 0.00000
0.66250 0.44625 0.00000
0.69563 0.44625 0.00000
0.72875 0.44625 0.00000
0.76188 0.44625 0.00000
0.79500 0.44625 0.00000
0.82812 0.44625 0.00000
0.86125 0.44625 0.00000
0.89438 0.44625 0.00000
0.92750 0.44625 0.00000
0.96063 0.44625 0.00000
0.99375 0.44625 0.00000
1.00000 0.44625 0.00000
1.00000 0.44625 0.00000
0.00000 0.47813 0.00000
0.03313 0.47813 0.00000
0.06625 0.47813 0.00000
0.09938 0.47813 0.00000
0.13250 0.47813 0.00000
0.16563 0.47813 0.00000
0.19875 0.47813 0.00000
0.23187 0.47813 0.00000
0.26500 0.47813 0.00000
0.29813 0.47813 0.00000
0.33125 0.47813 0.00000
0.36438 0.47813 0.00000
0.39750 0.47813 0.00000
0.43063 0.47813 0.00000
0.46375 0.47813 0.00000
0.49688 0.47813 0.00000
0.53000 0.47813 0.00000
0.56312 0.47813 0.00000
0.59625 0.47813 0.00000
0.62938 0.47813 0.00000
0.66250 0.47813 0.00000
0.69563 0.47813 0.00000
0.72875 0.47813 0.00000
0.76188 0.47813 0.00000
0.79500 0.47813 0.00000
0.82812 0.47813 0.00000
0.86125 0.47813 0.00000
0.89438 0.47813 0.00000
0.92750 0.47813 0.00000
0.96063 0.47813 0.00000
0.99375 0.47813 0.00000
1.00000 0.47813 0.00000
1.00000 0.47813 0.00000
0.00000 0.51000 0.00000
0.03313 0.51000 0.00000
0.06625 0.51000 0.00000
0.09938 0.51000 0.00000
0.13250 0.51000 0.00000
0.16563 0.51000 0.00000
0.19875 0.51000 0.00000
0.23187 0.51000 0.00000
0.26500 0.51000 0.00000
0.29813 0.51000 0.00000
0.33125 0.51000 0.00000
0.36438 0.51000 0.00000
0.39750 0.51000 0.00000
0.43063 0.51000 0.00000
0.46375 0.51000 0.00000
0.49688 0.51000 0.00000
0.53000 0.51000 0.00000
0.56312 0.51000 0.00000
0.59625 0.51000 0.00000
0.62938 0.51000 0.00000
0.66250 0.51000 0.00000
0.69563 0.51000 0.00000
0.72875 0.51000 0.00000
0.76188 0.51000 0.00000
0.79500 0.51000 0.00000
0.82812 0.51000 0.00000
0.86125 0.51000 0.00000
0.89438 0.51000 0.00000
0.92750 0.51000 0.00000
0.96063 0.51000 0.00000
0.99375 0.51000 0.00000
1.00000 0.51000 0.00000
1.00000 0.51000 0.00000
0.00000 0.54187 0.00000
0.03313 0.54187 0.00000
0.06625 0.54187 0.00000
0.09938 0.54187 0.00000
0.13250 0.54187 0.00000
0.16563 0.54187 0.00000
0.19875 0.54187 0.00000
0.23187 0.54187 0.00000
0.26500 0.54187 0.00000
0.29813 0.54187 0.00000
0.33125 0.54187 0.00000
0.36438 0.54187 0.00000
0.39750 0.54187 0.00000
0.43063 0.54187 0.00000
0.46375 0.54187 0.00000
0.49688 0.54187 0.00000
0.53000 0.54187 0.00000
0.56312 0.54187 0.00000
0.59625 0.54187 0.00000
0.62938 0.54187 0.00000
0.66250 0.54187 0.00000
0.69563 0.54187 0.00000
0.72875 0.54187 0.00000
0.76188 0.54187 0.00000
0.79500 0.54187 0.00000
0.82812 0.54187 0.00000
0.86125 0.54187 0.00000
0.89438 0.54187 0.00000
0.92750 0.54187 0.00000
0.96063 0.54187 0.00000
0.99375 0.54187 0.00000
1.00000 0.54187 0.00000
1.00000 0.54187 0.00000
0.00000 0.57375 0.00000
0.03313 0.57375 0.00000
0.06625 0.57375 0.00000
0.09938 0.57375 0.00000
0.13250 0.57375 0.00000
0.16563 0.57375 0.00000
0.19875 0.57375 0.00000
0.23187 0.57375 0.00000
0.26500 0.57375 0.00000
0.29813 0.57375 0.00000
0.33125 0.57375 0.00000
0.36438 0.57375 0.00000
0.39750 0.57375 0.00000
0.43063 0.57375 0.00000
0.46375 0.57375 0.00000
0.49688 0.57375 0.00000
0.53000 0.57375 0.00000
0.56312 0.57375 0.00000
0.59625 0.57375 0.00000
0.62938 0.57375 0.00000
0.66250 0.57375 0.00000
0.69563 0.57375 0.00000
0.72875 0.57375 0.00000
0.76188 0.57375 0.00000
0.79500 0.57375 0.00000
0.82812 0.57375 0.00000
0.86125 0.57375 0.00000
0.89438 0.57375 0.00000
0.92750 0.57375 0.00000
0.96063 0.57375 0.00000
0.99375 0.57375 0.00000
1.00000 0.57375 0.00000
1.00000 0.57375 0.00000
0.00000 0.60562 0.00000
0.03313 0.60562 0.00000
0.06625 0.60562 0.00000
0.09938 0.60562 0.00000
0.13250 0.60562 0.00000
0.16563 0.60562 0.00000
0.19875 0.60562 0.00000
0.23187 0.60562 0.00000
0.26500 0.60562 0.00000
0.29813 0.60562 0.00000
0.33125 0.60562 0.00000
0.36438 0.60562 0.00000
0.39750 0.60562 0.00000
0.43063 0.60562 0.00000
0.46375 0.60562 0.00000
0.49688 0.60562 0.00000
0.53000 0.60562 0.00000
0.56312 0.60562 0.00000
0.59625 0.60562 0.00000
0.62938 0.60562 0.00000
0.66250 0.60562 0.00000
0.69563 0.60562 0.00000
0.72875 0.60562 0.00000
0.76188 0.60562 0.00000
0.79500 0.60562 0.00000
0.82812 0.60562 0.00000
0.86125 0.60562 0.00000
0.89438 0.60562 0.00000
0.92750 0.60562 0.00000
0.96063 0.60562 0.00000
0.99375 0.60562 0.00000
1.00000 0.60562 0.00000
1.00000 0.60562 0.00000
0.00000 0.63750 0.00000
0.03313 0.63750 0.00000
0.06625 0.63750 0.00000
0.09938 0.63750 0.00000
0.13250 0.63750 0.00000
0.16563 0.63750 0.00000
0.19875 0.63750 0.00000
0.23187 0.63750 0.00000
0.26500 0.63750 0.00000
0.29813 0.63750 0.00000
0.33125 0.63750 0.00000
0.36438 0.63750 0.00000
0.39750 0.63750 0.00000
0.43063 0.63750 0.00000
0.46375 0.63750 0.00000
0.49688 0.63750 0.00000
0.53000 0.63750 0.00000
0.56312 0.63750 0.00000
0.59625 0.63750 0.00000
0.62938 0.63750 0.00000
0.66250 0.63750 0.00000
0.69563 0.63750 0.00000
0.72875 0.63750 0.00000
0.76188 0.63750 0.00000
0.79500 0.63750 0.00000
0.82812 0.63750 0.00000
0.86125 0.63750 0.00000
0.89438 0.63750 0.00000
0.92750 0.63750 0.00000
0.96063 0.63750 0.00000
0.99375 0.63750 0.00000
1.00000 0.63750 0.00000
1.00000 0.63750 0.00000
0.00000 0.66938 0.00000
0.03313 0.66938 0.00000
0.06625 0.66938 0.00000
0.09938 0.66938 0.00000
0.13250 0.66938 0.00000
0.16563 0.66938 0.00000
0.19875 0.66938 0.00000
0.23187 0.66938 0.00000
0.26500 0.66938 0.00000
0.29813 0.66938 0.00000
0.33125 0.66938 0.00000
0.36438 0.66938 0.00000
0.39750 0.66938 0.00000
0.43063 0.66938 0.00000
0.46375 0.66938 0.00000
0.49688 0.66938 0.00000
0.53000 0.66938 0.00000
0.56312 0.66938 0.00000
0.59625 0.66938 0.00000
0.62938 0.66938 0.00000
0.66250 0.66938 0.00000
0.69563 0.66938 0.00000
0.72875 0.66938 0.00000
0.76188 0.66938 0.00000
0.79500 0.66938 0.00000
0.82812 0.66938 0.00000
0.86125 0.66938 0.00000
0.89438 0.66938 0.00000
0.92750 0.66938 0.00000
0.96063 0.66938 0.00000
0.99375 0.66938 0.00000
1.00000 0.66938 0.00000
1.00000 0.66938 0.00000
0.00000 0.70125 0.00000
0.03313 0.70125 0.00000
0.06625 0.70125 0.00000
0.09938 0.70125 0.00000
0.13250 0.70125 0.00000
0.16563 0.70125 0.00000
0.19875 0.70125 0.00000
0.23187 0.70125 0.00000
0.26500 0.70125 0.00000
0.29813 0.70125 0.00000
0.33125 0.70125 0.00000
0.36438 0.70125 0.00000
0.39750 0.70125 0.00000
0.43063 0.70125 0.00000
0.46375 0.70125 0.00000
0.49688 0.70125 0.00000
0.53000 0.70125 0.00000
0.56312 0.70125 0.00000
0.59625 0.70125 0.00000
0.62938 0.70125 0.00000
0.66250 0.70125 0.00000
0.69563 0.70125 0.00000
0.72875 0.70125 0.00000
0.76188 0.70125 0.00000
0.79500 0.70125 0.00000
0.82812 0.70125 0.00000
0.86125 0.70125 0.00000
0.89438 0.70125 0.00000
0.92750 0.70125 0.00000
0.96063 0.70125 0.00000
0.99375 0.70125 0.00000
1.00000 0.70125 0.00000
1.00000 0.70125 0.00000
0.00000 0.73313 0.00000
0.03313 0.73313 0.00000
0.06625 0.73313 0.00000
0.09938 0.73313 0.00000
0.13250 0.73313 0.00000
0.16563 0.73313 0.00000
0.19875 0.73313 0.00000
0.23187 0.73313 0.00000
0.26500 0.73313 0.00000
0.29813 0.73313 0.00000
0.33125 0.73313 0.00000
0.36438 0.73313 0.00000
0.39750 0.73313 0.00000
0.43063 0.73313 0.00000
0.46375 0.73313 0.00000
0.49688 0.73313 0.00000
0.53000 0.73313 0.00000
0.56312 0.73313 0.00000
0.59625 0.73313 0.00000
0.62938 0.73313 0.00000
0.66250 0.73313 0.00000
0.69563 0.73313 0.00000
0.72875 0.73313 0.00000
0.76188 0.73313 0.00000
0.79500 0.73313 0.00000
0.82812 0.73313 0.00000
0.86125 0.73313 0.00000
0.89438 0.73313 0.00000
0.92750 0.73313 0.00000
0.96063 0.73313 0.00000
0.99375 0.73313 0.00000
1.00000 0.73313 0.00000
1.00000 0.73313 0.00000
0.00000 0.76500 0.00000
0.03313 0.76500 0.00000
0.06625 0.76500 0.00000
0.09938 0.76500 0.00000
0.13250 0.76500 0.00000
0.16563 0.76500 0.00000
0.19875 0.76500 0.00000
0.23187 0.76500 0.00000
0.26500 0.76500 0.00000
0.29813 0.76500 0.00000
0.33125 0.76500 0.00000
0.36438 0.76500 0.00000
0.39750 0.76500 0.00000
0.43063 0.76500 0.00000
0.46375 0.76500 0.00000
0.49688 0.76500 0.00000
0.53000 0.76500 0.00000
0.56312 0.76500 0.00000
0.59625 0.76500 0.00000
0.62938 0.76500 0.00000
0.66250 0.76500 0.00000
0.69563 0.76500 0.00000
0.72875 0.76500 0.00000
0.76188 0.76500 0.00000
0.79500 0.76500 0.00000
0.82812 0.76500 0.00000
0.86125 0.76500 0.00000
0.89438 0.76500 0.00000
0.92750 0.76500 0.00000
0.96063 0.76500 0.00000
0.99375 0.76500 0.00000
1.00000 0.76500 0.00000
1.00000 0.76500 0.00000
0.00000 0.79688 0.00000
0.03313 0.79688 0.00000
0.06625 0.79688 0.00000
0.09938 0.79688 0.00000
0.13250 0.79688 0.00000
0.16563 0.79688 0.00000
0.19875 0.79688 0.00000
0.23187 0.79688 0.00000
0.26500 0.79688 0.00000
0.29813 0.79688 0.00000
0.33125 0.79688 0.00000
0.36438 0.79688 0.00000
0.39750 0.79688 0.00000
0.43063 0.79688 0.00000
0.46375 0.79688 0.00000
0.49688 0.79688 0.00000
0.53000 0.79688 0.00000
0.56312 0.79688 0.00000
0.59625 0.79688 0.00000
0.62938 0.79688 0.00000
0.66250 0.79688 0.00000
0.69563 0.79688 0.00000
0.72875 0.79688 0.00000
0.76188 0.79688 0.00000
0.79500 0.79688 0.00000
0.82812 0.79688 0.00000
0.86125 0.79688 0.00000
0.89438 0.79688 0.00000
0.92750 0.79688 0.00000
0.96063 0.79688 0.00000
0.99375 0.79688 0.00000
1.00000 0.79688 0.00000
1.00000 0.79688 0.00000
0.00000 0.82875 0.00000
0.03313 0.82875 0.00000
0.06625 0.82875 0.00000
0.09938 0.82875 0.00000
0.13250 0.82875 0.00000
0.16563 0.82875 0.00000
0.19875 0.82875 0.00000
0.23187 0.82875 0.00000
0.26500 0.82875 0.00000
0.29813 0.82875 0.00000
0.33125 0.82875 0.00000
0.36438 0.82875 0.00000
0.39750 0.82875 0.00000
0.43063 0.82875 0.00000
0.46375 0.82875 0.00000
0.49688 0.82875 0.00000
0.53000 0.82875 0.00000
0.56312 0.82875 0.00000
0.59625 0.82875 0.00000
0.62938 0.82875 0.00000
0.66250 0.82875 0.00000
0.69563 0.82875 0.00000
0.72875 0.82875 0.00000
0.76188 0.82875 0.00000
0.79500 0.82875 0.00000
0.82812 0.82875 0.00000
0.86125 0.82875 0.00000
0.89438 0.82875 0.00000
0.92750 0.82875 0.00000
0.96063 0.82875 0.00000
0.99375 0.82875 0.00000
1.00000 0.82875 0.00000
1.00000 0.82875 0.00000
0.00000 0.86062 0.00000
0.03313 0.86062 0.00000
0.06625 0.86062 0.00000
0.09938 0.86062 0.00000
0.13250 0.86062 0.00000
0.16563 0.86062 0.00000
0.19875 0.86062 0.00000
0.23187 0.86062 0.00000
0.26500 0.86062 0.00000
