assets/lut/Warm-Glow.cube
LUT_3D_SIZE 9
DOMAIN_MIN 0.0 0.0 0.0
DOMAIN_MAX 1.0 1.0 1.0
0.00000 0.00000 0.00000
0.13250 0.00000 0.00000
0.26500 0.00000 0.00000
0.39750 0.00000 0.00000
0.53000 0.00000 0.00000
0.66250 0.00000 0.00000
0.79500 0.00000 0.00000
0.92750 0.00000 0.00000
1.00000 0.00000 0.00000
0.00000 0.12750 0.00000
0.13250 0.12750 0.00000
0.26500 0.12750 0.00000
0.39750 0.12750 0.00000
0.53000 0.12750 0.00000
0.66250 0.12750 0.00000
0.79500 0.12750 0.00000
0.92750 0.12750 0.00000
1.00000 0.12750 0.00000
0.00000 0.25500 0.00000
0.13250 0.25500 0.00000
0.26500 0.25500 0.00000
0.39750 0.25500 0.00000
0.53000 0.25500 0.00000
0.66250 0.25500 0.00000
0.79500 0.25500 0.00000
0.92750 0.25500 0.00000
1.00000 0.25500 0.00000
0.00000 0.38250 0.00000
0.13250 0.38250 0.00000
0.26500 0.38250 0.00000
0.39750 0.38250 0.00000
0.53000 0.38250 0.00000
0.66250 0.38250 0.00000
0.79500 0.38250 0.00000
0.92750 0.38250 0.00000
1.00000 0.38250 0.00000
0.00000 0.51000 0.00000
0.13250 0.51000 0.00000
0.26500 0.51000 0.00000
0.39750 0.51000 0.00000
0.53000 0.51000 0.00000
0.66250 0.51000 0.00000
0.79500 0.51000 0.00000
0.92750 0.51000 0.00000
1.00000 0.51000 0.00000
0.00000 0.63750 0.00000
0.13250 0.63750 0.00000
0.26500 0.63750 0.00000
0.39750 0.63750 0.00000
0.53000 0.63750 0.00000
0.66250 0.63750 0.00000
0.79500 0.63750 0.00000
0.92750 0.63750 0.00000
1.00000 0.63750 0.00000
0.00000 0.76500 0.00000
0.13250 0.76500 0.00000
0.26500 0.76500 0.00000
0.39750 0.76500 0.00000
0.53000 0.76500 0.00000
0.66250 0.76500 0.00000
0.79500 0.76500 0.00000
0.92750 0.76500 0.00000
1.00000 0.76500 0.00000
0.00000 0.89250 0.00000
0.13250 0.89250 0.00000
0.26500 0.89250 0.00000
0.39750 0.89250 0.00000
0.53000 0.89250 0.00000
0.66250 0.89250 0.00000
0.79500 0.89250 0.00000
0.92750 0.89250 0.00000
1.00000 0.89250 0.00000
0.00000 1.00000 0.00000
0.13250 1.00000 0.00000
0.26500 1.00000 0.00000
0.39750 1.00000 0.00000
0.53000 1.00000 0.00000
0.66250 1.00000 0.00000
0.79500 1.00000 0.00000
0.92750 1.00000 0.00000
1.00000 1.00000 0.00000
0.00000 0.00000 0.11000
0.13250 0.00000 0.11000
0.26500 0.00000 0.11000
0.39750 0.00000 0.11000
0.53000 0.00000 0.11000
0.66250 0.00000 0.11000
0.79500 0.00000 0.11000
0.92750 0.00000 0.11000
1.00000 0.00000 0.11000
0.00000 0.12750 0.11000
0.13250 0.12750 0.11000
0.26500 0.12750 0.11000
0.39750 0.12750 0.11000
0.53000 0.12750 0.11000
0.66250 0.12750 0.11000
0.79500 0.12750 0.11000
0.92750 0.12750 0.11000
1.00000 0.12750 0.11000
0.00000 0.25500 0.11000
0.13250 0.25500 0.11000
0.26500 0.25500 0.11000
0.39750 0.25500 0.11000
0.53000 0.25500 0.11000
0.66250 0.25500 0.11000
0.79500 0.25500 0.11000
0.92750 0.25500 0.11000
1.00000 0.25500 0.11000
0.00000 0.38250 0.11000
0.13250 0.38250 0.11000
0.26500 0.38250 0.11000
0.39750 0.38250 0.11000
0.53000 0.38250 0.11000
0.66250 0.38250 0.11000
0.79500 0.38250 0.11000
0.92750 0.38250 0.11000
1.00000 0.38250 0.11000
0.00000 0.51000 0.11000
0.13250 0.51000 0.11000
0.26500 0.51000 0.11000
0.39750 0.51000 0.11000
0.53000 0.51000 0.11000
0.66250 0.51000 0.11000
0.79500 0.51000 0.11000
0.92750 0.51000 0.11000
1.00000 0.51000 0.11000
0.00000 0.63750 0.11000
0.13250 0.63750 0.11000
0.26500 0.63750 0.11000
0.39750 0.63750 0.11000
0.53000 0.63750 0.11000
0.66250 0.63750 0.11000
0.79500 0.63750 0.11000
0.92750 0.63750 0.11000
1.00000 0.63750 0.11000
0.00000 0.76500 0.11000
0.13250 0.76500 0.11000
0.26500 0.76500 0.11000
0.39750 0.76500 0.11000
0.53000 0.76500 0.11000
0.66250 0.76500 0.11000
0.79500 0.76500 0.11000
0.92750 0.76500 0.11000
1.00000 0.76500 0.11000
0.00000 0.89250 0.11000
0.13250 0.89250 0.11000
0.26500 0.89250 0.11000
0.39750 0.89250 0.11000
0.53000 0.89250 0.11000
0.66250 0.89250 0.11000
0.79500 0.89250 0.11000
0.92750 0.89250 0.11000
1.00000 0.89250 0.11000
0.00000 1.00000 0.11000
0.13250 1.00000 0.11000
0.26500 1.00000 0.11000
0.39750 1.00000 0.11000
0.53000 1.00000 0.11000
0.66250 1.00000 0.11000
0.79500 1.00000 0.11000
0.92750 1.00000 0.11000
1.00000 1.00000 0.11000
0.00000 0.00000 0.22000
0.13250 0.00000 0.22000
0.26500 0.00000 0.22000
0.39750 0.00000 0.22000
0.53000 0.00000 0.22000
0.66250 0.00000 0.22000
0.79500 0.00000 0.22000
0.92750 0.00000 0.22000
1.00000 0.00000 0.22000
0.00000 0.12750 0.22000
0.13250 0.12750 0.22000
0.26500 0.12750 0.22000
0.39750 0.12750 0.22000
0.53000 0.12750 0.22000
0.66250 0.12750 0.22000
0.79500 0.12750 0.22000
0.92750 0.12750 0.22000
1.00000 0.12750 0.22000
0.00000 0.25500 0.22000
0.13250 0.25500 0.22000
0.26500 0.25500 0.22000
0.39750 0.25500 0.22000
0.53000 0.25500 0.22000
0.66250 0.25500 0.22000
0.79500 0.25500 0.22000
0.92750 0.25500 0.22000
1.00000 0.25500 0.22000
0.00000 0.38250 0.22000
0.13250 0.38250 0.22000
0.26500 0.38250 0.22000
0.39750 0.38250 0.22000
0.53000 0.38250 0.22000
0.66250 0.38250 0.22000
0.79500 0.38250 0.22000
0.92750 0.38250 0.22000
1.00000 0.38250 0.22000
0.00000 0.51000 0.22000
0.13250 0.51000 0.22000
0.26500 0.51000 0.22000
0.39750 0.51000 0.22000
0.53000 0.51000 0.22000
0.66250 0.51000 0.22000
0.79500 0.51000 0.22000
0.92750 0.51000 0.22000
1.00000 0.51000 0.22000
0.00000 0.63750 0.22000
0.13250 0.63750 0.22000
0.26500 0.63750 0.22000
0.39750 0.63750 0.22000
0.53000 0.63750 0.22000
0.66250 0.63750 0.22000
0.79500 0.63750 0.22000
0.92750 0.63750 0.22000
1.00000 0.63750 0.22000
0.00000 0.76500 0.22000
0.13250 0.76500 0.22000
0.26500 0.76500 0.22000
0.39750 0.76500 0.22000
0.53000 0.76500 0.22000
0.66250 0.76500 0.22000
0.79500 0.76500 0.22000
0.92750 0.76500 0.22000
1.00000 0.76500 0.22000
0.00000 0.89250 0.22000
0.13250 0.89250 0.22000
0.26500 0.89250 0.22000
0.39750 0.89250 0.22000
0.53000 0.89250 0.22000
0.66250 0.89250 0.22000
0.79500 0.89250 0.22000
0.92750 0.89250 0.22000
1.00000 0.89250 0.22000
0.00000 1.00000 0.22000
0.13250 1.00000 0.22000
0.26500 1.00000 0.22000
0.39750 1.00000 0.22000
0.53000 1.00000 0.22000
0.66250 1.00000 0.22000
0.79500 1.00000 0.22000
0.92750 1.00000 0.22000
1.00000 1.00000 0.22000
0.00000 0.00000 0.33000
0.13250 0.00000 0.33000
0.26500 0.00000 0.33000
0.39750 0.00000 0.33000
0.53000 0.00000 0.33000
0.66250 0.00000 0.33000
0.79500 0.00000 0.33000
0.92750 0.00000 0.33000
1.00000 0.00000 0.33000
0.00000 0.12750 0.33000
0.13250 0.12750 0.33000
0.26500 0.12750 0.33000
0.39750 0.12750 0.33000
0.53000 0.12750 0.33000
0.66250 0.12750 0.33000
0.79500 0.12750 0.33000
0.92750 0.12750 0.33000
1.00000 0.12750 0.33000
0.00000 0.25500 0.33000
0.13250 0.25500 0.33000
0.26500 0.25500 0.33000
0.39750 0.25500 0.33000
0.53000 0.25500 0.33000
0.66250 0.25500 0.33000
0.79500 0.25500 0.33000
0.92750 0.25500 0.33000
1.00000 0.25500 0.33000
0.00000 0.38250 0.33000
0.13250 0.38250 0.33000
0.26500 0.38250 0.33000
0.39750 0.38250 0.33000
0.53000 0.38250 0.33000
0.66250 0.38250 0.33000
0.79500 0.38250 0.33000
0.92750 0.38250 0.33000
1.00000 0.38250 0.33000
0.00000 0.51000 0.33000
0.13250 0.51000 0.33000
0.26500 0.51000 0.33000
0.39750 0.51000 0.33000
0.53000 0.51000 0.33000
0.66250 0.51000 0.33000
0.79500 0.51000 0.33000
0.92750 0.51000 0.33000
1.00000 0.51000 0.33000
0.00000 0.63750 0.33000
0.13250 0.63750 0.33000
0.26500 0.63750 0.33000
0.39750 0.63750 0.33000
0.53000 0.63750 0.33000
0.66250 0.63750 0.33000
0.79500 0.63750 0.33000
0.92750 0.63750 0.33000
1.00000 0.63750 0.33000
0.00000 0.76500 0.33000
0.13250 0.76500 0.33000
0.26500 0.76500 0.33000
0.39750 0.76500 0.33000
0.53000 0.76500 0.33000
0.66250 0.76500 0.33000
0.79500 0.76500 0.33000
0.92750 0.76500 0.33000
1.00000 0.76500 0.33000
0.00000 0.89250 0.33000
0.13250 0.89250 0.33000
0.26500 0.89250 0.33000
0.39750 0.89250 0.33000
0.53000 0.89250 0.33000
0.66250 0.89250 0.33000
0.79500 0.89250 0.33000
0.92750 0.89250 0.33000
1.00000 0.89250 0.33000
0.00000 1.00000 0.33000
0.13250 1.00000 0.33000
0.26500 1.00000 0.33000
0.39750 1.00000 0.33000
0.53000 1.00000 0.33000
0.66250 1.00000 0.33000
0.79500 1.00000 0.33000
0.92750 1.00000 0.33000
1.00000 1.00000 0.33000
0.00000 0.00000 0.44000
0.13250 0.00000 0.44000
0.26500 0.00000 0.44000
0.39750 0.00000 0.44000
0.53000 0.00000 0.44000
0.66250 0.00000 0.44000
0.79500 0.00000 0.44000
0.92750 0.00000 0.44000
1.00000 0.00000 0.44000
0.00000 0.12750 0.44000
0.13250 0.12750 0.44000
0.26500 0.12750 0.44000
0.39750 0.12750 0.44000
0.53000 0.12750 0.44000
0.66250 0.12750 0.44000
0.79500 0.12750 0.44000
0.92750 0.12750 0.44000
1.00000 0.12750 0.44000
0.00000 0.25500 0.44000
0.13250 0.25500 0.44000
0.26500 0.25500 0.44000
0.39750 0.25500 0.44000
0.53000 0.25500 0.44000
0.66250 0.25500 0.44000
0.79500 0.25500 0.44000
0.92750 0.25500 0.44000
1.00000 0.25500 0.44000
0.00000 0.38250 0.44000
0.13250 0.38250 0.44000
0.26500 0.38250 0.44000
0.39750 0.38250 0.44000
0.53000 0.38250 0.44000
0.66250 0.38250 0.44000
0.79500 0.38250 0.44000
0.92750 0.38250 0.44000
1.00000 0.38250 0.44000
0.00000 0.51000 0.44000
0.13250 0.51000 0.44000
0.26500 0.51000 0.44000
0.39750 0.51000 0.44000
0.53000 0.51000 0.44000
0.66250 0.51000 0.44000
0.79500 0.51000 0.44000
0.92750 0.51000 0.44000
1.00000 0.51000 0.44000
0.00000 0.63750 0.44000
0.13250 0.63750 0.44000
0.26500 0.63750 0.44000
0.39750 0.63750 0.44000
0.53000 0.63750 0.44000
0.66250 0.63750 0.44000
0.79500 0.63750 0.44000
0.92750 0.63750 0.44000
1.00000 0.63750 0.44000
0.00000 0.76500 0.44000
0.13250 0.76500 0.44000
0.26500 0.76500 0.44000
0.39750 0.76500 0.44000
0.53000 0.76500 0.44000
0.66250 0.76500 0.44000
0.79500 0.76500 0.44000
0.92750 0.76500 0.44000
1.00000 0.76500 0.44000
0.00000 0.89250 0.44000
0.13250 0.89250 0.44000
0.26500 0.89250 0.44000
0.39750 0.89250 0.44000
0.53000 0.89250 0.44000
0.66250 0.89250 0.44000
0.79500 0.89250 0.44000
0.92750 0.89250 0.44000
1.00000 0.89250 0.44000
0.00000 1.00000 0.44000
0.13250 1.00000 0.44000
0.26500 1.00000 0.44000
0.39750 1.00000 0.44000
0.53000 1.00000 0.44000
0.66250 1.00000 0.44000
0.79500 1.00000 0.44000
0.92750 1.00000 0.44000
1.00000 1.00000 0.44000
0.00000 0.00000 0.55000
0.13250 0.00000 0.55000
0.26500 0.00000 0.55000
0.39750 0.00000 0.55000
0.53000 0.00000 0.55000
0.66250 0.00000 0.55000
0.79500 0.00000 0.55000
0.92750 0.00000 0.55000
1.00000 0.00000 0.55000
0.00000 0.12750 0.55000
0.13250 0.12750 0.55000
0.26500 0.12750 0.55000
0.39750 0.12750 0.55000
0.53000 0.12750 0.55000
0.66250 0.12750 0.55000
0.79500 0.12750 0.55000
0.92750 0.12750 0.55000
1.00000 0.12750 0.55000
0.00000 0.25500 0.55000
0.13250 0.25500 0.55000
0.26500 0.25500 0.55000
0.39750 0.25500 0.55000
0.53000 0.25500 0.55000
0.66250 0.25500 0.55000
0.79500 0.25500 0.55000
0.92750 0.25500 0.55000
1.00000 0.25500 0.55000
0.00000 0.38250 0.55000
0.13250 0.38250 0.55000
0.26500 0.38250 0.55000
0.39750 0.38250 0.55000
0.53000 0.38250 0.55000
0.66250 0.38250 0.55000
0.79500 0.38250 0.55000
0.92750 0.38250 0.55000
1.00000 0.38250 0.55000
0.00000 0.51000 0.55000
0.13250 0.51000 0.55000
0.26500 0.51000 0.55000
0.39750 0.51000 0.55000
0.53000 0.51000 0.55000
0.66250 0.51000 0.55000
0.79500 0.51000 0.55000
0.92750 0.51000 0.55000
1.00000 0.51000 0.55000
0.00000 0.63750 0.55000
0.13250 0.63750 0.55000
0.26500 0.63750 0.55000
0.39750 0.63750 0.55000
0.53000 0.63750 0.55000
0.66250 0.63750 0.55000
0.79500 0.63750 0.55000
0.92750 0.63750 0.55000
1.00000 0.63750 0.55000
0.00000 0.76500 0.55000
0.13250 0.76500 0.55000
0.26500 0.76500 0.55000
0.39750 0.76500 0.55000
0.53000 0.76500 0.55000
0.66250 0.76500 0.55000
0.79500 0.76500 0.55000
0.92750 0.76500 0.55000
1.00000 0.76500 0.55000
0.00000 0.89250 0.55000
0.13250 0.89250 0.55000
0.26500 0.89250 0.55000
0.39750 0.89250 0.55000
0.53000 0.89250 0.55000
0.66250 0.89250 0.55000
0.79500 0.89250 0.55000
0.92750 0.89250 0.55000
1.00000 0.89250 0.55000
0.00000 1.00000 0.55000
0.13250 1.00000 0.55000
0.26500 1.00000 0.55000
0.39750 1.00000 0.55000
0.53000 1.00000 0.55000
0.66250 1.00000 0.55000
0.79500 1.00000 0.55000
0.92750 1.00000 0.55000
1.00000 1.00000 0.55000
0.00000 0.00000 0.66000
0.13250 0.00000 0.66000
0.26500 0.00000 0.66000
0.39750 0.00000 0.66000
0.53000 0.00000 0.66000
0.66250 0.00000 0.66000
0.79500 0.00000 0.66000
0.92750 0.00000 0.66000
1.00000 0.00000 0.66000
0.00000 0.12750 0.66000
0.13250 0.12750 0.66000
0.26500 0.12750 0.66000
0.39750 0.12750 0.66000
0.53000 0.12750 0.66000
0.66250 0.12750 0.66000
0.79500 0.12750 0.66000
0.92750 0.12750 0.66000
1.00000 0.12750 0.66000
0.00000 0.25500 0.66000
0.13250 0.25500 0.66000
0.26500 0.25500 0.66000
0.39750 0.25500 0.66000
0.53000 0.25500 0.66000
0.66250 0.25500 0.66000
0.79500 0.25500 0.66000
0.92750 0.25500 0.66000
1.00000 0.25500 0.66000
0.00000 0.38250 0.66000
0.13250 0.38250 0.66000
0.26500 0.38250 0.66000
0.39750 0.38250 0.66000
0.53000 0.38250 0.66000
0.66250 0.38250 0.66000
0.79500 0.38250 0.66000
0.92750 0.38250 0.66000
1.00000 0.38250 0.66000
0.00000 0.51000 0.66000
0.13250 0.51000 0.66000
0.26500 0.51000 0.66000
0.39750 0.51000 0.66000
0.53000 0.51000 0.66000
0.66250 0.51000 0.66000
0.79500 0.51000 0.66000
0.92750 0.51000 0.66000
1.00000 0.51000 0.66000
0.00000 0.63750 0.66000
0.13250 0.63750 0.66000
0.26500 0.63750 0.66000
0.39750 0.63750 0.66000
0.53000 0.63750 0.66000
0.66250 0.63750 0.66000
0.79500 0.63750 0.66000
0.92750 0.63750 0.66000
1.00000 0.63750 0.66000
0.00000 0.76500 0.66000
0.13250 0.76500 0.66000
0.26500 0.76500 0.66000
0.39750 0.76500 0.66000
0.53000 0.76500 0.66000
0.66250 0.76500 0.66000
0.79500 0.76500 0.66000
0.92750 0.76500 0.66000
1.00000 0.76500 0.66000
0.00000 0.89250 0.66000
0.13250 0.89250 0.66000
0.26500 0.89250 0.66000
0.39750 0.89250 0.66000
0.53000 0.89250 0.66000
0.66250 0.89250 0.66000
0.79500 0.89250 0.66000
0.92750 0.89250 0.66000
1.00000 0.89250 0.66000
0.00000 1.00000 0.66000
0.13250 1.00000 0.66000
0.26500 1.00000 0.66000
0.39750 1.00000 0.66000
0.53000 1.00000 0.66000
0.66250 1.00000 0.66000
0.79500 1.00000 0.66000
0.92750 1.00000 0.66000
1.00000 1.00000 0.66000
0.00000 0.00000 0.77000
0.13250 0.00000 0.77000
0.26500 0.00000 0.77000
0.39750 0.00000 0.77000
0.53000 0.00000 0.77000
0.66250 0.00000 0.77000
0.79500 0.00000 0.77000
0.92750 0.00000 0.77000
1.00000 0.00000 0.77000
0.00000 0.12750 0.77000
0.13250 0.12750 0.77000
0.26500 0.12750 0.77000
0.39750 0.12750 0.77000
0.53000 0.12750 0.77000
0.66250 0.12750 0.77000
0.79500 0.12750 0.77000
0.92750 0.12750 0.77000
1.00000 0.12750 0.77000
0.00000 0.25500 0.77000
0.13250 0.25500 0.77000
0.26500 0.25500 0.77000
0.39750 0.25500 0.77000
0.53000 0.25500 0.77000
0.66250 0.25500 0.77000
0.79500 0.25500 0.77000
0.92750 0.25500 0.77000
1.00000 0.25500 0.77000
0.00000 0.38250 0.77000
0.13250 0.38250 0.77000
0.26500 0.38250 0.77000
0.39750 0.38250 0.77000
0.53000 0.38250 0.77000
0.66250 0.38250 0.77000
0.79500 0.38250 0.77000
0.92750 0.38250 0.77000
1.00000 0.38250 0.77000
0.00000 0.51000 0.77000
0.13250 0.51000 0.77000
0.26500 0.51000 0.77000
0.39750 0.51000 0.77000
0.53000 0.51000 0.77000
0.66250 0.51000 0.77000
0.79500 0.51000 0.77000
0.92750 0.51000 0.77000
1.00000 0.51000 0.77000
0.00000 0.63750 0.77000
0.13250 0.63750 0.77000
0.26500 0.63750 0.77000
0.39750 0.63750 0.77000
0.53000 0.63750 0.77000
0.66250 0.63750 0.77000
0.79500 0.63750 0.77000
0.92750 0.63750 0.77000
1.00000 0.63750 0.77000
0.00000 0.76500 0.77000
0.13250 0.76500 0.77000
0.26500 0.76500 0.77000
0.39750 0.76500 0.77000
0.53000 0.76500 0.77000
0.66250 0.76500 0.77000
0.79500 0.76500 0.77000
0.92750 0.76500 0.77000
1.00000 0.76500 0.77000
0.00000 0.89250 0.77000
0.13250 0.89250 0.77000
0.26500 0.89250 0.77000
0.39750 0.89250 0.77000
0.53000 0.89250 0.77000
0.66250 0.89250 0.77000
0.79500 0.89250 0.77000
0.92750 0.89250 0.77000
1.00000 0.89250 0.77000
0.00000 1.00000 0.77000
0.13250 1.00000 0.77000
0.26500 1.00000 0.77000
0.39750 1.00000 0.77000
0.53000 1.00000 0.77000
0.66250 1.00000 0.77000
0.79500 1.00000 0.77000
0.92750 1.00000 0.77000
1.00000 1.00000 0.77000
0.00000 0.00000 0.88000
0.13250 0.00000 0.88000
0.26500 0.00000 0.88000
0.39750 0.00000 0.88000
0.53000 0.00000 0.88000
0.66250 0.00000 0.88000
0.79500 0.00000 0.88000
0.92750 0.00000 0.88000
1.00000 0.00000 0.88000
0.00000 0.12750 0.88000
0.13250 0.12750 0.88000
0.26500 0.12750 0.88000
0.39750 0.12750 0.88000
0.53000 0.12750 0.88000
0.66250 0.12750 0.88000
0.79500 0.12750 0.88000
0.92750 0.12750 0.88000
1.00000 0.12750 0.88000
0.00000 0.25500 0.88000
0.13250 0.25500 0.88000
0.26500 0.25500 0.88000
0.39750 0.25500 0.88000
0.53000 0.25500 0.88000
0.66250 0.25500 0.88000
0.79500 0.25500 0.88000
0.92750 0.25500 0.88000
1.00000 0.25500 0.88000
0.00000 0.38250 0.88000
0.13250 0.38250 0.88000
0.26500 0.38250 0.88000
0.39750 0.38250 0.88000
0.53000 0.38250 0.88000
0.66250 0.38250 0.88000
0.79500 0.38250 0.88000
0.92750 0.38250 0.88000
1.00000 0.38250 0.88000
0.00000 0.51000 0.88000
0.13250 0.51000 0.88000
0.26500 0.51000 0.88000
0.39750 0.51000 0.88000
0.53000 0.51000 0.88000
0.66250 0.51000 0.88000
0.79500 0.51000 0.88000
0.92750 0.51000 0.88000
1.00000 0.51000 0.88000
0.00000 0.63750 0.88000
0.13250 0.63750 0.88000
0.26500 0.63750 0.88000
0.39750 0.63750 0.88000
0.53000 0.63750 0.88000
0.66250 0.63750 0.88000
0.79500 0.63750 0.88000
0.92750 0.63750 0.88000
1.00000 0.63750 0.88000
0.00000 0.76500 0.88000
0.13250 0.76500 0.88000
0.26500 0.76500 0.88000
0.39750 0.76500 0.88000
0.53000 0.76500 0.88000
0.66250 0.76500 0.88000
0.79500 0.76500 0.88000
0.92750 0.76500 0.88000
1.00000 0.76500 0.88000
0.00000 0.89250 0.88000
0.13250 0.89250 0.88000
0.26500 0.89250 0.88000
0.39750 0.89250 0.88000
0.53000 0.89250 0.88000
0.66250 0.89250 0.88000
0.79500 0.89250 0.88000
0.92750 0.89250 0.88000
1.00000 0.89250 0.88000
0.00000 1.00000 0.88000
0.13250 1.00000 0.88000
0.26500 1.00000 0.88000
0.39750 1.00000 0.88000
0.53000 1.00000 0.88000
0.66250 1.00000 0.88000
0.79500 1.00000 0.88000
0.92750 1.00000 0.88000
1.00000 1.00000 0.88000
